/* XPM */
static char *collectible[] = {
/* columns rows colors chars-per-pixel */
"64 64 3 1 ",
"  c black",
". c #FFD700",
"X c #FFA500",
/* pixels */
"                                                                ",
"                                                                ",
"                                                                ",
"                      ......................                    ",
"                   .........................                    ",
"                 .............................                  ",
"               .................................                ",
"              ...................................               ",
"             .....................................              ",
"            .......................................             ",
"           .........................................            ",
"           .........................................            ",
"          ...........X.......................X.....           ",
"          ..........XXX.....................XXX....           ",
"         ...........XXX.....................XXX.....          ",
"         ..........XXXXX...................XXXXX....          ",
"         ..........XXXXX...................XXXXX....          ",
"         ..........XXXXX...................XXXXX....          ",
"         ...........XXX.....................XXX.....          ",
"         ............X.......................X......          ",
"         .........................................          ",
"          .........................................            ",
"          .........................................            ",
"           .......................................             ",
"            .....................................              ",
"             ...................................               ",
"              .................................                ",
"               ...............................                 ",
"                 ...........................                   ",
"                   .......................                     ",
"                      ................                         ",
"                                                                ",
"                                                                ",
"                                                                ",
"                                                                ",
"                                                                ",
"                                                                ",
"                                                                ",
"                                                                ",
"                                                                ",
"                                                                ",
"                                                                ",
"                                                                ",
"                                                                ",
"                                                                ",
"                                                                ",
"                                                                ",
"                                                                ",
"                                                                ",
"                                                                ",
"                                                                ",
"                                                                ",
"                                                                ",
"                                                                ",
"                                                                ",
"                                                                ",
"                                                                ",
"                                                                ",
"                                                                ",
"                                                                ",
"                                                                ",
"                                                                ",
"                                                                ",
"                                                                "};
