/* XPM */
static char *result[] = {
/* columns rows colors chars-per-pixel */
"64 64 13 1 ",
"  c black",
". c #3B3C57",
"X c #583550",
"o c #AE5377",
"O c #52629C",
"+ c #967887",
"@ c #DE7997",
"# c #D6B7BF",
"$ c #E0E8F7",
"% c #E8E8F7",
"& c #E8F0F7",
"* c #F0F8F8",
"= c #F8F8F8",
/* pixels */
"========********========************&&&&$$$$&&&&****============",
"========********========************&&&&$$$$&&&&****============",
"========********========************&&&&$$$$&&&&****============",
"========********========************&&&&$$$$&&&&****============",
"========================XXXXXXXXXX======================********",
"========================XXXXXXXXXX======================********",
"======================XX%%%%oo@@ooXXXX==================********",
"======================XX%%%%oo@@ooXXXX==================********",
"****============******XX%%%%oo@@@@@@@@XXXX==========************",
"****============******XX%%%%oo@@@@@@@@XXXX==========************",
"****============******XXXXoo@@@@@@@@@@@@@@XX========************",
"****============******XXXXoo@@@@@@@@@@@@@@XX========************",
"****================XX@@XX@@@@@@@@@@@@@@@@@@XX==========********",
"****================XX@@XX@@@@@@@@@@@@@@@@@@XX==========********",
"****==============  @@@@@@oo@@@@@@@@@@@@@@@@@@  ========********",
"****==============  @@@@@@oo@@@@@@@@@@@@@@@@@@  ========********",
"==================  @@@@@@@@@@@@@@@@@@@@@@@@@@  ********========",
"==================  @@@@@@@@@@@@@@@@@@@@@@@@@@  ********========",
"================  oooo@@@@@@@@@@@@@@@@@@@@@@oooo  ******========",
"================  oooo@@@@@@@@@@@@@@@@@@@@@@oooo  ******========",
"============&&&&  XXXXXX@@@@@@@@@@@@@@@@@@XXXXXX  **************",
"============&&&&  XXXXXX@@@@@@@@@@@@@@@@@@XXXXXX  **************",
"============&&&&  oooo@@XXXXXXXXXXXXXXXXXX@@oooo  **************",
"============&&&&  oooo@@XXXXXXXXXXXXXXXXXX@@oooo  **************",
"====****&&&&&&&&  oooooo@@@@@@@@@@@@@@@@@@oooooo  ==============",
"====****&&&&&&&&  oooooo@@@@@@@@@@@@@@@@@@oooooo  ==============",
"====****&&&&&&&&**XXXXoooo@@@@@@@@@@@@@@ooooXX  ================",
"====****&&&&&&&&**XXXXoooo@@@@@@@@@@@@@@ooooXX  ================",
"****============  OOOOXXXXXXXXXXXXXXXXXXXXXXOOOO  &&$$$$========",
"****============  OOOOXXXXXXXXXXXXXXXXXXXXXXOOOO  &&$$$$========",
"****============  ..OOOO..OOOOOOOOOOOOOO..OOOO..  &&$$$$========",
"****============  ..OOOO..OOOOOOOOOOOOOO..OOOO..  &&$$$$========",
"==================  ..........OOOOOO..........  ================",
"==================  ..........OOOOOO..........  ================",
"====================    XX  ..........  XX    **================",
"====================    XX  ..........  XX    **================",
"==================  ++++XXXX          XXXX++++  ********========",
"==================  ++++XXXX          XXXX++++  ********========",
"================XX  ++++XX++++######++++XX++++  XX******========",
"================XX  ++++XX++++######++++XX++++  XX******========",
"====********&&&&XXoo  XX++++##########++++XX  ooXX==============",
"====********&&&&XXoo  XX++++##########++++XX  ooXX==============",
"====********&&&&&&XXXX  XXXX##########XXXX  XXXX================",
"====********&&&&&&XXXX  XXXX##########XXXX  XXXX================",
"********&&&&&&&&$$XX&&  ++++XXXXXXXXXX++++  ==XX================",
"********&&&&&&&&$$XX&&  ++++XXXXXXXXXX++++  ==XX================",
"********&&&&&&&&$$XX&&&&  ++++++XX++++++  ====XX================",
"********&&&&&&&&$$XX&&&&  ++++++XX++++++  ====XX================",
"================XX==****    ooooXXoooo    &&&&&&XX**============",
"================XX==****    ooooXXoooo    &&&&&&XX**============",
"================XX==****  OOOOOO  OOOOOO  &&&&&&XX**============",
"================XX==****  OOOOOO  OOOOOO  &&&&&&XX**============",
"========********========**              $$$$&&&&****============",
"========********========**              $$$$&&&&****============",
"========********========************&&&&$$$$&&&&****============",
"========********========************&&&&$$$$&&&&****============",
"****============****************====================************",
"****============****************====================************",
"****============****************====================************",
"****============****************====================************",
"************====================================================",
"************====================================================",
"************====================================================",
"************===================================================="
};
