/* XPM */
static char *exit_door[] = {
/* columns rows colors chars-per-pixel */
"64 64 4 1 ",
"  c black",
". c #8B4513",
"X c #654321",
"o c #FFD700",
/* pixels */
"                                                                ",
"                                                                ",
"                                                                ",
"                                                                ",
"         .................................................      ",
"         .................................................      ",
"         ..XXXXXXXXXXXXXXXXXXXXXXXXXXXXXXXXXXXXXXXX.....      ",
"         ..XXXXXXXXXXXXXXXXXXXXXXXXXXXXXXXXXXXXXXXX.....      ",
"         ..XXXXXXXXXXXXXXXXXXXXXXXXXXXXXXXXXXXXXXXX.....      ",
"         ..XXXXXXXXXXXXXXXXXXXXXXXXXXXXXXXXXXXXXXXX.....      ",
"         ..XXXXXXXXXXXXXXXXXXXXXXXXXXXXXXXXXXXXXXXX.....      ",
"         ..XXXXXXXXXXXXXXXXXXXXXXXXXXXXXXXXXXXXXXXX.....      ",
"         ..XXXXXXXXXXXXXXXXXXXXXXXXXXXXXXXXXXXXXXXX.....      ",
"         ..XXXXXXXXXXXXXXXXXXXXXXXXXXXXXXXXXXXXXXXX.....      ",
"         ..XXXXXXXXXXXXXXXXXXXXXXXXXXXXXXXXXXXXXXXX.....      ",
"         ..XXXXXXXXXXXXXXXXXXXXXXXXXXXXXXXXXXXXXXXX.....      ",
"         ..XXXXXXXXXXXXXXXXXXXXXXXXXXXXXXXXXXXXXXXX.....      ",
"         ..XXXXXXXXXXXXXXXXXXXXXXXXoooXXXXXXXXXXXXXXX.....      ",
"         ..XXXXXXXXXXXXXXXXXXXXXXXooooXXXXXXXXXXXXXXX.....      ",
"         ..XXXXXXXXXXXXXXXXXXXXXXXooooXXXXXXXXXXXXXXX.....      ",
"         ..XXXXXXXXXXXXXXXXXXXXXXXXoooXXXXXXXXXXXXXXX.....      ",
"         ..XXXXXXXXXXXXXXXXXXXXXXXXXXXXXXXXXXXXXXXX.....      ",
"         ..XXXXXXXXXXXXXXXXXXXXXXXXXXXXXXXXXXXXXXXX.....      ",
"         ..XXXXXXXXXXXXXXXXXXXXXXXXXXXXXXXXXXXXXXXX.....      ",
"         ..XXXXXXXXXXXXXXXXXXXXXXXXXXXXXXXXXXXXXXXX.....      ",
"         ..XXXXXXXXXXXXXXXXXXXXXXXXXXXXXXXXXXXXXXXX.....      ",
"         ..XXXXXXXXXXXXXXXXXXXXXXXXXXXXXXXXXXXXXXXX.....      ",
"         ..XXXXXXXXXXXXXXXXXXXXXXXXXXXXXXXXXXXXXXXX.....      ",
"         ..XXXXXXXXXXXXXXXXXXXXXXXXXXXXXXXXXXXXXXXX.....      ",
"         ..XXXXXXXXXXXXXXXXXXXXXXXXXXXXXXXXXXXXXXXX.....      ",
"         ..XXXXXXXXXXXXXXXXXXXXXXXXXXXXXXXXXXXXXXXX.....      ",
"         ..XXXXXXXXXXXXXXXXXXXXXXXXXXXXXXXXXXXXXXXX.....      ",
"         ..XXXXXXXXXXXXXXXXXXXXXXXXXXXXXXXXXXXXXXXX.....      ",
"         ..XXXXXXXXXXXXXXXXXXXXXXXXXXXXXXXXXXXXXXXX.....      ",
"         ..XXXXXXXXXXXXXXXXXXXXXXXXXXXXXXXXXXXXXXXX.....      ",
"         ..XXXXXXXXXXXXXXXXXXXXXXXXXXXXXXXXXXXXXXXX.....      ",
"         ..XXXXXXXXXXXXXXXXXXXXXXXXXXXXXXXXXXXXXXXX.....      ",
"         ..XXXXXXXXXXXXXXXXXXXXXXXXXXXXXXXXXXXXXXXX.....      ",
"         ..XXXXXXXXXXXXXXXXXXXXXXXXXXXXXXXXXXXXXXXX.....      ",
"         ..XXXXXXXXXXXXXXXXXXXXXXXXXXXXXXXXXXXXXXXX.....      ",
"         ..XXXXXXXXXXXXXXXXXXXXXXXXXXXXXXXXXXXXXXXX.....      ",
"         ..XXXXXXXXXXXXXXXXXXXXXXXXXXXXXXXXXXXXXXXX.....      ",
"         ..XXXXXXXXXXXXXXXXXXXXXXXXXXXXXXXXXXXXXXXX.....      ",
"         ..XXXXXXXXXXXXXXXXXXXXXXXXXXXXXXXXXXXXXXXX.....      ",
"         ..XXXXXXXXXXXXXXXXXXXXXXXXXXXXXXXXXXXXXXXX.....      ",
"         ..XXXXXXXXXXXXXXXXXXXXXXXXXXXXXXXXXXXXXXXX.....      ",
"         ..XXXXXXXXXXXXXXXXXXXXXXXXXXXXXXXXXXXXXXXX.....      ",
"         ..XXXXXXXXXXXXXXXXXXXXXXXXXXXXXXXXXXXXXXXX.....      ",
"         ..XXXXXXXXXXXXXXXXXXXXXXXXXXXXXXXXXXXXXXXX.....      ",
"         ..XXXXXXXXXXXXXXXXXXXXXXXXXXXXXXXXXXXXXXXX.....      ",
"         ..XXXXXXXXXXXXXXXXXXXXXXXXXXXXXXXXXXXXXXXX.....      ",
"         ..XXXXXXXXXXXXXXXXXXXXXXXXXXXXXXXXXXXXXXXX.....      ",
"         ..XXXXXXXXXXXXXXXXXXXXXXXXXXXXXXXXXXXXXXXX.....      ",
"         ..XXXXXXXXXXXXXXXXXXXXXXXXXXXXXXXXXXXXXXXX.....      ",
"         ..XXXXXXXXXXXXXXXXXXXXXXXXXXXXXXXXXXXXXXXX.....      ",
"         ..XXXXXXXXXXXXXXXXXXXXXXXXXXXXXXXXXXXXXXXX.....      ",
"         .................................................      ",
"         .................................................      ",
"                                                                ",
"                                                                ",
"                                                                ",
"                                                                ",
"                                                                ",
"                                                                ",
"                                                                "};
