/* XPM */
static char *result[] = {
/* columns rows colors chars-per-pixel */
"64 64 37 1 ",
"  c #236DD5",
". c #2D6BD5",
"X c #256BDD",
"o c #2B6DDD",
"O c #316DDC",
"+ c #2F75D7",
"@ c #2771DC",
"# c #2D73DD",
"$ c #2E79DE",
"% c #3075DB",
"& c #266DE1",
"* c #2B6EE1",
"= c #316DE3",
"- c #2672E4",
"; c #2B73E5",
": c #2E79E5",
"> c #2774E9",
", c #2D75E8",
"< c #2E79EA",
"1 c #3175E5",
"2 c #3379E5",
"3 c #387EE7",
"4 c #3177E9",
"5 c #337BEB",
"6 c #397EEC",
"7 c #347FF0",
"8 c #397FF0",
"9 c #3480E6",
"0 c #3A82E7",
"q c #3681ED",
"w c #3B83ED",
"e c #3682F1",
"r c #3B84F2",
"t c #3D88F3",
"y c #4183EE",
"u c #4185F1",
"i c #4089F3",
/* pixels */
"44;%%%#;;1;230665566,&*;;;o;;;#X;;;;14445<54544454,,-*-&---;455<",
"<,2%%%#;;;#;226e66782-X*##o#*;#;#;;11114554774444<,,;**--*;-,44,",
"<21%%+%;-*##;25766865,-;1111;1;;;#;*=114,5<547<,4,;,;---&-;;,,47",
"<,$%%%%;-;;@#;,576re5667236663#oo;;1=114,,4544,44,,;,;---XX;>>,4",
",,#%%%#;*;&;#;2566eq8r8r6ywtw02;#;1;1111;444444,4;;;,->;>&&&**>,",
",,;%++%;--;---;:,:<57rrttwttrq5215511*=4*,,4,4,44,,,-,;;-&&&&&,,",
",,;+++;;,>;*;----#-;57rtweqqrrqqrr75;#;;;;,*4,4,,,;-,>;>--*&&&>>",
">*#+++#;>------##;;;556q0qttttttutr61;*o,;;,,44,,,,,,->;>>>>>=>&",
">;#+++$#>>,,,>>*-;#>125699qqrrttrr85;;#;1;#;;4,4,;;,>,>>->>>>,>>",
";>-$@$#->;;;-,>>@-@;;;::999qertrrr75-#*;;***;;4;44,>>-:--,>,;>;;",
";;###:;#--;;*,*,@----@-->><qetrirrr5;;;;111*1,;4,,;,:,>---,>,>,,",
",,;;;##;#;;#;--*:;:-;::-@:<erttutr75;#;-=;O;*4==44<>,,,-,>-,>,&,",
",*,1;1;;#;#;;#;;;>;-9-$:-:<qrruutr77,*#&ooo;114144,,,,<,,--,->>*",
",>*,=1##;#;#1*;#;--:->--::5qrrrrtrr7,&;X*oo;**11,,,4,,>:,>,--,>,",
";;;;%;##;;#11*;;-;-:--->>:<qerrrrte7<;;#;o#o;;;-;,*,;<<>-,-,>,**",
"**;*;;#+;;;=11;1>:->--->@--:<5rrtre75-;;#o*-;o;#**,,;;>>,>,,-*,,",
",*oOOO#%1#;11;1;;;;;->;;>=>;,4qtrrre2:$$##o-X@@@---o*;,=,,,;;>=>",
"*&**Oo.o*O*;=;;#;;*;;,;>,>=>,4<6rrrqq::91;##&@-X&**;,;=4*-;;,=**",
"&**OO..%oo**;*1;;;;1;>;;,=>=;;5567rrq00w34;#*@;X&&;;*;=;;;;>*,,*",
",-*=OOOoooo**;;*1*;;;;;->=>>,1;256rrrw0tw6;#X-X;;@*o******=*;-,,",
"**.OOO+.oo*o*=O;;4;;;1;>>=>=;5;:5qrtwttiw0:>#@X;ooo**oo;******,-",
"*ooOOOO..oo=**;11*1,;;;;,,>=;;;:6ertttwtqr032-@Xo*oo*;=*=****,,*",
"**=OOO..Ooo=o*o=;=1*;;1;,,,,;*;;56wrt00tqqrqq:-@;=*;==*==**=**;;",
",,=OO...OoOooo=o1,;11;;;;>;,-,;;;36ww0ttqttrw2:9341*%=1=====;*,4",
"541=.... oooOX==*4;1,4,>>>;>-:->;266qqrrrwqqqqqq861;****==*=;*44",
"8531++.#+oooo**=,*4*,=,=,>>;-:-,-;,366ewrrtqqtqtr65>;,=;=*=;1,45",
"5e31%%$$##o.oooo*;;1;,,>>,,>>-:-;;;44556qqrrttttur5<5574==**;,,5",
"7662290$2#oooX.X*;=;,;,=,>,,>:-:;;;,,<<5:qqrtqtqtre7eq771=;*;,<<",
"<6636wy00%oO#o o*-;;;;,,>-,>>;:-=>>=,,4;::0qqqqqrrrerrre55;;;;;1",
";<333yy00311oooo**;;;*;;-,-,:--:>=>,,,;;-:<50<<:77errrrrr65-;;;;",
";;223y0000311ooo***o-;,;,;4,;:;;,,;;;,;;-:::<<::>7eeetrrrre<;;-;",
"--$233000w031oo *XX-*-*,1;*1;;#;=>;>=;;;:;>:--->>><err8rrrr5;-;;",
"*;11330ytu02# o XX#X#==;=4;4;;;>>>;>*>->-;-;;;;---257eeettr7>-;-",
"**111330uuw2+#oX#X;#o;***;=;;,;,;**>,--,;-;>-;;;::><<eeetre<--**",
"--;1%130ttt02##@o#;oo;o****1;44,,,;,;>,>;;-;;;->;--><7ereeee4--*",
"*;*1%130uw0w0$##XXo#oooo*=**;*-*;;;;>>>--;,-->;;>#;><eerttee64;-",
"-;;1%33ytwww002##ooo**=1==*o****;-*;;;-:------,--;->>7ereerrr7,&",
",441223www0wtw92;#o#.oo*=oo*****-*--->>>,,,,,,>,----,<erqertre5,",
",,41222900wwt00621##ooo==O=o*=***-;;---:,-,,,-,&-,-,--<<9eeerr7,",
"54111$2990i0tw0w33%;ooo*====*=****;-;>>:-,-->,->;:,>,>,,qqe6er75",
"5454113260wyyyyuu31+o#;..;oO*o*O***;,4**,;,,,>>,--->>>>>9qee7877",
"<5441466wwryyuwyy2;.o.##o..*ooo*-**o=44*;,,,;>*,->>>><<<qqrr8777",
"55<4136yuuuuyywuy21..o.ooooo*oo.*oo*=,=;;;;;,>;>>>>>>qeeeeerre77",
"5<44436wtuw0wywyy411#;#;oo.=1=11**oo*,===>;,;>,;->>>>qeeq7ee7557",
"5<4423330q2326wwu653252112233414;*Xo***&>=>>;,,>---><<<<5555<,,5",
";44212112::12566u866668666y68r651;*o&**&*>=;=,;>--->>><<<,,:,---",
">;441111;#1%1156866r6rrr8rruu8651=*oX&&&*&>;,,==>-->:--->;-;>;;;",
",1121122$;#;#223666668tuuuru86311*oXo***&**,,,>>:->>->-;;>;;;5;>",
"<,>1211:$1#:1#2;:;226wrurrwee<;;&&&&X=X=>==&>&>=->:->>>>*,>;;>:,",
",:<11;$#%221;2$1;22256rrwqqee<2;&=&=XXX==>=>&>=>->>>>>>;;;,;;<;<",
",<;5122$22#$22;2;#;2:5369qqqqeqq=====XX=&&&=&==>,-,-,==>,-,;,;;<",
"<,<121$2:;::#;$;:#;;;:;;::<qeeqe88===XX=&=&=&>>=*,-,>;>,;,;,:<;<",
",:,1212$:2:::;::2;::;;1;$-9qeeee884==XX=**&*&==>,>*,>>>,;>>;,>:,",
",,,5:2$::;:;::2;;:;;;:;>::9qeeet8=7=XXXX&X&&&=&=>*,,>;=>,,:,,,,,",
">:<22;2:2::5<::;:;:;:;5;$-99eeee44,=XXX=X=XX&&&&*>**;>;,-,;,;,,>",
":><51222:::::2::<;2;::;,-999eeee=4>==X==XXXXX&&X>*>>;*;,-,>,,;;>",
"41111122221344141;2:,;:;;:;2<26w84:52:@ XXXXXXXX=o*==;,*,,4<<,,,",
",1=11112:2433431144;2;;;;#;-;<6q885qq2$@XX XXXXXo&**=***-;,<4,;,",
"4;=11%12122242141;5;;:;;#-#@;25q8r769q:@&X XXXXXXX&*****;,,,4,,,",
";41111%1:1;22154511:<;1;:;;#-:6r886662::;&XXXXXXXX&***;X*,*,,,4,",
",4=1=1%;;#123434115,;1;;;;#;;;6qwq56qq5:4,&XXXXXXXXX*&*;,&*,,,4,",
"*;;;%####;114334514:21;11#;#;;26655665504,*&XXX&X&&***-*&,-;;,4,",
";;%##%##;;;243531555;;;;;;#;#;;:>;;2555<54,,,-,,*4=*&o-*&,-;,,,,",
"51111%%$;2;1355555552;;;#*#;;;;#;#;><55555555445554;;&*--&*;,444"
};
