/* XPM */
static char *_52557e689dc477db0d1b79e39fbc9f9c9fgnjda2tpmaNpB[] = {
/* columns rows colors chars-per-pixel */
"256 256 256 2 ",
"   c #47704C",
".  c black",
"X  c black",
"o  c black",
"O  c black",
"+  c black",
"@  c black",
"#  c None",
"$  c black",
"%  c black",
"&  c black",
"*  c #2C2860",
"=  c black",
"-  c black",
";  c black",
":  c black",
">  c black",
",  c black",
"<  c black",
"1  c black",
"2  c #372D6C",
"3  c #352C69",
"4  c #3A2F6F",
"5  c #48357F",
"6  c #2A275F",
"7  c #2F2963",
"8  c #332B67",
"9  c #3D3071",
"0  c #4F3883",
"q  c #68539A",
"w  c #2C2860",
"e  c #443379",
"r  c #4B3681",
"t  c #2D3B63",
"y  c #614F92",
"u  c #423376",
"i  c #645096",
"p  c white",
"a  c #573D87",
"s  c #4B427E",
"d  c #312A65",
"f  c #5D4C8F",
"g  c #4E3980",
"h  c #2A3960",
"j  c #0393D3",
"k  c #524685",
"l  c #49377B",
"z  c #303E66",
"x  c #523B85",
"c  c #1F2050",
"v  c #473679",
"b  c #4F4482",
"n  c #594B8B",
"m  c #5B408A",
"M  c #46347C",
"N  c #3B356A",
"B  c #48417B",
"V  c #27355E",
"C  c #4B3776",
"Z  c #564888",
"A  c #3F3B75",
"S  c #222254",
"D  c #3E3074",
"F  c #443E78",
"G  c #252356",
"H  c #26255A",
"J  c #3E4E7C",
"K  c #493674",
"L  c #383366",
"P  c #453470",
"I  c #4B377F",
"U  c #435482",
"Y  c #FAD09F",
"T  c #41517E",
"R  c #E5AC6B",
"E  c #FFF6D0",
"W  c #1B1E4B",
"Q  c #B27E43",
"!  c #FCD8AE",
"~  c #41316B",
"^  c #554C84",
"/  c #4E487F",
"(  c #3A4A77",
")  c #4E3879",
"_  c #5D528A",
"`  c #403273",
"'  c #05050A",
"]  c #F0C89A",
"[  c #FAC990",
"{  c #FBDDB6",
"}  c #FCD4A7",
"|  c #42326E",
" . c #DDA767",
".. c #513A7C",
"X. c #FACC98",
"o. c #F7B973",
"O. c #3C4C79",
"+. c #485987",
"@. c #D29B5B",
"#. c #3F386D",
"$. c #31406B",
"%. c #473572",
"&. c #655790",
"*. c #4D387D",
"=. c #B78548",
"-. c #ECB16E",
";. c #465783",
":. c #233159",
">. c #A9B4D0",
",. c #29265C",
"<. c #3A2E65",
"1. c #F8C488",
"2. c #F5BF81",
"3. c #D48D4C",
"4. c #3F2F66",
"5. c #CFB18F",
"6. c #DDB78A",
"7. c #BD8B4C",
"8. c #D7A161",
"9. c #CA9656",
"0. c #EEB676",
"q. c #F1BA7C",
"w. c #7586B2",
"e. c #DABB96",
"r. c #E6BE90",
"t. c #8090B9",
"y. c #C4A98A",
"u. c #A0ABCA",
"i. c #C49051",
"p. c #523C81",
"a. c #382855",
"s. c #384874",
"d. c #E6B276",
"f. c #E6B782",
"g. c #BA8956",
"h. c #0D0F21",
"j. c #3C306A",
"k. c #F2C38F",
"l. c #3D2B5D",
"z. c #1F2B52",
"x. c #4B5B8A",
"c. c #A77A3E",
"v. c #CDA97F",
"b. c #B89F82",
"n. c #C0925D",
"m. c #D7B083",
"M. c #372C62",
"N. c #E7C399",
"B. c #B4BED7",
"V. c #EDBE87",
"C. c #DDAE78",
"Z. c #95A3C5",
"A. c #A66A30",
"S. c #FDEDC7",
"D. c #332A5E",
"F. c #D2A26A",
"G. c #D5A874",
"H. c #8A9AC0",
"J. c #090A14",
"K. c #51608A",
"L. c #1E1D42",
"P. c #35446F",
"I. c #43588F",
"U. c #C99A61",
"Y. c #293967",
"T. c #596790",
"R. c #443A71",
"E. c #6C629C",
"W. c #13152B",
"Q. c #B07439",
"!. c #AC9478",
"~. c #FBE5BB",
"^. c #EED0A8",
"/. c #EDF1F2",
"(. c #C0CADC",
"). c #C79D6B",
"_. c #956E3A",
"`. c #161937",
"'. c #C8A174",
"]. c #F8F8F9",
"[. c #E5C8A2",
"{. c #F4D9AF",
"}. c #DDDDDC",
"|. c #E6E7E7",
" X c #4B6096",
".X c #AC8057",
"XX c #314273",
"oX c #637098",
"OX c #BF966A",
"+X c #B38766",
"@X c #2F2759",
"#X c #A48B6D",
"$X c #16284A",
"%X c #312550",
"&X c #B38CAC",
"*X c #9A7751",
"=X c #826559",
"-X c #937E69",
";X c #7C6380",
":X c #B28687",
">X c #9C8975",
",X c #D5D3CF",
"<X c #A27A5E",
"1X c #B58B9D",
"2X c #604A78",
"3X c #A57C7B",
"4X c #2D2245",
"5X c #E19F5D",
"6X c #A67F91",
"7X c #79689B",
"8X c #473F47",
"9X c #4E3C61",
"0X c #6C5053",
"qX c #DCCEBE",
"wX c #827A7B",
"eX c #875D37",
"rX c #8673A4",
"tX c #A8704A",
"yX c gray8",
"uX c #8A6B6D",
"iX c #91728A",
"pX c #A58EB8",
"aX c #9281AD",
"sX c #2A2928",
"dX c #0C0D0D",
"fX c #5F4961",
"gX c #6E5577",
"hX c #534D50",
"jX c #363C68",
"kX c #373735",
"lX c #1D1D1D",
"zX c #B2B3B3",
"xX c #716C6A",
"cX c #4D507F",
"vX c #444875",
"bX c #C7C5C3",
"nX c #6CBCE0",
"mX c #9E530E",
"MX c #25A1D9",
"NX c #068FCD",
"BX c #0989C2",
"VX c #9B9998",
"CX c #A0D3EA",
"ZX c #FBF0E2",
"AX c #0B4A65",
"SX c #097FB4",
"DX c #502B10",
"FX c #47ACD8",
"GX c #0A5C81",
"HX c #69401F",
"JX c #086994",
"KX c #844309",
"LX c #B65A04",
"PX c #0472A3",
"IX c #C7874B",
"UX c #C2E3F1",
/* pixels */
"                                                                                                                                                                                                                                                                                                                                                                                                                                                                                                                                ",
"                                                                                                                                                                                                                                                                                                                                                                                                                                                                                                                                ",
"                                                                                                                                                                                                                                                                                                                                                                                                                                                                                                                                ",
"                                                                                                                                                                                                                                                                                                                                                                                                                                                                                                                                ",
"                                                                                                                                                                                                                                                                                                                                                                                                                                                                                                                                ",
"          o %                                                                                                                                                                                                                                                                                                                                                                                                                                                                                                     % o           ",
"          & o                                                                                                                                                                                                                                                                                                                                                                                                                                                                                                     o &           ",
"          X X -                                                                                                                                                                                                                                                                                                                                                                                                                                                                                                 - X X           ",
"        . > O & .                                                                                                                                                                                                                                                                                                                                                                                                                                                                                             . & O > .         ",
"        ; > 1 > <                                                                                                                                                                                                                                                                                                                                                                                                                                                                                             < > 1 > ;         ",
"        - > 1 # : ;                                                                                                                                                                                                                                                                                                                                                                                                                                                                                         ; : # 1 > -         ",
"        $ = 1 # O o .                                                                                                                                                                                                                                                                                                                                                                                                                                                                                     . o O 1 1 = $         ",
"        o O 1 # 1 > -                                                                                                                                                                                                                                                                                                                                                                                                                                                                                     - > # 1 1 = o         ",
"        @ O 1 # 1 1 : .                                                                                                                                                                                                           % . + ; ; - - $ $ $ $ $ $ $ $ $ $ $ $ $ $ $ $ - - ; ; + . %                                                                                                                                                                                                           . : 1 # 1 1 O @         ",
"        : # 1 # 1 1 O <                                                                                                                                                                                               . ; - $ < o @ @ : : , X X = # 1 1 1 1 1 # 1 1 1 1 1 1 # = X X , : : @ @ o < $ - ; .                                                                                                                                                                                               < O 1 # 1 1 # :         ",
"      . : 1 1 # 1 1 1 X ;                                                                                                                                                                                   . ; $ o @ & , X > = 1 1 1 1 1 1 1 # 1 1 1 1 1 1 1 # 1 1 1 1 1 1 1 # 1 1 1 1 1 1 1 # = > X , & @ o $ ; .                                                                                                                                                                                   ; X 1 1 # 1 1 1 : .       ",
"      + , # # # # # # O @ %                                                                                                                                                                         % - < & , X > = # 1 # O # # # # # # # # # # # # # # # # # # # # # # # # # # # # # # # # # # # # O # # 1 = > X , & < - %                                                                                                                                                                         % @ O # # # # # # , +       ",
"      - X 1 1 # 1 1 1 # > $                                                                                                                                                               % . - o : > = O O 1 # 1 1 1 1 1 1 1 # 1 1 1 1 1 1 1 # 1 1 1 1 1 1 1 # 1 1 1 1 1 1 1 # 1 1 1 1 1 1 1 # 1 1 1 1 1 1 1 # 1 1 # O = > : o - . %                                                                                                                                                               $ > # 1 1 # 1 1 1 X -       ",
"      $ X 1 1 # 1 1 1 1 1 : ;                                                                                                                                                     % . ; $ @ X # 1 # 1 1 1 1 1 # 1 1 1 1 1 1 1 # 1 1 1 1 1 1 1 # 1 1 1 1 1 1 1 # 1 1 1 1 1 1 1 # 1 1 1 1 1 1 1 # 1 1 1 1 1 1 1 # 1 1 1 1 1 1 1 O 1 X @ $ ; . %                                                                                                                                                     ; : 1 1 1 1 # 1 1 1 X $       ",
"      < > 1 1 # 1 1 1 1 1 = o .                                                                                                                                               + - < & X # 1 1 # 1 1 1 1 1 1 1 # 1 1 1 1 1 1 1 # 1 1 1 1 1 1 1 # 1 1 1 1 1 1 1 # 1 1 1 1 1 1 1 # 1 1 1 1 1 1 1 # 1 1 1 1 1 1 1 # 1 1 1 1 1 1 1 # 1 1 1 O X & < - +                                                                                                                                               . o = 1 1 1 1 # 1 1 1 > <       ",
"      o = 1 1 # 1 1 1 1 1 1 X -                                                                                                                                         % - < & X O 1 1 1 1 1 # 1 1 1 1 1 1 1 # 1 1 1 1 1 1 1 # 1 1 1 1 1 1 1 # 1 1 1 1 1 1 1 # 1 1 1 1 1 1 1 # 1 1 1 1 1 1 1 # 1 1 1 1 1 1 1 # 1 1 1 1 1 1 1 # 1 1 1 1 1 1 O X & < - %                                                                                                                                         - X 1 1 1 1 1 # 1 1 1 = o       ",
"      @ # 1 1 # 1 1 1 1 1 1 O & .                                                                                                                                   . < & , = # 1 1 1 1 1 1 1 # 1 1 1 1 1 1 1 # 1 1 1 1 1 1 1 # 1 1 1 1 1 1 1 # 1 1 1 1 1 1 1 # 1 1 1 1 1 1 1 # 1 1 1 1 1 1 1 # 1 1 1 1 1 1 1 # 1 1 1 1 1 1 1 # 1 1 1 1 1 1 1 # # = , & < .                                                                                                                                   . & # 1 1 1 1 1 # 1 1 1 # @       ",
"    % & 1 1 1 # 1 1 1 1 1 1 1 = $                                                                                                                               ; o X > O 1 1 # 1 1 1 1 1 1 1 # 1 1 1 1 1 1 1 # 1 1 1 1 1 1 1 # 1 1 1 1 1 1 1 # 1 1 1 1 1 1 1 # 1 1 1 1 1 1 1 # 1 1 1 1 1 1 1 # 1 1 1 1 1 1 1 # 1 1 1 1 1 1 1 # 1 1 1 1 1 1 1 # 1 1 1 O > X o ;                                                                                                                               $ = 1 1 1 1 1 1 # 1 1 1 1 & %     ",
"    + & 1 1 1 # 1 1 1 1 1 1 1 # > .                                                                                                                       . - & = O 1 1 1 1 1 # 1 1 1 1 1 1 1 # 1 1 1 1 1 1 1 # 1 1 1 1 1 1 1 # 1 1 1 1 1 1 1 # 1 1 1 1 1 1 1 # 1 1 1 1 1 1 1 # 1 1 1 1 1 1 1 # 1 1 1 1 1 1 1 # 1 1 1 1 1 1 1 # 1 1 1 1 1 1 1 # 1 1 1 1 1 1 O = & - .                                                                                                                       . > 1 1 1 1 1 1 1 # 1 1 1 1 & +     ",
"    ; : # # # # # # # # # # # # # @ %                                                                                                               % + $ : O # # # # # # # # # # # # # # # # # # # # # # # # # # # # # # # # # # # # # # # # # # # # # # # # # # # # # # # # # # # # # # # # # # # # # # # # # # # # # # # # # # # # # # # # # # # # # # # # # # O : $ + %                                                                                                               % @ # # # # # # # # # # # # # : ;     ",
"    - , 1 1 1 # 1 1 1 1 1 1 1 # 1 = -                                                                                                           % ; < : 1 1 1 # 1 1 1 1 1 1 1 # 1 1 1 1 1 1 1 # 1 1 1 1 1 1 1 # 1 1 1 1 1 1 1 # 1 1 1 1 ' J.J.h.h.W.W.W.W.W.W.W.W.W.W.W.W.W.W.h.h.J.J.dX1 1 1 # 1 1 1 1 1 1 1 # 1 1 1 1 1 1 1 # 1 1 1 1 1 1 1 # 1 1 1 1 1 1 1 # 1 1 1 1 : < ; %                                                                                                           - = # 1 1 1 1 1 1 1 # 1 1 1 1 , -     ",
"    $ X 1 1 1 # 1 1 1 1 1 1 1 # 1 # : +                                                                                                       + o : = 1 1 1 1 # 1 1 1 1 1 1 1 # 1 1 1 1 1 1 1 # 1 1 1 1 1 1 1 # 1 1 1 1 1 1 J.W.W.L.$Xz.V h z P.P.( J J J J J T J T J J J J ( P.P.z h h z.$XL.`.W.J.1 1 1 1 1 # 1 1 1 1 1 1 1 # 1 1 1 1 1 1 1 # 1 1 1 1 1 1 1 # 1 1 1 1 1 = : o +                                                                                                       + : # # 1 1 1 1 1 1 1 # 1 1 1 1 X $     ",
"    $ = 1 1 1 # 1 1 1 1 1 1 1 # 1 1 = o %                                                                                                 . o , = 1 1 1 1 1 1 # 1 1 1 1 1 1 1 # 1 1 1 1 1 1 1 # 1 1 1 1 1 1 1 # 1 h.`.L.z.h z P.( J U U I.U I.I.I.I.I.I.I.I.I.I.I.I.I.I.I.I.I.I.I.I.I.U I.U J ( s.$.h :.L.`.h.# 1 1 1 1 1 1 1 # 1 1 1 1 1 1 1 # 1 1 1 1 1 1 1 # 1 1 1 1 1 1 1 > , o .                                                                                                   o = 1 # 1 1 1 1 1 1 1 # 1 1 1 1 = $     ",
"    < # 1 1 1 # 1 1 1 1 1 1 1 # 1 1 # , -                                                                                             % $ , = # 1 1 1 1 1 1 1 # 1 1 1 1 1 1 1 # 1 1 1 1 1 1 1 # 1 1 1 1 1 J.L.@XL N s.J J U U I.U I.I.I.I.I.I.I.I.I.I.I.I.I. XI. XI. XI.I.I.I.I.I.I.I.I.I.I.I.I.U I.U U J s.N L @XL.J.1 1 1 1 # 1 1 1 1 1 1 1 # 1 1 1 1 1 1 1 # 1 1 1 1 1 1 1 # 1 = , $ %                                                                                             - , # 1 # 1 1 1 1 1 1 1 # 1 1 1 1 # <     ",
"  % o 1 1 1 1 # 1 1 1 1 1 1 1 # 1 1 1 # & +                                                                                       % $ , O # 1 # 1 1 1 1 1 1 1 # 1 1 1 1 1 1 1 # 1 1 1 1 1 1 1 # ' ' `.D.#.A A A F F J U U I.I.U I.I.I.I.I.I.I.I.I. XI. X X X X X X X X X X X X X XI.I.I.I.I.I.I.I.I.I.I.I.J F F F A A A D.`.' ' 1 1 1 1 1 1 1 # 1 1 1 1 1 1 1 # 1 1 1 1 1 1 1 # 1 1 # O , $ %                                                                                       . & # 1 1 # 1 1 1 1 1 1 1 # 1 1 1 1 1 o %   ",
"  . @ 1 1 1 1 # 1 1 1 1 1 1 1 # 1 1 1 1 = $ %                                                                                 % - @ = 1 1 1 1 # 1 1 1 1 1 1 1 # 1 1 1 1 1 1 1 # 1 1 1 1 ' J.h.L.M.A A A A F F F F F J I.I.I.U I.I.I.I.I.I. X X X X X X X X X X X X X X X X X X X X X X XI.I.I.I.I.I.I.U I.s B F F F F A A A A L L.h.J.' 1 1 1 # 1 1 1 1 1 1 1 # 1 1 1 1 1 1 1 # 1 1 1 1 # = @ - %                                                                                 % $ = 1 1 1 # 1 1 1 1 1 1 1 # 1 1 1 1 1 @ .   ",
"  + & 1 1 1 1 # 1 1 1 1 1 1 1 # 1 1 1 1 # , ;                                                                               + < X 1 1 1 1 1 1 # 1 1 1 1 1 1 1 # 1 1 1 1 1 1 1 # 1 1 J.W.L.M.A A A A A F A F F F F B T I.I.I.I.I.I.I. X X X X X X X X X X X X X X X X X X X X X X X X X X X X X X XI.I.I.I.U B B F F F F F A A A A #.L L.W.J.1 # 1 1 1 1 1 1 1 # 1 1 1 1 1 1 1 # 1 1 1 1 1 1 1 X < +                                                                               ; , 1 1 1 1 # 1 1 1 1 1 1 1 # 1 1 1 1 1 & +   ",
"  ; : # # # # # # # # # # # # # # # # # # O @                                                                           . $ & = # # # # # # # # # # # # # # # # # # # # # # # # W.L.@XN A A A A A A F F F F F B B s U I.I.I. X X X XT.oXoXw.w.w.w.t.H.t.H.H.H.H.H.H.H.H.H.t.t.t.w.w.w.oXoXoX X X X X XI.I.U s B B B F F F F F A A A A A #.@XL.W.# # # # # # # # # # # # # # # # # # # # # # # 1 = & $ .                                                                           @ O # # # # # # # # # # # # # # # # # # : ;   ",
"  ; X 1 1 1 1 # 1 1 1 1 1 1 1 # 1 1 1 1 1 # = $                                                                       + @ X O # 1 1 1 1 1 1 1 # 1 1 1 1 1 1 1 # 1 1 1 1 1 ' `.@XL #.A A A A A A A F A F F F B B B s +.I. XoXw.w.t.H.Z.Z.u.Z.u.u.u.>.>.>.>.>.>.>.>.>.>.>.>.>.>.>.u.u.u.u.Z.Z.H.t.w.w.oXT. X+.s s B B B B F F F F F A A A A A A L %X`.' 1 1 1 1 # 1 1 1 1 1 1 1 # 1 1 1 1 1 1 1 # 1 O X @ +                                                                       $ = 1 1 1 1 1 # 1 1 1 1 1 1 1 # 1 1 1 1 1 X ;   ",
"  - > 1 1 1 1 # 1 1 1 1 1 1 1 # 1 1 1 1 1 1 # , +                                                                   - , O 1 1 # 1 1 1 1 1 1 1 # 1 1 1 1 1 1 1 # 1 1 1 J.L.M.N A A A A A A A A F F F F B F B B s b ^ 7XH.Z.Z.u.u.u.u.u.u.>.u.>.>.>.>.>.>.>.>.>.>.>.>.>.>.>.>.>.>.>.>.u.>.u.u.>.u.u.u.Z.Z.H.w.n b s s B B B F F F F A A A A A A A A #.L L.J.1 1 # 1 1 1 1 1 1 1 # 1 1 1 1 1 1 1 # 1 1 1 O , -                                                                   + , 1 1 1 1 1 1 # 1 1 1 1 1 1 1 # 1 1 1 1 1 > -   ",
"  $ 1 1 1 1 1 # 1 1 1 1 1 1 1 # 1 1 1 1 1 1 1 O & %                                                             . @ # 1 1 1 1 # 1 1 1 1 1 1 1 # 1 1 1 1 1 1 1 # ' J.%X#.A A A A A A A A A A A F F F B s s k ^ _ _ &.t.u.u.u.Z.u.u.u.u.u.u.>.>.>.>.>.B.>.B.B.B.B.B.B.B.B.B.B.>.>.>.>.>.u.>.u.u.u.u.u.u.u.u.t.&._ _ n ^ / s B B F F F F A A A A A A A A A A %XJ.' 1 1 1 1 1 1 1 # 1 1 1 1 1 1 1 # 1 1 1 1 1 # @ .                                                             % & O 1 1 1 1 1 1 # 1 1 1 1 1 1 1 # 1 1 1 1 1 # $   ",
"  $ 1 1 1 1 1 # 1 1 1 1 J.1 1 # 1 1 1 1 1 1 1 # > < %                                                       % - : O 1 1 1 1 1 # 1 1 1 1 1 1 1 # 1 1 1 1 1 1 ' h.z.N A A A A A #.A A A A A F F B s / ^ _ _ _ _ _ &.&.t.Z.Z.u.u.u.>.>.B.B.B.(.(.(.(.(.(.(.(.(.(.(.(.(.(.(.(.(.(.(.(.(.(.B.B.B.>.>.u.u.u.Z.Z.t.&._ &._ _ _ _ ^ / s B F F F F A A A A A A #.A A N z.h.' 1 1 1 1 1 # 1 1 1 1 1 1 1 # 1 1 1 1 1 1 O : - %                                                       % < > 1 1 1 1 1 1 1 # 1 1 1 J.1 1 1 # 1 1 1 1 1 1 $   ",
"% o 1 1 1 1 1 # 1 1 1 1 4Xh.1 # 1 1 1 1 1 1 1 # 1 X $ %                                                   + < X # 1 1 1 1 1 1 # 1 1 1 1 1 1 1 # 1 1 1 1 ' h.$XY.XXA A A #.A A A A A F A F B / ^ ^ ^ _ _ _ _ _ _ _ &.t.u.>.>.B.B.B.(.B.(.(.(.(.(.(.(.(.(.(.(.(.(.(.(.(.(.(.(.(.(.(.(.(.(.(.(.(.(.B.B.>.>.u.t.&._ _ _ _ _ _ _ _ ^ ^ / s F F F A A A A A A A A A P.Y.$XW.' 1 1 1 # 1 1 1 1 1 1 1 # 1 1 1 1 1 1 # # X < .                                                   % $ X # 1 1 1 1 1 1 1 # 1 1 h.4X1 1 1 # 1 1 1 1 1 1 o % ",
"% @ 1 1 1 1 1 # 1 1 1 1 D.%X' # 1 1 1 1 1 1 1 # 1 # : ;                                                 + & > # 1 1 1 1 1 1 1 # 1 1 1 1 1 1 1 # 1 1 1 h.$Xh XXXXXX` A #.A A A A A A F s / ^ ^ ^ _ _ _ _ _ _ _ &.&.E.Z.B.B.B.B.B.B.B.(.B.B.B.B.(.B.(.(.(.(.(.(.(.(.(.(.(.(.(.(.(.B.(.B.B.B.B.B.B.B.B.B.B.B.Z.E.&.&._ _ _ _ _ _ _ ^ _ ^ / / B F A A A A A A A #.XXXXXXh $Xh.1 1 # 1 1 1 1 1 1 1 # 1 1 1 1 1 1 1 # 1 > & +                                                 ; : # # 1 1 1 1 1 1 1 # 1 ' %XD.1 1 1 # 1 1 1 1 1 1 @ % ",
". & 1 1 1 1 1 # 1 1 1 1 7 M.`.# 1 1 1 1 1 1 1 # 1 1 O & .                                             - : O 1 # 1 1 1 1 1 1 1 # 1 1 1 1 1 1 1 # 1 ' L.V $.XXXXXXXXA A A A A A F B / / ^ ^ ^ ^ _ ^ _ ^ _ _ _ &.&.&.7Xu.B.B.>.B.B.B.B.B.B.B.B.B.B.B.B.B.B.B.B.B.B.B.B.B.B.B.B.B.B.B.B.B.(.B.B.B.B.B.B.B.B.B.u.7X&.&.&.&._ _ _ ^ _ _ ^ ^ ^ ^ ^ / B F A A A A A A A XXXXXXXXV L.J.# 1 1 1 1 1 1 1 # 1 1 1 1 1 1 1 # 1 1 O : -                                             . & O 1 # 1 1 1 1 1 1 1 # 1 `.M.7 1 1 1 # 1 1 1 1 1 O & . ",
". & # # # # # # # # # # 7 7 D.h.# # # # # # # # # # # O @                                           < X # # # # # # # # # # # # # # # # # # # ' W.V Y.$.XXXXXXXXA A A A A A B / / ^ ^ ^ ^ ^ _ ^ _ ^ _ _ &.&.&.&.&.E.u.>.>.>.>.>.>.B.>.B.B.B.B.B.B.B.B.B.B.B.B.B.B.(.B.B.B.B.B.B.B.B.B.B.>.B.B.>.B.>.>.>.>.u.E.&.&.&.&.&._ _ _ _ ^ _ ^ ^ ^ ^ ^ / / B F A A A A s.( XXXXXXXX$.V W.' # # # # # # # # # # # # # # # # # # # X <                                         % @ O # # # # # # # # # # # h.D.7 7 # # # # # # # # # # & . ",
"+ , 1 1 1 1 1 # 1 1 1 ' 6 6 8 %XJ.1 1 1 1 1 1 # 1 1 1 1 1 < %                                   + o = 1 1 1 1 # 1 1 1 1 1 1 1 # 1 1 1 1 1 ' h.:.Y.$.$.XXXXXXXXs.A A A F B / / ^ / ^ cX^ ^ ^ ^ ^ _ _ _ &.&.&.&.&.&.7XZ.>.>.>.>.>.>.>.>.>.>.>.>.>.>.>.B.>.B.B.B.B.B.B.B.B.B.B.B.>.B.>.>.B.>.>.>.>.>.>.>.>.>.Z.E.&.&.&.&.&.&.&._ _ _ ^ _ ^ ^ ^ ^ ^ ^ / / s F A A A ( s.XXXXXXXXXX$.:.h.' 1 1 1 1 # 1 1 1 1 1 1 1 # 1 1 1 1 # = o .                                   % < 1 1 1 1 # 1 1 1 1 1 1 1 J.%X8 6 6 ' 1 1 # 1 1 1 1 1 1 , + ",
"+ , 1 1 1 1 1 # 1 1 1 h.6 6 w 2 L.1 1 1 1 1 1 # 1 1 1 1 1 > $ %                               ; @ = 1 1 1 1 1 # 1 1 1 1 1 1 1 # 1 1 1 1 J.`.Y.Y.$.$.XXXXXXXX( ( A F B / / / / cX^ / ^ ^ ^ _ ^ _ _ _ &.&._ &.&.&.&.E.Z.u.u.u.u.>.u.>.>.>.>.>.>.>.>.>.>.>.>.>.>.>.>.>.>.B.>.>.>.>.>.>.>.>.>.>.>.>.u.>.u.u.u.Z.E.&.&.&.&.&.&._ &._ _ ^ ^ ^ ^ ^ cX^ / cX/ / / B F F ( ( s.XXXXXXXX$.$.Y.`.J.1 1 1 # 1 1 1 1 1 1 1 # 1 1 1 1 1 1 = @ ;                               % $ > 1 1 1 1 # 1 1 1 1 1 1 1 L.2 w 6 6 h.1 1 # 1 1 1 1 1 1 , + ",
"+ X 1 1 1 1 1 # 1 1 1 W.6 6 6 * <.W.1 1 1 1 1 # 1 1 1 1 1 # X $                             ; & O 1 1 1 1 1 1 # 1 1 1 1 1 1 1 # 1 1 ' W.z.Y.Y.$.$.XXXXXXXXs.O.+./ / / / / / / / / ^ ^ ^ ^ ^ ^ _ _ &._ _ &.&.&.&.&.E.Z.u.u.u.u.u.u.u.u.u.u.>.u.>.>.>.>.>.>.>.>.>.>.>.>.>.>.>.>.>.>.>.>.u.>.u.u.u.u.u.u.u.u.Z.E.&.&.&.&.&.&.&._ _ _ _ _ ^ ^ ^ ^ ^ / ^ / / / / s cXx.J ( s.XXXXXXXXXX$.$.z.W.' 1 # 1 1 1 1 1 1 1 # 1 1 1 1 1 1 1 O & ;                             $ X # 1 1 1 1 # 1 1 1 1 1 1 W.j.7 6 6 6 W.1 1 # 1 1 1 1 1 1 X + ",
"+ O 1 1 1 1 1 # 1 1 1 `.6 6 6 6 d M.h.1 1 1 1 # 1 1 1 1 1 1 O , -                         - : # 1 1 1 1 1 1 1 # 1 1 1 1 1 1 1 # 1 J.L.V Y.Y.$.XX$.XXXXXX( U T.oX^ / / / / / / ^ / ^ ^ ^ ^ ^ _ _ _ _ &.&.&.&.&.&.&.E.Z.Z.Z.u.Z.u.u.u.u.u.u.u.u.u.u.u.>.u.>.>.>.>.>.>.>.>.>.u.>.u.u.u.u.u.u.u.u.u.u.u.u.Z.u.Z.E.&.&.&.&.&._ &._ &._ _ ^ ^ ^ ^ ^ / ^ / / / / / / ^ oXT.;.( s.XXXXXX$.XXY.Y.V L.J.# 1 1 1 1 1 1 1 # 1 1 1 1 1 1 1 # 1 : -                         - , O 1 1 1 1 1 # 1 1 1 1 1 h.M.d 6 6 6 6 `.1 1 # 1 1 1 1 1 1 O + ",
"+ 1 1 1 1 1 1 # 1 1 1 L.6 6 6 6 6 3 %XJ.1 1 1 # 1 1 1 1 1 1 # O , ;                     $ , # # 1 1 1 1 1 1 1 # 1 1 1 1 1 1 1 # h.z.Y.Y.Y.XXY.$.XXXXXXO.K.oXoXoXcX/ / / / / / / ^ / ^ ^ ^ _ _ _ _ _ _ _ _ &.y &.&.E.Z.Z.Z.Z.Z.Z.Z.Z.Z.Z.u.Z.u.u.u.u.u.u.u.u.u.u.u.u.u.u.u.u.u.u.u.u.u.u.u.Z.u.Z.Z.Z.Z.Z.Z.Z.E.&.&.&.y &.y &._ _ _ _ _ ^ ^ ^ ^ ^ ^ / / / / / / ^ oXoXoXT.J s.XXXXXXXXXX$.Y.Y.z.h.1 1 1 1 1 1 1 # 1 1 1 1 1 1 1 # 1 # , $                     ; , O 1 1 1 1 1 1 # 1 1 1 1 J.%X8 6 6 6 6 6 L.1 1 # 1 1 1 1 1 1 1 + ",
"+ 1 1 1 1 1 1 # 1 1 1 L.6 6 6 6 6 w 3 4X' 1 1 # 1 1 1 1 1 1 1 # # : +                 $ X # 1 # 1 1 1 1 1 1 1 # 1 1 1 1 1 1 ' `.V Y.Y.Y.$.Y.XXXXXXs.;.oXoXoXoXoX^ / s / / / / / ^ / ^ ^ ^ _ _ _ _ _ &.y &.&.&.y &.E.H.Z.H.Z.Z.Z.Z.Z.Z.Z.Z.Z.Z.Z.Z.Z.u.Z.u.Z.u.u.u.u.u.u.Z.u.Z.u.Z.Z.Z.Z.Z.Z.Z.Z.Z.Z.Z.Z.H.Z.E.&.&.&.&.y _ _ y _ _ _ _ n ^ ^ ^ / ^ / / / / / / cXoXoXoXoXoX+.( XXXXXX$.$.$.Y.Y.V `.' 1 1 1 1 1 # 1 1 1 1 1 1 1 # 1 1 # X $                 + : # 1 1 1 1 1 1 1 # 1 1 1 ' 4X3 w 6 6 6 6 6 L.1 1 # 1 1 1 1 1 1 1 + ",
"- 1 1 1 1 1 1 # 1 1 1 4X6 6 6 6 6 6 w <.L.' 1 # 1 1 1 1 1 1 1 # 1 1 : +           % < X 1 1 1 # 1 1 1 1 1 1 1 # 1 1 1 1 1 J.$XV Y.Y.Y.Y.$.$.XXXXJ K.oXoXoXoXoXT./ / B / / / / ^ / ^ ^ ^ ^ _ n _ _ f _ _ _ y y &.&.E.H.H.H.H.H.H.H.Z.H.Z.Z.Z.Z.Z.Z.Z.Z.Z.Z.Z.Z.Z.Z.Z.Z.Z.u.Z.Z.Z.Z.Z.Z.Z.Z.Z.Z.Z.H.Z.H.H.H.H.E.&.y &.y &.&._ _ _ f _ _ ^ ^ ^ ^ ^ ^ / / / / / / ^ T.oXoXoXoXoXT.T s.XXXXXX$.$.Y.Y.Y.$XJ.1 1 1 1 # 1 1 1 1 1 1 1 # 1 1 1 O X < %           + : 1 # 1 1 1 1 1 1 1 # 1 1 1 L.<.w 6 6 6 6 6 6 4X1 1 # 1 1 1 1 1 1 1 - ",
"$ # # # # # # # # # # G 6 6 6 6 6 6 6 7 <.`.# # # # # # # # # # # # # & +       % < > # # # # # # # # # # # # # # # # ' W.z.V Y.Y.Y.Y.XX$.XXs.;.T.T.oXoXoXoXoXT./ s / s / / / / ^ k ^ ^ Z _ n _ _ _ y _ y &.&.y &.E.H.H.H.H.H.H.H.H.H.H.H.H.Z.H.Z.Z.Z.Z.Z.Z.Z.Z.Z.Z.Z.Z.Z.Z.Z.Z.Z.H.Z.H.H.H.H.H.H.H.H.H.H.H.E.&.y &.y _ y _ y _ _ _ n n ^ ^ k ^ / / / / / B / / T.oXoXoXoXoXT.T.+.( XXXX$.$.Y.Y.Y.Y.z.W.' # # # # # # # # # # # # # # # # > < %       + & # # # # # # # # # # # # # `.<.7 6 6 6 6 6 6 6 c # # # # # # # # # # $ ",
"$ 1 1 1 1 1 1 # 1 1 1 G 6 6 6 6 6 6 6 6 d M.W.# 1 1 1 1 1 1 1 # 1 1 1 O & ;   % < > 1 1 1 1 1 # 1 1 1 1 1 1 1 # 1 1 ' `.:.V Y.Y.Y.$.Y.$.XXO.K.T.T.oXT.T.oXoXoXT./ s s / / / / / / ^ k ^ ^ _ n _ f _ _ y _ y _ y &.E.t.t.t.t.H.t.H.H.H.H.H.H.H.H.H.H.H.H.H.H.Z.H.Z.H.Z.H.Z.H.H.H.H.H.H.H.H.H.H.H.H.H.H.H.t.H.E.&.&.y &.y _ y _ _ n _ _ n ^ ^ ^ k ^ / / / / B / / T.oXoXoXoXoXoXoXT.K.J XXXX$.XX$.Y.Y.Y.:.`.' 1 # 1 1 1 1 1 1 1 # 1 1 1 1 1 1 > < %   ; & O 1 1 # 1 1 1 1 1 1 1 # 1 W.M.d 6 6 6 6 6 6 6 6 %X1 1 # 1 1 1 1 1 1 1 $ ",
"$ 1 1 1 1 1 1 # 1 1 1 G 6 6 6 6 6 6 6 6 6 8 D.h.1 1 1 1 1 1 1 # 1 1 1 1 = & ; < > 1 1 1 1 1 1 # 1 1 1 1 1 1 1 # 1 ' L.:.V Y.Y.Y.Y.Y.XXXXT K.T.T.T.T.T.oXT.oXoXK./ s / B / / / k ^ k ^ ^ ^ n _ n _ _ f _ y &.y &.y E.t.t.t.t.t.t.t.t.H.t.H.H.H.H.H.H.H.H.H.H.H.H.H.H.H.H.H.H.H.H.H.H.H.H.H.H.t.H.t.t.t.t.t.t.7X&.y y &.y y _ f _ _ n n ^ ^ ^ ^ ^ / / / / / / B / K.oXoXoXoXT.T.T.T.T.K.T s.$.$.Y.$.Y.Y.Y.V L.' # 1 1 1 1 1 1 1 # 1 1 1 1 1 1 1 > < ; & = 1 1 1 # 1 1 1 1 1 1 1 # h.D.8 6 6 6 6 6 6 6 6 6 G 1 1 # 1 1 1 1 1 1 1 $ ",
"$ 1 1 1 1 1 1 # 1 1 1 G 6 6 6 6 6 6 6 6 6 6 <.D.J.1 1 1 1 1 1 # 1 1 1 1 1 O , > # 1 1 1 1 1 1 # 1 1 1 1 1 1 1 # J.L.V V V Y.Y.Y.$.$.P.U K.K.K.K.T.T.T.T.oXT.oXK./ s B / s / / / / ^ k ^ ^ ^ n _ n _ f _ y y _ y &.E.t.t.t.t.t.t.t.t.t.t.t.t.t.t.H.t.H.H.H.H.H.H.H.H.H.H.H.H.H.H.H.H.t.H.t.t.t.t.t.t.t.t.t.t.E.&.y &.y _ y _ _ f _ n _ ^ Z ^ k ^ k / / / / / B / K.oXoXoXT.oXT.T.T.T.T.K.;.s.$.XXY.Y.Y.Y.Y.V $XJ.1 1 1 1 1 1 1 # 1 1 1 1 1 1 1 O > , O 1 1 1 1 # 1 1 1 1 1 1 1 dXD.3 w 6 6 6 6 6 6 6 6 6 G 1 1 # 1 1 1 1 1 1 1 $ ",
"$ 1 1 1 1 1 1 # 1 1 1 G 6 6 6 6 6 6 6 6 6 6 6 2 %XJ.1 1 1 1 1 # 1 1 1 1 1 1 O # 1 1 1 1 1 1 1 # 1 1 1 1 1 1 1 J.$XV V Y.Y.Y.Y.Y.$.s.;.K.K.K.K.T.T.T.T.T.T.T.oXcXB B / s / / / k k k ^ Z Z n n n n _ _ f f _ y y y E.w.w.w.t.w.t.t.t.t.t.t.t.t.t.t.t.t.t.t.t.t.t.t.t.t.t.t.t.t.t.t.t.t.t.t.t.t.t.t.t.w.t.w.w.E.y y y _ y _ f f _ n n n ^ Z ^ k ^ k / b / s / s s ^ oXT.T.T.T.T.T.T.K.K.K.K.+.( $.$.Y.Y.Y.Y.V V z.J.1 1 1 1 1 1 # 1 1 1 1 1 1 1 # # # 1 1 1 1 1 # 1 1 1 1 1 1 J.%X3 6 6 6 6 6 6 6 6 6 6 6 G 1 1 # 1 1 1 1 1 1 1 $ ",
"o 1 1 1 1 1 1 # 1 1 1 G 6 6 6 6 w w w 6 6 6 6 6 j.%XJ.1 1 1 1 # 1 1 1 1 1 1 1 # 1 1 1 1 1 1 1 # 1 1 1 1 1 1 h.z.V V V V Y.Y.Y.$.( ;.+.x.K.K.K.K.K.K.T.T.T.T.T.cXB B s s / / / ^ / ^ k ^ ^ ^ n _ n n _ f _ y _ y &.E.w.w.w.w.w.w.w.w.w.t.w.t.t.t.t.t.t.t.t.t.t.t.t.t.t.t.t.t.t.t.t.t.t.t.t.t.w.t.w.w.t.w.w.w.E.y &.y y f y _ f n _ n n ^ Z ^ k ^ k / / / / s / B cXoXT.oXT.T.T.T.K.T.K.K.K.K.+.O.$.$.Y.Y.Y.Y.Y.V z.h.1 1 1 1 1 # 1 1 1 1 1 1 1 # 1 1 1 1 1 1 1 # 1 1 1 1 1 J.%Xj.w 6 6 6 w w w 6 6 6 6 6 G 1 1 # 1 1 1 1 1 1 1 o ",
"@ 1 1 1 1 1 1 # 1 1 1 H 6 6 w 6 w w w w 6 6 6 6 7 j.4X' 1 1 1 # 1 1 1 1 1 1 1 # 1 1 1 1 1 1 1 # 1 1 1 1 1 h.z.V V V Y.Y.Y.Y.$.( ;.;.;.K.x.K.K.K.K.T.K.T.T.T.T.cXB B / s / s / b k k ^ ^ Z Z n n n n f _ f y y f y oXw.w.w.w.w.w.w.w.w.w.w.w.w.w.w.t.w.t.t.t.t.t.t.t.t.t.t.w.t.w.t.w.w.w.w.w.w.w.w.w.w.w.w.w.oXy y y _ y _ f _ n n n ^ n ^ Z ^ k / k / / / s B B cXT.T.T.T.T.T.K.T.K.K.K.K.cX+.;.O.$.Y.$.Y.Y.V V V z.h.1 1 1 1 # 1 1 1 1 1 1 1 # 1 1 1 1 1 1 1 # 1 1 1 1 ' 4Xj.7 6 6 6 w w w w 6 6 6 6 6 H 1 1 # 1 1 1 1 1 1 1 @ ",
"@ 1 1 1 1 1 1 # 1 1 1 H 6 6 w 6 w w w w w 6 6 6 6 7 <.4X' 1 1 # 1 1 1 1 1 1 1 # 1 1 1 1 1 1 1 # 1 1 1 1 W.z.:.V V V V Y.Y.$.( T ;.;.cX;.x.x.K.K.K.K.T.K.T.T.T.cXB B s s / / b / k ^ k ^ Z ^ n ^ n n n f _ f _ y i oXw.oXw.w.w.w.w.w.w.w.w.w.w.w.w.w.w.w.w.w.w.w.w.w.w.w.w.w.t.w.w.w.w.w.w.w.w.w.w.w.w.w.w.w.oXy y y y y f f n _ n n n Z ^ k ^ k k b / / / s / B cXT.T.T.T.T.T.K.K.K.K.K.K.+.;.;.;.O.P.Y.Y.Y.Y.Y.V V z.W.1 1 1 # 1 1 1 1 1 1 1 # 1 1 1 1 1 1 1 # 1 1 1 ' 4X<.7 * 6 6 w w w w w 6 w 6 6 w H 1 1 # 1 1 1 1 1 1 1 @ ",
"@ # # # # # # # # # # G 6 6 6 * * * * * * 6 6 6 6 * d j.4X# # # # # # # # # # # # # # # # # # # # # # W.z.:.:.V V Y.Y.Y.$.( T T cX;.;.;.K.x.K.K.K.K.K.T.K.T.K.cXB B s / s / / / k k ^ k ^ Z n n n n _ f f f y _ y oXw.w.oXw.w.oXw.w.w.w.w.w.w.w.w.w.w.w.w.w.w.w.w.w.w.w.w.w.w.w.w.w.w.w.w.w.w.w.w.w.w.oXw.w.E.y y _ y _ f _ n n n n ^ n ^ Z k ^ k / / / s / B B cXT.T.T.T.K.K.K.K.K.K.;.+.;.;.;.cXT O.$.Y.Y.Y.V Y.V V :.W.# # # # # # # # # # # # # # # # # # # # # # 4Xj.d * * * * * * * * * 6 6 6 6 6 G # # # # # # # # # # @ ",
"@ 1 1 1 1 1 1 # 1 1 1 G 6 w w * w w w w w w w * w w w d j.4X1 # 1 1 1 1 1 1 1 # 1 1 1 1 1 1 1 # 1 1 W.z.:.:.V V V V Y.$.s.J T T T cX;.;.;.+.+.K.K.K.K.K.K.T.K./ B s B / s / b b / k k k Z Z ^ n n n n _ f _ f y y E.oXE.E.E.E.E.E.E.E.E.q E.E.E.E.E.E.E.E.E.E.E.E.E.E.E.E.E.E.E.E.E.E.E.E.E.E.E.E.E.E.E.E.oXE.y y y f f f f n n n n n ^ Z ^ k k k b b / s / s B / K.T.T.T.K.T.K.K.K.K.K.+.+.cX;.;.T T O.$.Y.Y.Y.V V V :.z.W.1 # 1 1 1 1 1 1 1 # 1 1 1 1 1 1 1 # 1 1 4Xj.d w w * w w w w w w w * w 6 6 6 G 1 1 # 1 1 1 1 1 1 # @ ",
"@ 1 1 1 1 1 1 # 1 1 1 G 6 w w * w w w w w w w * w w w w 7 j.4X' 1 1 1 1 1 1 1 # 1 1 1 1 1 1 1 # # W.z.:.:.V V Y.V Y.z s.O.J J T T ;.;.;.;.;.K.+.x.K.K.K.K.K.x./ B B s s s / / b k k ^ k ^ Z Z n n n n f f f f f y f y y y y i i i i i i q q q q q q q q q q q q q q q q q q q q q q q q q q i q i i y i i y y y y f y f _ f n n n n Z Z ^ k k ^ / b b b s s s B / K.T.K.K.K.K.K.x.+.+.;.;.;.;.;.T T T vX( $.Y.Y.Y.V V V :.z.W.# 1 1 1 1 1 1 1 # 1 1 1 1 1 1 1 # ' 4Xj.7 w w w * w w w w w w w * w w 6 6 G 1 1 # 1 1 1 1 1 1 1 @ ",
"@ 1 1 1 1 1 1 # 1 1 1 G w w w * w w w w w w w * w w w w w d j.4X' 1 1 1 1 1 1 # 1 1 1 1 1 1 1 # W.z.:.:.:.:.V V Y.z s.( O.O.O.T T T T ;.;.;.;.+.+.x.K.K.K.K.+.B B B B / s s / b k k k k Z Z Z n n n n n f _ f f y y y y i i &.i i q i q q q q q q q q q q q q q q E.q q q q q q q q q q i q q i i i i i i y y y y _ f f f f n n n n n ^ Z ^ k k k b / / s s s B s x.K.T.K.K.K.K.x.K.+.+.;.;.;.T T T J O.O.s.$.Y.h Y.V V :.:.z.W.1 1 1 1 1 1 1 # 1 1 1 1 1 1 1 ' 4Xj.d 7 7 7 7 7 7 7 w w w w w * w w 6 6 G 1 1 # 1 1 1 1 1 1 # @ ",
"@ 1 1 1 1 1 1 # 1 1 1 G w w w * w w w w w w 7 7 7 w w w 7 7 8 j.4X' 1 1 1 1 1 # 1 1 1 1 1 1 1 h.$Xz.:.:.V V V Y.Y.P.s.s.( O.O.T T T T cX;.;.;.+.x.x.x.K.K.K.;.B B B s s s / b b / k k ^ Z ^ Z n n n n f f f f y y y y y i y i i i i q i q q q q q q q E.q q E.q q q q E.q q q q q q q q q q i q i i i y y y y y f y f f n n n n n Z Z Z k k k k / b b b s / B B B +.K.K.K.K.x.x.+.;.+.;.;.;.T T T J O.O.O.( P.z Y.h V V V :.:.$Xh.1 1 1 1 1 1 # 1 1 1 1 1 1 ' 4Xj.8 7 7 7 7 7 7 * 7 7 w w w w * w w 6 6 G 1 1 # 1 1 1 1 1 1 1 @ ",
"@ 1 1 1 1 1 1 # 1 1 1 G w w w * w w 7 7 7 7 7 7 7 7 7 7 7 w 7 8 j.4X' 1 1 1 1 # 1 1 1 1 1 1 h.$X$Xz.:.:.:.V V Y.$.P.s.s.s.( O.O.J T T T T ;.;.;.;.+.x.+.x.K.cXB B B B s s s b b b k k k k Z Z Z n n n n n f f f f y y y i y i i i i q i q q q q q q q q q q q q q q q q q E.q q q q q q q i q i q &.i i i y y y y f f f f f n n n n Z Z Z ^ k k b b b / s s s B B +.K.K.K.x.x.x.+.+.;.;.;.U T T T J O.O.( s.s.P.Y.Y.V V V :.z.z.$Xh.1 1 1 1 1 # 1 1 1 1 1 ' 4Xj.8 7 7 7 7 7 7 7 7 7 7 7 w w w * w w 6 6 G 1 1 # 1 1 1 1 1 1 # @ ",
"@ 1 1 1 1 1 1 # 1 1 1 G w w w * w 7 7 7 7 7 7 7 7 7 7 7 7 7 7 7 d j.4X1 1 1 1 # 1 1 1 1 1 J.L.$Xz.z.z.:.V V Y.$.P.P.s.s.s.( O.O.O.T T T ;.T ;.;.;.+.+.+.x.x.cXB B B B s s / b / b k k k ^ Z Z Z n n n f f f f f y y y y y i i i &.q i q i q q q q q q q q E.q q E.q q q q q q q q q q q q i q i i i i y y y y y f f _ f f n n n n ^ Z ^ k k k k k / b s / s B B B cXK.x.x.x.+.+.+.;.;.;.T T T T J O.O.( s.s.s.P.$.Y.V V :.z.z.z.$XL.J.1 1 1 1 # 1 1 1 1 1 4Xj.8 7 7 7 7 d d d d d 7 7 7 7 7 w * w w 6 6 G 1 1 # 1 1 1 1 1 1 1 @ ",
"@ 1 1 1 1 1 1 # 1 1 1 G w w w * 7 7 7 7 7 d 7 7 d d d d 7 7 7 7 7 8 j.%X' 1 1 # 1 1 1 1 J.`.$Xz.$Xz.z.z.:.V z $.P.P.P.s.s.s.( O.J J J T T U ;.;.;.;.+.+.x.x.cXB B B B s s s b b b / k k k Z Z Z n n n n n f f f f f y y y y i i i i i i q q q q q q q q q q q q q q E.q q q q q q q q q i q i i i i i y i y y y f y f f f n n n n n Z Z k ^ k k b b b s s s s B B cXK.K.x.+.+.+.+.;.;.;.U T T T O.O.( ( s.s.s.P.P.z h V :.z.z.z.z.z.`.' 1 1 1 # 1 1 1 ' %Xj.8 7 7 7 d d d d d d d d 7 7 7 7 w * w w 6 6 G 1 1 # 1 1 1 1 1 1 # @ ",
"@ # # # # # # # # # # G * * * * * 7 7 7 7 d d d d d d d d d d 7 7 7 8 | %XJ.# # # # # ' `.$X$Xz.z.z.z.:.:.V z $.P.P.P.s.s.vX( O.J J T T T T T ;.;.;.;.+.+.+.cXF B B B s s s b / b k k k k Z Z Z Z n n n f n f f y y y y y i y i i i q i q i q q q q q q q q q q q q q q q q q q q q q q q i i i i i i y y y y y f f f f n n n n Z Z Z Z k k k / b b / s s s B B B cXx.x.+.x.+.;.;.;.U T T T T J J O.( ( s.s.P.P.P.$.h :.:.z.z.z.z.$X$X`.' # # # # # J.@X| 8 d d d d 8 8 8 8 8 d d d d d 7 7 * * * * 6 6 G # # # # # # # # # # @ ",
"@ 1 1 1 1 1 1 # 1 1 1 G w w w * 7 7 7 d d d d d 8 8 8 8 8 d d d d 7 7 8 j.%XJ.# 1 1 ' W.$X$Xc $Xz.z.z.z.:.:.h z $.P.P.P.s.s.s.( O.O.O.J T T T T ;.;.;.;.;.+.vXF F B B s s s s b b b k k k Z Z Z Z n n n n f f f f f y y y y y i i i i i i q q q q q q q q q q q q q q q q q q q q q q i q i q i i i y i y y f y f f f n f n n n n Z Z ^ k k k k b b b s s s B B F / +.+.+.+.;.;.;.;.U T T T J O.O.( ( s.s.s.P.P.$.t V :.:.:.z.z.z.z.z.$XW.' 1 # 1 J.%Xj.8 d d d d 8 d 8 8 8 8 8 8 d d d d 7 7 * w w w 6 G 1 1 # 1 1 1 1 1 1 # @ ",
"@ 1 1 1 1 1 1 # 1 1 1 G w w w * 7 7 d d d d d 8 8 8 8 8 8 8 8 d d d d d 8 j.@Xh.1 1 h.W $XW $Xz.z.z.z.:.:.:.:.h z $.P.P.s.s.s.( ( O.O.J T T T U U U ;.;.;.;.B F F B B s s s s b b b k k k k Z Z n Z n n f n f f f y y y y i y i i i i q i q q q q q q q q E.q q q q q q q q q q q q q q i q i i i i y y y y y f f y f f n n n Z Z Z Z k k k k b b / s s s s B B F s +.;.+.;.;.;.U T T T T T O.J O.( s.s.s.P.P.$.t V :.:.:.z.z.z.z.$Xc $X$Xh.1 # h.@Xj.8 d d d 8 8 8 8 8 8 8 8 8 8 d d d d 7 7 * w w w 6 G 1 1 # 1 1 1 1 1 1 1 @ ",
"o 1 1 1 1 1 1 # 1 1 1 G w w w * 7 7 d d d d 8 8 8 8 8 8 8 8 8 8 d d d d d 3 9 M.h.J.L.$X$Xz.$Xz.z.z.z.z.:.:.:.V h z P.P.P.s.s.s.( O.O.J O.T T T T U U U ;.U B F F B B B s s s b b b b k k k Z Z Z Z n n f n f f f f f y y y y i i i i i i q i q q q q q q q q q E.q q q q q q q q q q i q i i i i i y i y y y y f f f f n n n Z n Z Z Z k k k b b b s s s s B B B B ;.;.;.;.;.;.U U T T T J O.O.( ( s.s.s.P.$.t V V :.:.:.:.:.z.z.z.z.$XW $XJ.W.M.9 3 d d 8 8 8 8 3 3 3 3 3 3 8 8 8 8 d d d 7 7 w w w 6 G 1 1 # 1 1 1 1 1 1 1 o ",
"< 1 1 1 1 1 1 # 1 1 1 G w w w * 7 d d d d 8 8 8 8 3 3 3 3 3 8 8 8 8 8 d d 8 8 #.L z.$XW $XW $Xz.z.z.z.:.:.:.:.V V h z P.P.P.s.s.( ( O.O.J J T T T T U U U T B F F B B B s s s b / b b k k k Z Z Z n n n n f f f f f y y y y i y i i i i q i q q q q q q q q q q q q q q q q q q q q q i q i i i i i y y y y f f f f f n f n n Z Z Z Z k k k b b b b s s s B B B F B U ;.;.U U T T T T T J O.O.O.( s.s.s.P.$.t h V V V :.:.z.z.z.z.z.$Xz.$XW z.4.9 3 8 8 8 8 3 3 3 3 3 3 3 3 3 8 8 8 8 d d d 7 7 w w w 6 G 1 1 # 1 1 1 1 1 1 1 < ",
"$ 1 1 1 1 1 1 # 1 1 1 G w w w 7 7 d d d 8 8 8 3 3 3 3 3 3 3 3 3 3 3 8 8 8 8 d 8 9 R.,.$X$X$Xz.z.z.z.:.z.:.:.:.V V h h z $.P.s.s.s.( ( O.O.O.J T T T T T U T F F F B B B B s s b b b b k k k k Z Z Z Z n n n n f f f f y f y y y i i i i i i q i q q q q q q q q q q q q q q q q q q i q i i i i i y y y y y y f f f f n n n n n Z Z Z k k k b b b s s s s B B B F B T U U U U U T T T J J O.O.O.( s.s.P.z t h h V V V :.:.:.:.z.z.z.z.c $Xw R.` 8 8 8 8 3 3 3 3 3 3 3 3 3 3 3 3 3 8 8 8 d d d 7 7 w w 6 G 1 1 # 1 1 1 1 1 1 1 $ ",
"$ 1 1 1 1 1 1 # 1 1 1 G w w w 7 7 d d 8 8 3 3 3 3 3 3 3 3 3 3 3 3 3 3 3 8 8 8 8 8 4 F L z.z.z.z.z.z.z.:.:.:.V V V h h t z $.P.s.s.( ( O.O.O.J J J T T T T J F F F F B B s s s b s b b k k k k Z Z Z n n n f f f f f y f y y y i y i i i i i i q q q q q q q q q q q q q q q q q q i q i i i i i i y i y y f f f f f n f n n Z Z Z Z k k k k b b b s s s s B B B F F T U U T T T T T J J J O.O.( ( s.P.z z t h h V V V :.:.:.:.z.z.z.z.z.L F 9 8 8 3 3 3 3 3 2 2 2 2 2 2 2 2 3 3 3 3 8 8 d d d 7 7 w w 6 G 1 1 # 1 1 1 1 1 1 1 $ ",
"$ 1 1 1 1 1 1 # 1 1 1 G w w w 7 d d 8 8 8 3 3 D.3 2 2 2 2 2 2 2 2 2 3 3 3 3 3 8 8 8 9 R.N z.$Xz.z.z.:.:.:.:.:.V V h h h t z $.P.s.s.( ( ( O.O.J J J J T T J F F F F B B s s s s b b b b k k k Z Z Z Z n n n n n f f f f y y y i y i i i i i q i i q q q q q q q q q q q q q q q q i q i i i i i y i y f y y f f f f f n n Z n Z Z Z k k k k b b b s s s s B B F F F T U T T T T J J J O.O.O.( ( s.P.z z t t h h h V V :.:.:.:.:.z.z.:.L F 9 3 3 3 3 3 2 2 2 2 2 2 2 2 j.2 2 2 3 D.3 3 8 8 d d 7 7 w w 6 G 1 1 # 1 1 1 1 1 1 1 $ ",
"$ # # # # # # # # # # G * * * 7 7 d 8 8 8 3 3 @XD.3 2 j.2 2 j.2 j.2 2 2 2 3 3 3 3 8 3 4 F #.:.z.z.z.:.:.:.:.V V V h h h t t z $.P.s.( ( ( O.O.O.J J J T T J F F F F B B B s s s b b b b k k k Z Z Z n Z n n f f f f f y f y y y y i y i i i i q i q q q q q q q q q q q q q q i i q i i i i i y i y y y f f f f f n n n n n Z Z Z k k k k b b b b s s s B B B F F F J U T T T J J J O.O.O.( ( s.P.z z t t t h h h V V :.:.:.z.:.z.:.#.F 9 3 3 3 3 2 2 2 2 2 j.4 j.4 2 2 2 j.3 D.@X3 3 8 8 d d 7 7 * * 6 G # # # # # # # # # # $ ",
"; 1 1 1 1 1 1 # 1 1 1 G w w 7 7 d d 8 8 3 3 d @X@XM.2 2 j.2 j.2 j.2 2 2 2 2 2 2 3 3 3 3 4 C R.V z.z.z.:.:.:.V V V h h h t t t z $.P.s.s.( ( ( O.O.O.J J J O.A F F F B B B B s s s b b b k k k Z k Z Z Z n n n n f f f f f y f y i y i i i i i i q i i q q q q q q q q q q q q i q i i i i i y i y y y f y y f f f f f n n n Z Z Z Z k k k b b b s s s B B B B F F F J T T J J J J O.O.( ( s.P.$.$.z t t t h h h V V V V :.:.:.z.h R.F 4 3 3 2 2 2 2 2 2 4 4 2 4 j.4 j.4 j.2 M.@X@X8 3 3 8 8 d 7 7 7 w 6 G 1 1 # 1 1 1 1 1 1 1 ; ",
"+ 1 1 1 1 1 1 # 1 1 1 c w w 7 7 d 8 8 3 3 3 d @X@X@XM.j.4 4 4 4 4 j.4 4 4 2 2 2 2 2 3 3 3 2 F B L :.:.:.:.:.V V V V h h h t t z z z $.P.s.( ( O.O.O.O.J J vXA F F F F B B B s s s b b b k k k k Z Z Z n n n n f n f f f f y y y y y i i i i i i i q i i q q q q q q q q q i i q i i q i i i i y y y y y f f f f n n n n Z Z Z Z Z k k k k b b b s s s B B B B F F F vXJ J J J O.O.O.( ( s.P.$.$.z z z t t h h h V V V :.:.:.:.L B F 4 3 2 2 2 2 2 4 4 4 4 4 4 4 4 4 4 4 j.M.@X@X@XD.3 3 8 8 d 7 7 7 w 6 c 1 1 # 1 1 1 1 1 1 1 + ",
"+ 1 1 1 1 1 1 # 1 1 1 4Xw w 7 d d 8 8 3 3 2 d @X@X@X@XM.4 j.4 j.4 4 4 4 4 4 4 4 2 2 2 2 3 3 2 R.s jX:.:.:.:.:.V V V h h h t t t z z $.$.P.s.( ( ( O.O.O.O.vXA F F F F B B B s s s b b b b k k k k Z Z Z n n m n n f f f f f f y y y y y i i i i i i q i q i q i q q q i q i q i i i i i i y i y y y y f f f f f f f n n n Z Z Z Z k k k k b b b s s s B B B B F F F vXJ J J J O.O.O.( s.$.$.$.z z z z t t h h h h V V V :.:.jXs F 2 2 2 2 2 2 4 4 j.4 4 4 9 4 9 9 j.9 4 M.@X@X@X@Xd 3 3 3 8 d 7 7 7 w w 4X1 1 # 1 1 1 1 1 1 1 + ",
"+ O 1 1 1 1 1 # 1 1 1 4Xw 7 7 d d 8 3 3 3 2 D.@X@X@X@XD.<.4 9 9 9 | 9 9 4 4 4 4 4 4 2 2 2 2 3 2 u / #.V :.:.V V V h h h h t t t t z z z $.P.s.( ( ( ( O.O.F A A F F F B B B B s s s b b b k k k k Z Z Z Z n n n f f f f f f y f y y i y i i i i i i i i i i q i q i i i i i i i i i i i y i y y f y f f y f f n n n m n n Z Z Z k k k b b b b s s s s B B B F F F F vXJ J O.O.O.( ( P.$.$.z z z z t t t t h h h V V :.:.h R./ R.2 2 2 2 2 4 4 4 4 4 9 9 | 9 9 | 4 9 j.<.@X@X@X@X@XD.2 3 3 8 8 d 7 7 w w 4X1 1 # 1 1 1 1 1 1 O + ",
"+ , 1 1 1 1 1 # 1 1 1 L.w 7 7 d d 8 3 3 2 2 D.@X@X@X@X@XD.<.9 9 9 9 9 9 9 9 9 9 4 4 4 2 2 2 2 2 2 ` / F t :.:.V V V V h h h t t t z z z z z P.s.s.( ( O.O.A A A F F F B B B B s s s b b b k k k k k Z Z n Z n n n n f f f f f y y f y i y y i i i i i i i q i i i i q i q i i i i i i y i y y y y y f f f f f n f n n n Z Z Z k Z k k b b b b b s s B B B B F F F A F J J O.O.( s.P.$.$.$.z z z z t t t h h h h V V V L vXb ` 2 2 2 2 4 4 4 4 9 9 9 9 9 9 #.9 9 9 9 <.D.@X@X@X@X@XD.2 3 3 8 8 d 7 7 w w L.1 1 # 1 1 1 1 1 1 , + ",
"+ , 1 1 1 1 1 # 1 1 1 `.w 7 7 d 8 8 3 3 2 2 D.@X@XD.D.D.D.D.<.j.` 9 | ` 9 9 9 9 9 9 9 4 4 2 2 2 2 2 ` s / jXV V V V h h h h t t t t z z z z $.$.P.s.( ( ( F A F A F F B F B B s s b b b b b k k k k k Z Z Z n n m f n f f f f y f i y y y i y i i i i i i i i i q i i i i i i i i i y i y y y y f f f f f f f n n n n Z Z Z Z k k k k b b b s s s s B B B B F F F A F O.O.O.( s.P.$.$.z z z z z t t t t t h h V V V jX/ s ` 2 2 2 4 4 4 9 9 9 9 9 ` ` ` ` ` ` ` j.<.D.D.D.D.@XD.@XD.2 3 3 3 8 d 7 7 w w `.1 1 # 1 1 1 1 1 1 , + ",
". , 1 1 1 1 1 # 1 1 1 W.w 7 7 d 8 8 3 3 2 2 D.@XD.@XD.D.D.D.D.<.4 ` ` ` ` ` ` 9 9 9 9 9 4 4 4 4 2 2 2 9 B / #.V V V V h h h h t t t t z z z z $.$.P.s.( ( A A A F F F F B B B s s s s b b b k k k k Z Z Z Z m n n n n f f f f f f f y f y y i y i i i i i i i i i i i i i i i i y i y i f i f y f y f f f n f n m n n Z Z Z Z k k k k b b b s s s s B B B F F F F A A ( O.s.P.$.$.$.$.$.z z z z t t t t h h h V h #.^ s 9 2 4 4 4 4 4 9 9 9 ` ` ` ` ` ` ` ` ` 9 <.D.D.D.D.D.D.@X@XD.2 2 3 3 8 d 7 7 w w W.1 1 # 1 1 1 1 1 1 , . ",
". & # # # # # # # # # W.* 7 7 d 8 8 3 2 j.j.D.@XD.D.D.D.D.D.D.D.M.~ ` ` ` ` ` ` ` ` ` 9 9 9 4 4 4 4 2 2 4 B ^ vXh V h h h h h t t t t t z z z z $.$.$.P.s.A A R.A F F F B B B B s s s s b b b k k k Z Z Z Z Z n n n f m f f f f y f y y y y y y y i i i i i i i i i i i i i i y i y y y y f y f f f f f f m f n n Z m Z Z Z k Z k k b b b b s s s B B B F F F F A A A O.s.P.$.$.$.z z z z z z t t t t h h h h t vX^ B 4 2 4 4 4 4 9 9 9 ` ` ` ` ` ` ` ` P ` ~ <.M.D.D.D.D.D.D.D.@XD.2 2 3 3 8 d d 7 * * W.# # # # # # # # # & . ",
". & 1 1 1 1 1 # 1 1 1 ' w 7 7 d 8 3 3 2 2 j.D.D.D.D.M.D.D.M.M.M.M.M.j.` u ` u ` u ` ` ` ` 9 9 9 4 4 4 2 2 2 K ^ / jXV V h h h h t t t t z z z z z z $.$.P.#.A A A A F F F F B B s s b s b b b b k k k Z Z Z Z Z m n n n f n f f f f f f f f y y y y y y y y y i y y i y y y y y y y y f y f f f f f f f f n n n n n Z Z Z Z k k k k b b b s s s s B B B F F F F F A #.P.P.$.$.$.$.z $.z z z t t t t h h h h jX/ ^ v 4 4 4 4 9 9 9 9 ` ` ` ` u ` u P u u ` j.M.M.D.M.M.D.D.D.D.D.D.D.2 2 3 3 8 8 d 7 w w ' 1 1 # 1 1 1 1 1 # & . ",
"% o 1 1 1 1 1 # 1 1 1 1 w 7 d d 8 3 3 2 2 j.D.D.D.D.D.M.M.M.M.M.M.M.M.j.` u u %.u u ` ` ` ` ` ` 9 9 4 4 4 2 2 u k ^ jXh V h h h h t t t t z z z z z z $.jXN #.A R.A F F F B B B s s s s s b b k b k k k Z Z Z Z ^ +.x.^ x.x.x.x.x.x.x.x.x.x.x.x.I.x.x.x.x.x.x.x.x.x.x.x.x.x.x.x.x.I.x.x.x.x.x.x.x.x.n x.Z x.Z ^ Z Z Z Z Z k k k b b b b b s b s s B B B F F F A R.#.N $.$.$.$.jXz z z z z t t t t h h h t jX^ ^ u 2 4 4 9 9 9 ` ` ` ` ` u u u %.u u %.` j.M.M.M.M.M.M.M.D.D.D.D.@XD.2 2 3 3 8 8 d 7 w w 1 1 1 # 1 1 1 1 1 1 o % ",
"% o 1 1 1 1 1 # 1 1 1 1 w 7 d d 8 3 3 2 2 j.D.D.D.D.M.D.l.M.M.M.M.M.M.M.j.` u u u u u u u ` ` ` ` 9 9 9 4 4 4 4 9 b ^ vXt V h h h h t t t t z z z $.z $.z N N N #.A F F F F l B B s s s s b b b b k k k k Z Z m +.;.+.+.+.+.+.+.+.x.I.x.x.x.x.x.x.x.x.x.x.x.x.x.x.x.x.x.x.x.x.x.x.x.x.x.I.x.x.x.x.I.+.+.+.+.I.+.n Z Z Z Z k k k k b b b s s s s B B B F F F A A #.N N jX$.z $.z $.z z z t t t t h h h z vX_ b ` 4 4 9 9 9 9 ` ` ` u u u u K u u K u ` j.<.M.M.M.M.M.M.l.M.M.D.D.D.D.j.2 2 3 8 8 d 7 w w 1 1 1 # 1 1 1 1 1 # o % ",
"  $ 1 1 1 1 1 # 1 1 1 1 w 7 d d 8 3 2 2 2 j.D.D.D.M.M.M.M.M.<.<.<.<.<.<.<.j.| u u e u u u u u u ` ` ` 9 9 9 4 4 4 9 s ^ / jXh h h h h t t t t z z z z z jXL N N N #.A F F F F B B s s s s b b b b k x k k Z k Z cX;.;.+.U +.+.+.+.+.+.+.x.I.x.x.x.x.I.x.x.I.x.x.I.x.x.I.x.x.I.x.x.x.x.x.x.x.I.+.+.+.+.+.+.;.+.cXZ Z Z k k k k b b b b b s s s s B B B F F F #.N N N N jX$.$.z z z z z t t t t t h h jX/ _ s 9 4 4 9 9 ` ` ` u u u u u u u e e v u | j.<.<.<.<.<.<.M.M.M.M.D.M.D.D.D.2 2 2 3 3 8 d 7 7 w 1 1 1 # 1 1 1 1 1 1 $   ",
"  - 1 1 1 1 1 # 1 1 1 1 @X7 d 8 8 3 2 2 j.j.D.D.M.M.M.M.M.M.<.l.<.<.<.<.<.<.j.~ u v v v e e e u u u u ` ` 9 9 9 4 4 4 C ^ ^ P.h h h h h t t t t z z z z jXL L L N N #.R.F F F B B B s s s s b b b b k k k k Z Z U ;.U +.;.+.U +.+.+.+.+.+.+.+.+.+.x.+.x.x.x.x.x.x.x.x.x.x.x.x.x.x.I.x.+.+.+.+.+.+.+.+.;.+.;.;.+.Z Z Z Z k k p.k b b s b s s s s B F B F R.#.N N N L N jX$.z $.z z z t t t t t h t vX^ ^ F 9 4 9 9 D ` ` u u u u u e e e v v v v ~ j.<.<.<.<.<.<.<.<.<.M.M.M.M.D.D.D.2 j.2 3 8 d d 7 7 @X1 1 1 # 1 1 1 1 1 1 -   ",
"  - > 1 1 1 1 # 1 1 1 1 G 7 d 8 8 3 2 2 j.2 M.M.D.M.M.M.<.<.<.<.<.<.4.4.4.4.4.4.~ %.v v v v v v e u u u ` ` D D 9 4 4 4 u ^ _ vXh h h h h t t t t z z z jXL L L N N N N #.F F B B B s s s s b p.b b k k k Z k Z U U U U U +.U +.U +.+.+.+.+.+.+.I.+.+.+.+.+.+.+.x.+.+.+.+.+.+.+.+.+.+.+.+.+.+.+.;.+.U +.U ;.U ;.Z Z k k k k k b p.b b s s s s B B B F R.#.N N N N N N jXz z z z z z t t t t h h / _ ^ u 9 4 9 D D ` u u u u e e e v v v v v %.~ 4.4.4.4.4.4.4.<.<.<.<.M.M.M.M.M.D.D.2 2 2 3 3 8 d 7 7 G 1 1 1 # 1 1 1 1 1 > -   ",
"  ; X 1 1 1 1 # 1 1 1 ' L.7 d 8 8 3 2 2 4 j.M.M.M.M.M.<.<.<.<.4.4.4.4.4.4.4.j.4.~ ~ P v v v v v v e e e u u u ` D D 9 4 4 9 s &.^ z h h h h t t t t z t jXL L L L N N #.N #.R.F B B B B s b s b b b b k k k a Z U U U U U U U +.U ;.U U ;.U +.+.;.+.+.+.+.+.+.+.+.+.+.+.+.+.+.+.+.+.U +.+.U ;.U +.U ;.U U U U U k Z k k k k b b b b b s s s B B B R.#.#.N N N N N L L jXz z z z t t t t t t jX^ &.s 9 4 9 D D ` u u u e e v v v v v l l v P ~ ~ ~ ~ 4.4.4.4.<.4.<.<.<.<.M.M.M.M.M.D.2 2 2 3 3 8 d 7 7 L.1 1 1 # 1 1 1 1 1 X ;   ",
"  ; , # # # # # # # # # `.7 d 8 8 3 2 j.4 j.M.M.M.M.<.<.<.<.4.<.4.j.4.~ 4.~ ~ ~ 4.~ ~ | v l l l v v v v e e u u u ` D D 9 4 4 v _ _ vXt h h h t t t t z L L L L L N N N N N #.R.F B B B s s s b s p.b b k k k k U U U U U U U U U U +.U +.U ;.U +.U +.U +.U I.;.+.U I.;.+.U +.U ;.+.U +.U +.U U U U U U U U U U Z a k k k p.b b b s s s s B B F R.#.#.#.N N N L L L L jXz z z t t t t t z vX_ _ l 9 D D D ` u u u e e v v v l l l l l K | ~ ~ 4.~ 4.~ ~ 4.~ 4.4.4.<.<.<.<.<.M.M.D.M.j.2 2 3 8 8 d 7 * `.# # # # # # # # # , ;   ",
"  + & 1 1 1 1 # 1 1 1 # h.7 d d 8 3 2 2 4 4 M.M.M.M.<.<.<.<.j.4.4.4.~ ~ ~ ~ ~ ~ ~ ~ ~ ~ ~ %.v l l l l v v v e u u u ` D D D 9 9 u ^ &.cXjXh h h t t t t L L L L L L L N N N N #.#.R.F B s *.s b s b b b p.k k k T T T U U U U U U U U U U U +.U ;.U ;.U ;.;.U ;.U +.U ;.U ;.U +.U ;.U U U U U +.U U U U U U U U k k k k b b b b s p.s s s B F R.#.#.#.N N N N N L L L L z z t t t t t jXcX&.n e 9 D D D ` u u u e v v v v l l l l l %.| ~ ~ ~ ~ ~ ~ ~ ~ ~ ~ j.4.j.4.<.<.<.<.M.M.M.M.j.2 2 3 3 8 d 7 7 h.1 1 1 # 1 1 1 1 1 & +   ",
"  . @ 1 1 1 1 # 1 1 1 1 J.7 7 d 8 3 2 2 4 4 M.M.M.<.<.<.<.4.4.4.~ ~ ~ ~ ~ ~ ~ ~ ~ ~ ~ ~ ~ ~ P v l l l l v v v e e u u u ` D D D 9 u b &._ vXh h h t t t L L L L L N N N N N N #.#.#.R.F B s s s s b b b b b k k T T T T T U U U U U U U U U U U U U U ;.U U +.U U U U ;.U U U U U U U +.U U U U U U U U U T T T k k k p.b b b s b s s B F R.#.#.#.#.N N N N L L L L L L z t t t t t vX_ &.b u D D D u u u u e e v v v l l l *.*.v P | ~ ~ ~ ~ ~ ~ ~ ~ ~ ~ 4.~ ~ 4.4.4.<.<.<.<.M.M.M.4 2 2 3 3 8 d 7 7 J.1 1 1 # 1 1 1 1 1 @ .   ",
"  . o 1 1 1 1 # 1 1 1 1 J.7 7 8 8 3 2 2 4 9 M.M.M.<.<.<.j.4.~ j.~ ~ ~ ~ ~ | ~ | | | | | | | | P K l *.l l v v v v e e u u u ` D D 9 D l _ &.vXt h h t t L L L L L L L N N N N #.#.#.#.R.R.B s s s p.s b b p.k b T T T T T T T T T U U U U U U U U U U U U U U U U ;.U U U +.U U U U U U U U U U U T U T T T T T k k k b b b p.s s s B R.R.#.#.#.#.N N N N N N L L L L L t t t t t cX&._ l D D D ` u u e e e v v v l l l *.*.l K P | | | | | | ~ | ~ ~ ~ ~ ~ ~ ~ 4.j.4.<.<.<.<.M.M.M.4 j.2 3 3 8 7 7 7 J.1 1 1 # 1 1 1 1 1 o %   ",
"    < 1 1 1 1 # 1 1 1 1 J.w 7 8 8 3 2 2 4 9 <.M.<.<.<.<.j.j.~ ~ ~ ~ ~ ~ | ~ P ~ | P | P ~ P ~ | | P v *.*.l l l v v e e e u u ` D D D D u Z E._ jXh h t L L L L L L L N L N N N #.#.#.#.R.R.F B s s s b b b b b J T J T J T T T T T T T U U U U U U U U U U U U U U U U U U U U U U U U T U T T U T T T T T T J b k b b b b s s s C R.R.#.R.#.#.#.N N N N N L L L L L L t t t P._ E.Z u D D D ` u e e e v v l l l l *.*.*.l %.P | | | | | | | | | | | | ~ ~ ~ ~ ~ ~ 4.<.j.<.<.<.M.M.4 j.2 3 3 d 7 7 w J.1 1 1 # 1 1 1 1 1 <     ",
"    $ > 1 1 1 # 1 1 1 1 ' G 7 8 8 3 2 2 4 9 <.<.<.<.j.j.4.j.~ ~ ~ ~ | | P P P P P P P P P P P P P P P K l *.*.l l l l v e e e e u D D D D 9 s &.&.vXz t L L L L L L L L N N N N N #.#.#.#.R.R.R.F s s s b b b b J J J J J J J T T J T T T J T T T T U T U T U U T U U T U T U T U T T T T T T T J T J T J J J J b b b p.b s s B R.R.R.#.#.#.#.#.N N N N N L L L L L L L t z vX&.&.s D D D u u e e e v v l l l l *.*.*.*.K P P P P P P P P %.P P P P P P | | ~ ~ ~ ~ j.j.j.<.<.<.M.M.4 4 2 3 3 8 7 7 G ' 1 1 1 # 1 1 1 1 > $     ",
"    - X 1 1 1 # 1 1 1 1 ' L.7 d 8 3 2 2 4 9 <.<.<.<.j.j.j.~ ~ ~ ~ P | | P P P P P P P P P P P P P P P P %.C *.*.*.l l l v v v e e u u D D D D v _ E._ P.L L L L L L L L L N N N N N #.#.#.#.R.R.R.R.B s s b b b O.O.J J J J J J J J T J T J T T J T J T T T T T T T J U J T T T J T T J T J J T J J J J J J J J b b b b s B F R.R.R.R.#.#.#.#.#.N N N N L L L L L L L L P._ E._ v D D u u u e e v v l l l *.*.*.*.*.l %.P P P P P P P P P P P %.P P P P P ~ | ~ ~ ~ ~ 4.j.<.<.<.M.<.4 4 2 3 3 8 7 7 L.' 1 1 1 # 1 1 1 1 X -     ",
"    ; , 1 1 1 # 1 1 1 1 ' `.7 d 8 3 2 4 4 9 j.<.<.<.j.j.~ ~ ~ | | | P P P P P P P %.%.%.%.%.%.%.%.%.%.P P P K l *.*.*.l l l l v e e e u u D D D u k &.&./ N L L L L L L L N N N N N N #.#.#.#.#.R.R.R.C B s b s O.O.O.O.O.J J J J J J J J J T J T T J T J T J T J T J T J T J T T J T J J T J J J J J J J O.O.J s b s B F R.R.R.R.#.R.#.#.#.#.N N N N N L L L L L L N / &.&.k e D D u u e e e M M l l *.*.*.g *.l K %.%.%.%.%.%.%.%.%.%.%.%.%.%.P P P P P P | | ~ ~ ~ j.j.j.<.<.<.<.4 4 2 3 3 d 7 7 `.1 1 1 1 # 1 1 1 # , ;     ",
"    + : # # # # # # # # # h.7 d 8 3 2 4 4 9 j.<.<.j.j.4.~ ~ ~ | | P P P P P %.%.%.%.%.%.%.%.%.K %.%.%.%.%.%.%.%.C *.*.*.*.I l l l v M e e u u u D D s _ E._ R.L L L L L L L N N N N N #.#.#.#.#.R.R.R.R.R.F B B O.O.O.O.O.O.O.J J J J J J J J J J J J J J T J J T J J T J J J J J J J J J J J J J J J O.O.J O.O.s s F R.R.R.R.R.R.#.#.#.#.#.N N N N N L L L L L L R._ E.&.*.u u u u e e M M M l I *.*.I *.g *.C %.%.%.%.%.%.K %.K K K %.%.%.%.%.%.P P P P | | | | ~ ~ j.4.j.<.<.<.<.4 4 2 3 8 d 7 7 h.# # # # # # # # # : +     ",
"    % @ 1 1 1 # 1 1 1 1 1 h.7 d 8 3 2 2 j.9 j.<.<.j.j.j.~ ~ | | P | P P P %.%.%.K %.K K K K K K K K K K K %.%.%.%.K l g g I *.*.l l l M M e e e u D D e Z E.&./ N L L L L L N L N N N N N #.#.#.#.#.R.R.R.R.R.F s.( ( ( O.O.O.O.O.O.O.J O.J J J J J J J J J J J J J J J J J J J J J J J J J O.J O.O.O.O.O.O.( ( F R.R.K R.R.R.R.#.#.#.#.#.N N N N N L L L L L N / E.E.Z e u u e e e e M M l l *.*.g g g g ) K K %.K K K K K K K K K K K K K %.K %.%.%.P P P P | | ~ ~ j.j.j.<.<.<.j.4 j.2 3 8 d 7 7 h.1 1 1 1 # 1 1 1 1 @ %     ",
"      o O 1 1 # 1 1 1 1 1 h.@Xd 8 3 2 2 4 9 j.<.<.j.j.~ ~ ~ | | P P P %.%.%.%.%.%.K K K K K K K K K K K K K K %.%.%.%.C *.g g *.I *.l l M M M e e u u D u s &.7X&.#.L L L L L N N N N N #.#.#.#.#.#.R.R.R.R.R.A P.P.s.( ( ( ( O.O.O.O.O.O.O.O.O.O.O.J O.J J J J J J J J J J J O.J O.O.O.O.O.J O.O.O.O.O.( ( P.P.A R.R.R.R.R.#.#.#.#.#.#.N N N N N L L L L L #.&.7X&.g u u e e M M M l l l I I *.g g g *.C K K K K K K K C C K C K C K K K K K K %.%.%.%.P P P P ~ | ~ j.j.j.<.<.<.j.4 j.2 3 8 d 7 @Xh.1 1 1 1 # 1 1 1 O o       ",
"      < > 1 1 # 1 1 1 1 1 J.G d 8 3 2 2 4 9 j.<.j.j.j.~ ~ | | P P P %.%.%.%.K K K C K K C C C C C C C C C C C K K K K K K l *.g g I *.I I l l M M e u e u D e Z 7X7X/ N L L L L L N N N N N #.#.#.#.#.R.R.R.R.#.$.$.$.P.s.s.( ( ( ( ( ( O.( O.O.O.O.O.O.O.O.O.O.O.O.O.O.O.O.O.O.O.O.O.O.( O.( ( ( ( ( s.P.$.$.$.#.R.R.R.R.R.#.#.#.#.#.N N N N N L L L L #./ 7X7XZ e u e e M M M M l I I I g g g g g ) K K K C C C C C C C C C C C C C K C C K K K K %.%.%.P P P | | ~ ~ j.j.j.<.<.j.4 2 2 3 8 d 7 S J.1 1 1 1 # 1 1 1 > <       ",
"      - X 1 1 # 1 1 1 1 1 ' L.d d 3 2 2 4 9 9 <.j.j.j.~ ~ | | P P P %.%.K K K C C C C C C C C C ) C C C C C C C C C C C K K C *.*.g g g I I l l M M M e e u u D I &.7X&.B N L L L N N N N N N #.#.#.#.#.R.#.R.#.$.$.$.$.$.P.s.s.( ( ( ( ( ( ( ( ( ( ( ( ( ( ( O.( ( ( ( ( ( ( O.( ( ( ( ( ( ( ( s.s.P.$.$.$.$.P.#.R.R.R.R.#.#.#.#.#.N N N N N L L L N B &.7X&.I u u e e M M 5 l I I I g g g g g *.C C C C C C C C C C ) C ) C C ) C C C C C C C K K K K %.%.P P | | | ~ j.j.j.<.<.4 4 2 2 3 8 d 7 L.' 1 1 1 1 # 1 1 1 X -       ",
"      + , 1 1 # 1 1 1 1 1 1 W.d d 3 2 2 4 9 9 <.j.j.~ ~ ~ | | P P %.%.%.K K C K C C C C C ) C ) C ) C ) ) ) ) ) C C C C C C C K C *.g g g g *.I I 5 M M e e e u u e n E.7X_ R.L L L N N N N N N N #.#.#.#.R.R.#.z z z $.z $.$.P.P.s.( s.( s.( ( ( ( ( ( ( ( ( ( ( ( ( ( ( ( ( ( ( ( ( ( ( ( s.s.P.$.$.$.$.$.$.z #.R.R.R.#.#.#.#.N N N N N N L L L R._ 7XE.n e u e e M M M I I I I g g g g g *.) C C C C C C C C ) ) ) C ) C ) ) C ) ) ) C C C C C K K K %.%.%.P | | | ~ j.j.j.<.<.9 4 2 2 3 8 d 7 W.1 1 1 1 1 # 1 1 1 , +       ",
"      % : # 1 # 1 1 1 1 1 1 W.7 d 3 2 2 4 9 ` j.j.j.~ ~ | | P P %.%.%.K K K C C C C C ) C ) ) C ) ) ) ) C ) C ) ) ) C C C C C C C C l *.g g g g I I l 5 M M e e e u e g &.7X7X/ L L L N N N N N N #.#.#.#.#.#.jXz $.z $.z $.z $.$.P.P.s.s.s.s.s.( ( ( ( ( ( ( ( ( ( ( ( ( ( ( ( s.( s.s.s.P.P.$.$.$.z $.z z z $.jXR.#.#.#.#.#.#.N N #.N N N L N / 7X7X&.g e e e M M M 5 I I I g g g 0 g *.) C C C C ) ) ) ) ) ) ) C ) ) ) ) ) ) ) ) C ) ) C C C C C K K K %.%.P P P | ~ ~ j.j.j.<.9 4 2 2 3 8 d w W.1 1 1 1 1 # 1 1 # : %       ",
"        @ O 1 # 1 1 1 1 1 1 h.@Xd 3 3 2 4 4 9 j.j.j.~ ~ | | P P %.%.K K K K C C C C C ) C ) ) ) ) ) ) ) ) ) ) ) ) ) ) ) ) ) C C C C C C ) *.g g g I I I 5 5 M M e e e u M k E.rX&.R.L L N N N N N N N #.#.#.#.jXz z z z z z z $.z z $.$.P.s.s.s.s.s.s.s.s.s.s.s.s.s.s.s.s.s.s.s.s.s.s.P.$.$.z $.z $.z $.z $.z z jX#.#.#.#.#.#.N N N N N N L vX&.rX7XZ M e e e M M 5 I I I g g 0 0 p.g ) C C C C ) ) ) ) ) ) ) ) ) ..) ) ) ) ) ) ) ) ) ) C ) C C C C K K K %.%.%.P P | | ~ j.j.j.j.9 4 2 3 3 8 d @Xh.1 1 1 1 1 # 1 1 O @         ",
"        < = # # # # # # # # J.c d 3 2 2 4 9 9 j.j.j.~ ~ | P P P %.%.K K C C C C C C C ) ) C ) ) ) ) ..) ..) ..) ) ..) ) ) ) ) ) ) C ) v C C ) g g g g I I I 5 5 M M e e e e M &.rX7X_ #.L N N N N N ~ #.~ #.#.jXz z z z z z z z z $.z $.z $.$.P.s.s.s.s.s.s.s.s.s.s.s.s.s.s.XXs.P.$.$.$.$.z $.z z jXz z z z z z jX#.#.#.#.N N N N N N N #._ 7XrX&.M e e M M M l I I I I g g p.0 p.*.) C ) ) ) ) ) ) ) ) ) ..) ....) ..) ....) ) ) ) ) C ) ) C C C C C K K %.%.%.P P | | ~ j.j.j.j.9 4 2 2 3 8 d c J.# # # # # # # # = <         ",
"        ; > 1 # 1 1 1 1 1 1 # L.d 8 3 2 4 4 9 9 j.j.~ | | P P %.%.K K K C C C C C ) C ) ) ) ) ) ) ..) ..) ..) ......) ........) ) *.) ) ) l C ) *.g g 0 g I I I 5 5 M M e e e e g E.rX7X/ #.L N N N N N N N #.jXt t t t z z z z z z z z z z z z z $.P.XXP.XXs.XXs.XXs.XXP.P.$.$.z z z z z z z z z z z z z z t z jX#.#.#.N N N N N N #./ 7XrXE.g e e e M M 5 5 I I I g 0 0 0 g ..) ) ) ) ) ) ) ) ..........................) ..) ..) ) ) ) ) C ) C C C C K K %.%.P P | | ~ j.j.j.4 9 4 2 3 3 8 d L.1 1 1 1 1 1 # 1 1 > ;         ",
"        % X 1 # 1 1 1 1 1 1 1 L.7 8 3 2 4 4 9 ` j.j.~ | | P P P %.K K P P %.%.%.%.K K C C C ) ) ..) ....................) ........) ) ) ) ) ) ) ) ) *.g g g g g I I 5 5 M M e e e M n 7XrX&.B #.N N N N N N N jXt t t t t t t z t z z z t z z z z z z $.$.P.P.P.P.P.P.$.$.z z z z z z z z z z z z t t z t t z t jX#.N N N N N N #.B &.rX7Xn M e e M M 5 5 I I g g 0 0 0 g *.) ) ) ) ) ........................................) ) ) C C C K K %.%.%.%.P P K %.%.P P | | ~ j.j.j.j.9 4 2 3 8 d 7 `.1 1 1 1 1 1 # 1 1 X %         ",
"          & 1 # 1 1 1 1 1 1 1 W.w 8 3 2 4 4 9 ` j.j.~ | | P P %.%.K K l.l.l.l.l.l.l.l.4.4.4.4.~ ~ ~ P P K K C ) ............................) ) ) l ) *.*.g 0 g g r I I 5 M M M e e e g &.rXrX&.B N N N N N N t t t t t t t t t t t t t t t z t z z z z z z z $.$.z z z z z z z z z z z t t t t t z t t t t t t z N N N N N ~ vX&.rXrX&.g e M M M 5 5 r I r 0 0 0 0 g *.*.*.) ) ................................) C K K P P ~ ~ ~ 4.4.4.4.l.l.l.l.l.l.l.l.K %.%.P P | | ~ j.j.j.9 4 4 2 3 8 d * W.1 1 1 1 1 1 # 1 1 &           ",
"          < 1 # 1 1 1 1 1 1 1 J.G 8 3 2 2 4 9 ` j.j.~ | | P P %.K K K %Xa.%Xa.a.a.a.a.a.a.a.a.a.a.a.l.l.l.l.4.4.4.~ P %.C ) ......................) *.) ) *.*.g 0 0 0 r I 5 5 5 M M e e e k E.rXrX_ #.N N N N t h h t t t t t t t t t t t t t t t t t t t t t t t t t t t t t t t t t t t t t t t t t t t t h t t ~ N N N R.&.rXrXE.Z M e M M 5 5 I r r 0 0 0 x g *.*.*.) *...................p.......C K P ~ 4.4.l.l.l.l.l.a.a.a.a.a.a.a.a.a.a.a.%Xa.%X%XK K %.P P P | | j.j.j.9 4 4 2 3 8 d G J.1 1 1 1 1 1 # 1 1 <           ",
"          ; 1 # 1 1 1 1 1 1 1 # S 8 3 3 2 4 9 ` 9 j.~ | | P P %.K K K a.%X%X%X%X%X%X%X%Xa.a.a.a.a.a.a.a.a.l.a.a.a.a.l.l.l.l.4.4.P K ) ................*.) ) *.*.*.0 0 0 0 g I I 5 5 M M M M 5 n 7XaXrX^ N N N t h h h h h h h t t t t t t t t t t t t t t t t t t t t t t t t t t t t t t t t t t t h t h t h h t N N #.^ rXaX7Xn I M M 5 5 5 I r g 0 0 0 x 0 g *.*.*.............p...p.....K P 4.4.l.l.l.l.a.l.a.l.l.a.a.a.l.a.a.a.a.a.%X%X%X%X%X%X%X%Xa.K K %.P P P | ~ j.j.j.9 4 2 3 3 8 d S 1 1 1 1 1 1 1 # 1 1 ;           ",
"          % > # 1 1 1 1 1 1 1 # L.d 3 3 2 4 9 | | j.~ | | P %.%.K K K %X%X4X4X4X4X4X4X4X4X4X4X4X4X%X4Xa.%X%Xa.a.l.a.a.l.a.l.a.l.l.l.l.l.4.P C ................*.*.*.*.0 0 0 0 g r r 5 5 5 M M M 5 f rXaX7X/ #.t h h h h h h h h h h h h t t t t t t t t t t t t t t t t t t t t t t t t t h t h t h h h h h h h t #./ 7XaXrXf 5 M M 5 5 r I r g 0 0 0 x x g *.*...........p.p.....C P 4.l.l.l.l.l.a.l.l.a.l.a.a.a.a.%X%X%X4X%X4X4X4X4X4X4X4X4X4X4X4X4X4X%XK K %.%.P P | ~ j.j.9 9 4 2 3 3 d 7 L.1 1 1 1 1 1 1 # 1 > %           ",
"            & # 1 1 1 1 1 1 1 # h.7 8 3 2 4 9 9 ` j.~ | | P %.%.K K K %X4X4X8X<Xg.g.g.g.g.g.<X*X*X*X=X0X0X8X8X8X8X8X8Xa.a.a.a.a.a.a.l.l.l.l.l.l.4.P C ) ..........*.*.*.*.g 0 0 0 g r r 5 5 5 M M M 5 &.rXaX7XvXz V V h h h h h h h h h h h h h h h h h h h h h h h h h h h h h h h h h h h h h h h h h h h h z vX7XaXrX&.5 M M 5 5 r r r 0 0 0 x x p.g *.......g p.....) C P 4.l.l.l.l.l.l.a.a.a.a.a.a.a.a.8X8X8X8X8X0X0X=X*X*X*X<Xg.g.g.g.g.g..X8X4X%X%XK K %.%.P P | ~ j.j.9 9 4 2 3 8 d w h.1 1 1 1 1 1 1 # 1 &             ",
"            < # # # # # # # # # # * 8 3 2 4 9 9 ` | | | | P P %.K K K a.%X4X0Xn. . .R R R R R  . . . . . . .8.U.n..X<X=X=X0XhXhX8X8Xa.a.a.a.a.l.l.l.l.l.~ %.C ) ........*.*.g g 0 0 0 0 r r r 5 5 M M M k E.rXaXoXvXt V V V h V h h h h h h h h h h h h h h h h h h h h h h h h h h h h h h h h h h h h V z vXE.aXrXE.x M M 5 5 r r 0 0 0 0 0 0 0 g *.......p...) C %.~ l.l.l.l.l.a.a.a.a.a.8X8XhX0X0X=X=X<X.Xn.U.8. . . . . . .R R R R R R  .8.n.hX4X4Xa.K K %.%.P P | | j.j.9 9 4 2 3 8 d @X# # # # # # # # # # <             ",
"            ; = 1 1 1 1 1 1 1 # 1 %X8 3 2 4 4 9 ` 9 ~ | | P P %.K K C a.%X4X0XU.R -.-.-.o.-.-.-.-.-.-.-.-.-.-.R R R R R  . .@.n..X<X*X=X0XhX8Xa.a.a.a.l.l.l.l.4.| K ) g ..*.*.*.g g 0 0 0 0 r r 5 5 5 M M 5 Z E.aXaXE.vXt V V V V V V V h V h h h h h h h h h h h h h h h h h h h h h h V h V h V V V t vXE.aXaXE.Z 5 M 5 5 r r r 0 0 0 0 0 0 g *.*...p.p.) K P 4.l.l.l.l.l.a.a.a.8XhX0X=X*X<X.Xn.@. . .R R R R R -.-.-.-.-.-.-.-.-.-.-.-.-.-. .n.0X4X%Xa.K K %.%.P P | ~ j.9 9 4 4 2 3 8 d %X# 1 1 1 1 1 1 1 # = ;             ",
"            + , 1 1 1 1 1 1 1 # 1 W.d 3 3 2 4 9 ` ` | | | P %.K K C C a.%X4X0XU.R -.o.o.o.o.o.o.o.o.o.o.o.o.o.-.o.-.-.-.-.-.-.R R R  . .U.n..X<X=X0XhXa.a.a.l.l.l.l.4.| C *.g *.*.*.g g 0 0 0 r r r 5 5 5 M M 5 n 7XaXaX7XcXh V V h V V V h V V V V V V V h V h V h h h h h V V V V V V V V V V V h cX7XaXaX7Xn r M 5 5 5 r r 0 0 0 x 0 0 g g ..g g ..C P 4.4.l.l.l.a.a.a.hX0X=X<X.Xn.@. .R R R R -.-.-.-.-.o.-.o.o.o.o.o.o.o.o.o.o.o.o.o.o.-.R U.0X4X%Xa.K K K %.P P 9 | j.9 9 4 2 2 3 8 d W.# 1 1 1 1 1 1 1 # , +             ",
"            . & 1 1 1 1 1 1 1 # 1 ' d 8 3 2 4 9 ` ` | | | P %.%.K K C l.%X4X0XU.-.o.o.o.o.o.o.o.o.o.o.o.o.o.o.o.o.o.o.o.o.o.o.o.-.o.-.-.-.-.R  . .U.n.g.*X0X8Xa.a.l.l.l.l.4.P ..g g *.g *.g 0 0 0 r r r 5 5 5 M M r n 7XpXaXrXvXV V V V V V V h V h V h V V V V h V V V V V V V h V h V h V V h vXrXpXpX7Xn r 5 5 5 r r r r 0 0 x 0 0 g g g g ..*.P 4.4.l.l.l.a.a.8X0X*Xg.n.F. .R R -.-.-.-.o.-.o.o.o.o.o.o.o.o.o.o.o.o.o.o.o.o.o.o.o.o.o.o.0.R U.0X4X%Xl.C K %.P P P | | 9 9 9 4 2 2 3 8 d ' # 1 1 1 1 1 1 1 # & .             ",
"            . @ 1 1 1 1 1 1 1 # 1 ' @X8 3 2 4 9 9 ` 9 | | P %.K K C C l.a.4X0XU.-.o.o.R 5X5X5X5XR -.-.-.-.o.o.o.o.o.o.o.o.o.o.o.o.o.o.o.o.o.-.-.-.-.-.R  . .8.g.*XfXa.l.l.l.l.l.~ C ..g g g *.g g 0 0 r r r r 5 5 M M 5 x E.pXpXaXcXz h V V :.V :.V V V V V V V V V V V V V V V :.V :.V h z cXaXpXpXE.x 5 5 5 5 r r r 0 0 0 0 0 g g g p.g g ) ~ 4.l.l.l.l.l.0X*Xn.8. . .R -.-.-.-.o.o.o.o.o.o.o.o.o.o.o.o.o.o.o.o.o.o.-.-.-.-.R 5X5X5X5X-.o.o.-.U.0X4X%Xl.C K K %.P P | 9 ~ 9 9 4 2 3 8 8 @X' # 1 1 1 1 1 1 1 # @ .             ",
"            . & 1 1 1 1 1 1 1 # 1 1 W.8 3 2 2 9 9 ` ` | | P %.K K K C 4.a.4X0X).-.o.o.5X3.3.3.3.3.3.3.3.3.3.3.3.3.5X3.5X5X5XR -.-.o.o.o.o.o.o.o.o.o.0.0.-.-.R R  . .n.<X0X9X9Xl.l.4.~ K ) g g *.*.I r 0 0 0 r r r 5 5 5 5 M x 7XaXpXaXT.vXt :.:.V :.:.V :.V :.V :.V :.V :.V :.V V :.t vXT.aXpXaX7Xx 5 5 5 r r r r 0 0 0 0 0 g g g p.g *.C ~ 4.l.l.9X9X0X<Xn. . .R -.-.-.0.o.o.o.o.o.o.o.o.o.o.-.-.R 5X5X5X5X3.3.3.3.3.3.3.3.3.3.3.3.3.3.5Xo.0.d.U.0X4Xa.<.C K %.%.P | | | 9 9 9 4 2 3 8 d W.1 # 1 1 1 1 1 1 1 1 & .             ",
"            + , 1 1 1 1 1 1 1 # 1 1 J.d 3 2 2 4 9 ` ` | | P %.%.K C C ~ a.%XhXOXd.q.o.5X3.3.3.3.3.3.3.3.3.3.3.3.3.3.3.3.3.3.3.3.3.3.5X5X5XR R -.-.o.o.o.o.o.0.0.-.-.R R  .n.<X0XfXl.l.4.4.K *.g g g g *.g 0 0 0 r r r 5 5 5 5 5 x E.aXpXaX7XcXjXV :.:.:.V :.V V V V :.V :.:.V V jXcX7XaXpXaXE.x 5 5 5 5 r r r 0 0 0 0 0 g g g g g ..K ~ 4.l.l.fX0X<Xn. .R R -.-.0.o.o.o.o.o.o.-.-.R R 5X5X3.3.3.3.3.3.3.3.3.3.3.3.3.3.3.3.3.3.3.3.3.3.3.5Xo.q.d.OXhX%Xa.~ C K %.%.P | | 9 ` 9 4 2 2 3 8 7 J.1 # 1 1 1 1 1 1 1 # , +             ",
"            + X 1 1 1 1 1 1 1 # 1 1 ' c 8 2 2 4 9 ` ` ` | P P %.K K C | a.%X8X+Xd.q.2.R 3.3.3.*X*X*X*X*X*X*X.X.X.X.Xg.g.i.IX3.3.3.3.3.3.3.3.3.3.3.5X5XR R -.o.o.o.o.0.-.-.R  .F.+X*X0X9Xl.4.~ %.*.g g g I I I I r r r r 5 5 5 5 5 M x q rXpXpXrXoXcXV :.V V h h h h h V :.V cXoXaXpXpXrXq x 5 5 5 5 r r r 0 0 0 g g g g g p.p...K ~ 4.l.9X0X*X+XF.R R -.0.0.o.o.o.o.-.R R 5X5X5X3.3.3.3.3.3.3.3.3.3.IXi.g.g..X.X.X.X<X*X*X*X*X*X*X3.3.3.R 2.q.d.+X8X%Xa.| C K %.%.` | | 9 ` 9 4 2 2 3 8 c ' 1 # 1 1 1 1 1 1 1 1 X +             ",
"            ; O # # # # # # # # # # # W.8 3 2 4 9 9 ` ` | P u %.K C C %.l.a.a.+Xd.q.2.-.3.3.IXwXwXwXwXwXwXxXxXxXxXxX=X=X=X=X=X=X*X=XxX-X-Xg.3.3.3.3.3.3.3.3.5X5XR -.o.o.q.0.0.d.R  .U.+X=X9Xl.4.~ K g p.g g g *.I I r r r r r 5 5 5 5 M 0 f 7XaXpXpXrXT.vXt h h h h Y.vXT.rXpXpXaX7Xf x 5 5 5 r r r r 0 0 g g r g g g p.p.p.C | 4.4.9XuX+X). .R -.0.0.o.o.o.-.R 5X5X3.3.3.3.3.3.3.3.g.-X-XxX=X*X=X=X=X=X=XxXxXxXxXxXxXwXwXwXwXwXxXIX3.3.-.2.0.C.+X%X%Xl.%.v K %.P P | | ` ` 9 4 2 3 8 8 W.# # # # # # # # # # # O ;             ",
"            ; # 1 1 1 1 1 1 1 # 1 1 1 h.7 3 2 4 4 9 ` ` ` ` P %.K K C K l.a.%X-XC.q.2.0.5X3.3.VXVXzXzXzXzXzXzXzXzXzXzXzXVXVXVXwXwXO.AXAXAXh h 8XkXhX=XIX3.3.3.3.3.3.3.5XR o.o.q.0.0.d.R F.OX<XfX4.4.~ *.x 0 0 g g r I I I r r r r r 5 5 5 5 r x y rXu.u.pXaXoXvXvXoXaXpXu.u.rXy x r 5 5 r r r r 0 0 g g g r g 0 0 x x x *.| ~ 4.fX<XOXF.R d.0.0.q.o.o.R 5X3.3.3.3.3.3.3.IX=XhXkX8Xh h AXAXAXO.wXwXVXVXVXzXzXzXzXzXzXzXzXzXzXzXVXVX3.3.5X0.2.0.G.-X%Xa.l.K v K u P ` | 9 ` 9 4 4 2 3 8 7 h.1 1 # 1 1 1 1 1 1 1 # 1 ;             ",
"            $ # 1 1 1 1 1 1 1 # 1 1 1 ' L.3 3 2 4 9 ` ` ` | P %.K v C K 4.l.a.=XG.0.2.2.5X3.@.y.bXbXbX,X,X,X,X,XbXbXbXbXbXbXbXbX>.SXPXPXPXJXGXh.1 1 1 1 ' yXkX_.Q =.IX3.3.3.3.5X-.0.0.0.0.d. .F.<XfX9X~ %.g p.p.0 g g g I I I r r r r r r 5 5 5 5 5 0 q aXpXu.u.>.u.pXaXq 0 5 5 5 5 r r r r r 0 r r I g g 0 0 x x x ..K ~ 9XfX<XF.R d.0.0.0.o.-.5X3.3.3.3.IX=.Q _.kXyX' 1 1 1 # h.GXJXPXPXPXSXzXbXbXbXbXbXbXbX,X,X,X,X,X,XbXbXzXy.@.3.5X2.q.d.G.=X%Xa.4.K v K %.P ` | ` ` 9 4 4 2 3 8 L.' 1 1 # 1 1 1 1 1 1 1 # 1 $             ",
"            < # 1 1 1 1 1 1 1 # 1 1 1 1 `.8 3 2 4 9 9 ` u ` ` u K K v C | l.a.9X'.d.2.2.-.@.@.5.}.|./.].].p p ].p p p /.]./.|.|.(.BXSXSXSXSXJX' 1 1 1 1 1 1 1 # 1 dXsXeX_.tX=.3.3.@.5X-.-.0.0.d.R F.<XfX9X| ) p.0 0 g g g I I I I 5 r r 5 r r 5 r 5 5 5 5 a q rXrXq x 5 5 5 5 r r r r r r r I I g g g g 0 0 x x p.) P 9XfX<XF.R d.0.0.-.-.5X@.3.3.=.tX_.eXsXdX# 1 1 1 1 # 1 1 # ' JXSXSXSXSXBX(.|.|./.]./.p p p ].p p ]./.|.}.,X5.@.@.-.2.q.d.).9Xa.l.~ C v K %.P ` | ` 9 9 4 2 3 3 8 `.1 1 1 # 1 1 1 1 1 1 1 # 1 <             ",
"            < # 1 1 1 1 1 1 1 # 1 1 1 1 W.7 3 2 4 4 9 ` ` ` P %.K v C C %.l.a.a.OXd.q.1.q.5X@.G.,X|./.].p p p p p p p p p p p p /.j j j NXNXJX# 1 1 ' 1 1 1 1 # # # # 1 ' yXkXeXeXQ 3.3.@.5XR d.0.d.C.).uXfXP K *.x 0 0 g g g g g I I 5 5 5 5 r r 5 r 5 5 5 5 r r r 5 5 r 5 r r 5 r r r I r I g g 0 0 0 x x x g K P fXuX).C.d.0.-.R 5X@.3.3.Q eXeXkXyX' 1 1 1 # # # # # ' # # # 1 JXNXNXj j j /.p p p p p p p ].p p p ].].|.}.,XG.@.5Xq.2.q.d.OXa.a.l.P C v v u ` | ` ` 9 4 4 2 3 8 w W.1 1 1 # 1 1 1 1 1 1 1 # 1 <             ",
"          % o # 1 1 1 1 1 1 1 # 1 1 1 1 h.,.3 2 2 4 9 ` ` u ` u %.K v C K 4.l.a.-XC.q.2.1.R @.F.qX}./.].p p p p p p p p p p p ]./.j j j j j GX# 1 ' dX' dX' dX' ' ' ' ' 1 1 # ' dXsXHXeXIX3.3.5X .R d.d.G.OXuXfX%.*.x x 0 0 0 0 g g r r r 5 5 5 5 5 5 5 r 5 r 5 5 5 r r 5 5 5 5 5 5 I r r r g 0 0 0 x x x x ..%.fXuXOXG.d.0.R  .5X3.3.IXeXHXsXyX' 1 1 1 1 ' ' dXhXwXwXhXdX' ' # 1 GXj j j j j UXp p p p p p p p p p p ].].|.}.qXF.@.R 1.2.f.C.uXa.l.4.K C K K u ` ` ` ` 9 4 2 2 3 8 ,.h.1 1 1 # 1 1 1 1 1 1 1 # 1 o             ",
"            @ # 1 1 1 1 1 1 1 # 1 1 1 1 h.S d 3 2 4 4 9 ` u u P %.K v C C | l.l.fXC.f.2.1.q.5X8.e.}.|.].p p p ].p p p p p p p p UXj j j j j GX# 1 dXdXdXdXdXdXdXdXdX' dX' dX' ' ' ' ' dXsX8X*X3.3.@.8.R d.d.G.+XgXP ) x x x 0 0 0 g r r r 5 5 5 5 5 5 5 5 5 5 5 5 5 5 5 5 5 5 5 5 I I r r 0 0 0 0 x x x x ) P gX+XG.d.d.R 5X@.3.3.*X8XsXdX' ' # ' ' dX' dXdXdXxX}.].].}.xXdX' # 1 GXj j j j j /.p p p p p p p p p p p ]./.|.,Xe.8.5Xq.1.V.f.G.fXl.l.| C C K %.P ` | ` 9 9 4 2 2 3 d S h.1 1 1 # 1 1 1 1 1 1 1 # 1 @             ",
"            @ # 1 1 1 1 1 1 1 # 1 1 1 1 W.W 7 3 2 4 4 9 ` u u u u v v C ) %.4.l.l.+Xf.V.1.1.5X8.C.,X|./.].p p p p p p p p p p p /.MXj j j j GX# 1 dXyXyXyXyXyXyXyXdXdXdXdXlXwXbXbXxXyX' dX' yXkX-X9.3.@.@. .d.C.'.uX9XC p.x x 0 0 0 0 r r r I 5 5 M 5 M 5 5 5 5 5 5 5 5 5 5 5 5 I r r r 0 0 0 0 x x x p.C C -X'.d.d.R @.@.3.9.-XkXyX' dX' dXdXdXdXdXdXdXdXdXlX|.p p p p }.sXdX# 1 GXj j j j MX/.p p p p p p p p p p p ]./.}.qXG.8.5X1.2.V.C.+Xl.l.4.%.v v v u u ` ` ` 9 4 4 2 2 8 7 W W.1 1 1 # 1 1 1 1 1 1 1 # 1 @             ",
"            @ # # # # # # # # # # # # ' `.W G 8 2 2 4 9 9 ` u u %.u v v l C | 4.l.xXC.f.V.1.q.8. .e.}.|.].].p p p p p p p p p p /.FXj j j j PX# # dXlXlXyXlXyXyXyXlXyXyXsXzX].p p ].wXlXdX# # W.AXAXxXg.9.3.@. .C.G.OXgXC p.x x 0 0 0 0 0 I r I I 5 5 5 5 5 5 M 5 5 5 5 5 5 r I r I g 0 0 0 0 x x x p.) gXOXC.d. .@.3.9.g.xXAXAXW.# # dXyXyXyXyXyXyXyXyXlXyXsXp p p p p /.8XdX# # PXj j j j FX/.p p p p p p ].p p ].]./.|.,Xe. .8.q.1.V.f.G.xXl.4.~ C v v K u ` ` ` ` 9 4 4 2 3 8 H W `.' # # # # # # # # # # # # @             ",
"            @ # 1 1 1 1 1 1 1 # 1 1 1 ' `.W L.d 3 2 4 9 9 ` u u u %.K v l ) %.~ 4.9X!.f.V.1.1.R 5Xm.qX|./.].p ].p p p p p p p p ].nXj j j j SXJ.1 dXlXlXlXlXsXlXlXlXlXlXhX}.p p p p ,X8XdX1 ' AXSXJXGXAXxXg.9.@.@. .G.).uX..g x x 0 0 0 0 r r r I r r r 5 5 5 5 5 5 5 5 r r r r r r 0 0 0 x x x x p...uX'.C. .@.@.9.g.xXAXGXJXSXAX' 1 dXyXyXlXlXlXlXlXlXlXlXsX/.p p p p |.kXdX# J.SXj j j j nX].p p p p p p p p p ].]./.}.qXm.8.R 1.1.V.C.!.9X4.4.P l v K %.u ` ` ` 9 4 4 2 3 3 d L.W `.' 1 1 # 1 1 1 1 1 1 1 # 1 @             ",
"            @ # 1 1 1 1 1 1 1 # 1 1 1 ' `.W W G 3 2 2 4 9 ` ` u u u v v C l C | 4.4.xXv.f.V.1.2.R  .e.}.|./.].p p p p p p p p ].p CXj j j j BX$X1 1 lXsXsXsXsXsXsXsXsXsXwX|.p p p p }.hXdX1 J.JXNXBXSXPXGXwX<Xg.@.9.@.F.'.-X2Xg x x 0 0 0 r r r I 5 r 5 r 5 5 5 5 5 I r 5 r r r r r 0 0 0 x x x g 2X-X'.F.@.@.@.g.<XwXGXPXSXBXNXJXJ.1 dXlXlXlXlXlXlXsXlXsXsXsXVX].p p ].VXlX1 # $XBXj j j j CX].p p p p p p p p ].]./.|.,Xe. . .2.1.V.f.v.xX4.4.| C l v K u u u ` ` 9 4 2 2 3 3 G W W `.' 1 1 # 1 1 1 1 1 1 1 # 1 @             ",
"            @ # 1 1 1 1 1 1 1 # 1 1 1 ' `.W W W 8 2 2 4 9 9 ` u v u v v v l *.K ~ 4.9X3Xm.V.k.1.q. .C.qX}./.].].p p p p p p p p p UXMXj j j NXGX' 1 yXkXkXkXkXkXsXkXsXsXfX}.p p p p bXkX1 1 $XBXj j NXBXFXzXVXwX-Xn.@.@.@.F.3X2X*.x x 0 0 r r r r r 5 I 5 5 5 5 I 5 5 5 r r r r g r 0 0 x x x ..2X3XF.@.@.@.n.-XwXVXzXFXBXNXj j BX$X1 1 lXsXsXsXsXsXsXsXkXxX8X8XwXbXzXVX8XyX1 ' GXNXj j j MXUXp p p p p p p p ].]./.|.}.qXC. .0.k.k.f.m.3X9X4.~ %.l v v v u u u ` 9 9 4 2 2 3 8 W W W `.' 1 1 # 1 1 1 1 1 1 1 # 1 @             ",
"            @ # 1 1 1 1 1 1 1 # 1 1 1 1 W.W W W G 3 2 2 4 9 ` ` u e e v v l l ) P ~ ~ gXb.f.V.k.k.d.R 6.,X|./.].].p p p p p p p p /.nXj j j j SX`.1 1 sX8XkXkXkXkXkXkXkX8XVX/.p p |.xXyX1 ' GXj j j j j CX|.}.zXVXwX<XU.9.9.U.#X2X*.0 0 0 r r r r 5 5 5 5 5 5 5 5 5 5 5 5 r r r r r 0 0 x x g 2X#XU.9.@.U.<X-XVXbX}./.CXj j j j j GX' 1 dXsXkXkXkXkXkXkXwX}.bX8X8XhXhX8XsX1 1 `.SXj j j j nX/.p p p p p p p p ]./.|.}.,X6.R d.k.k.V.f.b.fX4.~ | l l v v u K u ` ` 9 4 2 2 3 3 G W W W W.1 1 1 # 1 1 1 1 1 1 1 # 1 @             ",
"            @ # 1 1 1 1 1 1 1 # 1 1 1 1 W.W W W W d 3 2 4 9 9 ` u u e v v C l *.) | | ~ uXv.f.V.k.k.d.R e.,X|./.].].p p p p p p p p CXMXj j j j GXJ.1 ' kX8X8XhX8X8XhXwXxXhXxXzXVXfXlX1 1 $XNXj j j j MX/.].]./.}.zXVX-Xn.@.9.n.#X2Xg 0 0 r r r 5 5 5 5 5 M 5 M 5 M 5 5 5 5 r r r 0 0 0 x 0 2X#Xn.9.@.n.-XVXbX}./.].p /.MXj j j j NX$X1 1 yXkX8XkX8X8X8XxX|.zX8X8X8X8XkX' 1 J.GXNXj j j MXCXp p p p p p p ].]./.|.}.,Xe.R d.k.k.V.f.v.uX~ ~ ~ C l v v v u u u ` 9 9 4 2 2 3 d c W W W W.1 1 1 # 1 1 1 1 1 1 1 # 1 @             ",
"            @ # 1 1 1 1 1 1 1 # 1 1 1 1 h.W W W W S 3 2 2 4 9 ` ` u e v K v l l ) K P P P -Xm.f.k.k.k.d.d.e.,X}.|./.].p p p p p p p /.nXj j j j j AX' 1 ' sXhXhXhXhXVXp bXxXhX8XkXyX1 1 h.BXj j j j j CXp p ].]./.|.,XzXwX#Xn.n.g.<X2Xg 0 r r r 5 5 M 5 5 I g p.p.g r 5 5 5 5 r r r 0 0 g 2X<Xn.i.n.#XwXzX}././.].p p p CXj j j j j BXh.1 1 yXkX8XhXhXhXhXxXhXhXhXhXsX' 1 ' AXj j j j j nX/.p p p p p p ].]./.|.}.,Xe.d.d.k.k.V.f.m.-XP | | %.l l v v u K u u ` 9 4 2 2 3 3 S W W W W h.1 1 1 # 1 1 1 1 1 1 1 # 1 @             ",
"            @ # 1 1 1 1 1 1 1 # 1 1 1 1 h.W W c W c 7 2 2 4 9 9 ` u u v v v l l *.*.K P P C 3Xm.r.k.[ k.f.f.[.,X}.|./.].].p p p p p p CXMXj j j j BXAX' 1 1 yXkX8XhXwXbXVXhX8XsX' 1 1 W.PXj j j j j FXp p p ].]./.|.|.}.bXVX>Xn.g.g.<X..r r r r 5 5 5 g 2XgX;XwXwX;XgX2Xp.5 5 r r r 0 0 ..<Xg.n.n.>XVXbX}.|./.].].p p p p FXj j j j j PXW.1 1 ' sX8X8XhXhXhXhXhXkXyX1 1 ' AXBXj j j j MXCXp p p p p p ].]./.|.}.,X[.f.f.k.k.k.6.m.3XC P P %.l l l v v e u u ` 9 9 4 2 2 3 7 c W c W c h.1 1 1 # 1 1 1 1 1 1 1 # 1 @             ",
"            @ # # # # # # # # # # # # # W.W W c W W G 3 2 4 4 9 ` ` u v v v l ) l *.) %.%.%.2X3Xm.r.k.] k.f.f.[.,X}.|./.].].].p p p p ].nXj j j j j BXAXh.# # ' yXlXsXkXsXlX' # # ' $XPXj j j j j MXUXp p p ]././.|.}.}.,XbXb.n.n..XuX..r r r 5 5 5 k ;X-X-X-X-X-X-X-X-X;XZ 5 5 r r 0 0 ..uX+Xn.n.b.bX,X}.|././.].].p p p UXMXj j j j j PX$X' # # ' lXsXsXsXlXyX# # # h.AXBXj j j j j nX].p p p ].].]././.|.}.qXe.f.f.k.k.k.r.m.3X2XP P %.l *.l l v v e u u ` 9 4 4 2 3 8 G W W W c W W.# # # # # # # # # # # # # @             ",
"            @ # 1 1 1 1 1 1 1 # 1 1 1 1 h.W W c W W W 7 2 2 4 9 9 ` u u v v v l l *.*.) K %.K 2X3Xm.r.k.] k.V.f.N.qX}.|././.].].p p p p ].nXj j j j j NXJX$XJ.# 1 # # # 1 1 1 # `.GXSXj j j j j MXCX].p ].].]./.|.|.}.,XqX5.).n.+X;X..r r r 5 5 5 k uX-X-X-X-X-X<X-X-X-X-XuXk 5 5 r r 0 g ..;X+Xn.).5.qX,X}.|./.].].p p p p CXMXj j j j j SXGX`.1 1 1 1 1 1 1 # 1 J.$XJXNXj j j j j nX/.p p p ].].]./.|.}.,XqXe.f.V.k.] r.r.m.3X2XK %.%.) *.*.l v v u e u ` 9 9 4 2 2 3 7 W W c c W W h.1 1 1 # 1 1 1 1 1 1 1 # 1 @             ",
"            @ # 1 1 1 1 1 1 1 # 1 1 1 1 h.W W c c W W c 8 2 2 4 9 ` u u e v v l l l *.*.) K K C 2X3Xm.r.r.] ] k.V.r.qX,X}.|././.].].p p p /.nXj j j j j j BXPXAX$Xh.' 1 J.`.AXJXSXNXj j j j j MXCX].p ].]././.|.}.}.qX5.'.).OX3X2Xp.0 0 r r 5 5 5 ;X-X-X-X#X#X#X#X#X-X-X-X-X;Xr 5 r r 0 0 0 ..2X3XOX).G.e.qX}.|.|./.].].].p ].CXMXj j j j j NXSXJXAX`.J.1 ' h.$XAXPXBXj j j j j j nX/.p p ].].]./.|.|.}.,XqXr.V.k.] ] r.6.m.3X2XC K K ) *.*.l l v v e u ` ` 9 4 4 2 3 8 c W W c W W W h.1 1 1 # 1 1 1 1 1 1 1 # 1 @             ",
"            o # 1 1 1 1 1 1 1 # 1 1 1 1 h.W c W c W W W w 2 2 4 9 9 ` u u e v v l l *.*.g ) C C ) ..iXv.6.r.] ] ] V.r.[.qX,X}.|././.].].].]./.nXj j j j j j j NXNXBXBXBXBXNXNXj j j j j j j MXCX].].]././.|.}.,XqXe.G.).).OX;X..0 0 0 r r 5 5 5 _ -X-X#X#X!.!.!.!.!.!.#X#X-X-X_ 5 5 r r 0 0 x 0 ..;XOX).F.G.e.,X}.|.|././.].].].CXMXj j j j j j NXNXNXBXBXBXBXNXNXj j j j j j j nX/.].].].]./.|.|.}.,XqXN.r.V.k.] N.r.6.v.iX..C K K *.*.*.l l v v e u u ` 9 9 4 2 3 3 w W W c W c c W h.1 1 1 # 1 1 1 1 1 1 1 # 1 o             ",
"            < # 1 1 1 1 1 1 1 # 1 1 1 1 h.W W c c c W W W 8 2 2 4 9 9 ` u u v v l l *.*.*.g *.C C C ) ;Xb.m.r.r.] ] ] k.k.[.qX,X}.|.|./././.]./.CXMXj j j j j j j j j j j j j j j j j j j FXUX/././.|.|.}.,XqXe.G.F.'.OX3X2Xg x 0 0 r r 5 5 5 k uX-X#X!.!.!.!.!.!.!.!.!.!.#X-XuXk 5 r r r 0 0 x x p.2X3XOX'.G.G.e.qX,X}.|.|././.].UXFXj j j j j j j j j j j j j j j j j j j MXCX/.]././.|.|.}.}.,XqX[.k.k.k.] ] r.6.m.b.;X) C C C *.*.*.l l l v v u u ` ` 9 4 4 2 3 3 W W c c c c W W h.1 1 1 # 1 1 1 1 1 1 1 # 1 <             ",
"            $ # 1 1 1 1 1 1 1 # 1 1 1 1 J.L.W W c c c W W S 3 2 4 4 9 ` u u e v v l l *.*.g ..*.) C ) ) 2X3Xy.6.r.N.] ] ] k.] [.qX,X}.}.|.|./././.UXnXMXj j j j j j j j j j j j j j j FXnX|./.|.|.}.}.qXqXe.m.G.'.b.3XgXp.0 x 0 0 0 r r 5 5 g ;X-X#X!.!.!.!.b.!.OXb.!.!.!.!.#X-X;Xp.5 r r 0 0 x x x 0 x gX3X'.G.G.m.e.qX,X}.}.|.|./.|.nXMXj j j j j j j j j j j j j j j MXnXUX/./.|.|.|.}.,X,XqX[.] k.] ] ] N.r.6.y.3X2X) ) C ) *.*.*.*.l l v v e u u ` 9 4 4 2 2 3 S W c c c W c W W J.1 1 1 # 1 1 1 1 1 1 1 # 1 $             ",
"            - # 1 1 1 1 1 1 1 # 1 1 1 1 J.L.W c c W c c W W 6 2 2 4 9 9 ` u u e v l l *.*.*.g g ....) ) ..p.;X:X5.6.r.N.] ] ] ] ] ^.qXqX,X}.}.|.|.|.|.CXnXMXj j j j j j j j j j MXFXnX(.|.}.}.}.qXqX[.e.m.m.v.'.3X;X2X0 x x x 0 0 r r 5 5 r gX-X>X!.!.b.b.b.OXb.b.!.b.!.b.!.!.>X-XgXr r r r 0 0 x x x a x m ;X3X'.v.m.C.e.[.qX,X}.}.|.|.(.nXFXMXj j j j j j j j j j MXnXCX|.|.|.}.}.,X,XqXqX[.] ] ] ] ] N.r.6.y.:X;X..) ) ) ) ..g *.*.*.l v v v u u ` 9 9 4 2 2 2 w W W c c c c c c L.J.1 1 1 # 1 1 1 1 1 1 1 # 1 -             ",
"            ; # 1 1 1 1 1 1 1 # 1 1 1 1 1 `.W W c c c c c W c 7 2 4 4 9 ` ` u u e v l *.*.*...g p.p.........p.2X;X:X5.e.r.N.] ] ] ] ] ] ^.^.qXqX,X}.}.}.}.(.CXnXnXFXFXFXFXFXnXnXCX(.}.}.,XqXqX[.e.6.m.m.v.y.3X;X2Xx x x x x 0 0 r r r 5 5 k wX>X!.!.b.!.b.b.b.b.b.b.b.b.b.!.!.#X>XwX^ r r r 0 0 0 x x x a a a 2X;X3Xv.m.m.6.6.e.[.qXqX,X}.}.(.CXnXnXFXFXFXFXFXnXnXCX(.}.}.}.}.,XqXqX^.^.] ] ] ] ] N.N.r.6.5.:X;X2X....) ) ..g g g *.*.l l v e e u ` ` 9 4 4 2 2 7 c W c c c c c c W `.1 1 1 1 # 1 1 1 1 1 1 1 # 1 ;             ",
"            ; = # # # # # # # # # # # # # `.c c c W c c c c W S d 2 4 9 9 ` ` u e v v l *.*.*.g g p.p.p.........p.2X;X:X5.6.e.N.N.] ] ] ] ] ^.^.^.^.^.qXqX,X,X,X(.(.(.(.(.bX,X,XqXqX[.[.N.r.6.6.6.m.m.b.iXgXm a a a a x x x 0 r r r 5 5 I wX>X#X!.b.b.b.b.'.b.b.b.b.b.b.b.b.b.!.>X-XwXg r r r r 0 x x x a x a a a m gXiXb.m.m.6.6.6.r.N.[.[.qXqX,X,XbX(.(.(.(.bX,X,XqXqXqX^.^.^.^.] ] ] ] ] ] N.r.e.6.5.:X;X2Xp.........p.p.g g *.*.*.l l v e u ` ` 9 4 4 2 2 d G W c c c c c W c c `.# # # # # # # # # # # # # = +             ",
"            + , 1 1 1 1 1 1 1 # 1 1 1 1 1 W.W W c c c c c c W W H 3 2 4 4 9 ` ` u e v v l l *.*.g g p.p.p.p.p.p.p.p.p.a gXiXb.y.5.e.r.N.N.N.] ] ] ] ^.] Y ] ] ] ] ] ] ] ] ] N.N.N.r.r.r.6.6.5.v.y.:X;Xm a a a a a x x x 0 0 0 r r 5 5 5 ;X>X#X!.b.b.b.b.y.b.y.y.v.b.v.b.b.b.b.b.!.>X-X;X5 5 r r r 0 x x x a a a a a a m m ;X:Xy.5.5.6.6.r.r.N.N.N.] [.] ] ] ] ^.] ] ] ^.] ^.] ] ] ] N.N.N.e.e.5.y.b.iX_ a p.p.p.....p.p.p.g g *.*.l l v v e u ` ` 9 9 4 4 2 3 ,.W c c S c c c c c W W.1 1 1 1 # 1 1 1 1 1 1 1 1 , +             ",
"            . : 1 1 1 1 1 1 1 # 1 1 1 1 1 W.W c c c c c c S c W W w 2 2 4 9 9 ` ` u e v v l *.*.*.g g p.p.p.p.p.p.p.p.p.a a a ;XiX:Xy.y.5.e.e.e.N.N.N.N.N.N.N.N.N.N.N.N.N.N.r.r.e.6.5.5.y.b.6XiX_ a a a a a a a a x x 0 0 0 r r 5 5 5 _ >X#X!.b.b.y.v.y.y.v.y.y.y.y.y.y.v.b.b.b.b.!.>X-X_ I 5 r r 0 0 0 x x a a m m m a m a a _ iX6Xb.y.5.6.e.e.r.N.N.N.N.N.N.N.N.N.N.N.N.N.N.N.e.e.e.5.y.b.:XiX;Xa p.p.p.p.p.p.p.p.p.p.g g *.*.*.l v v e u u ` 9 9 4 4 2 2 w W c c S c c c c c c W W.1 1 1 1 # 1 1 1 1 1 1 1 # : .             ",
"            . & 1 1 1 1 1 1 1 # 1 1 1 1 1 h.W c c c c c c c S c c W w 2 4 4 9 9 ` u u e v v l *.*.g g g p.p.p.a p.a p.a p.a p.a a m &.;XiX6Xb.b.y.5.5.e.e.e.e.e.e.e.e.6.e.5.5.y.b.:X6XiX;Xf m a a m a m a m a a a x x 0 0 r r 5 5 5 _ -X>X!.b.b.y.y.y.y.y.y.v.y.5.y.v.y.y.y.y.y.b.b.!.>X-X^ r r r r 0 0 x x x a a a m m m m m m a m y ;XiX6X:Xb.y.5.5.e.6.e.e.e.e.e.e.e.e.5.5.y.b.:X6XiX;X&.m a a p.a p.a p.p.p.p.p.p.g g *.*.*.l v v e u u ` ` 9 4 4 2 2 w W c c S S c S c c c W W h.1 1 1 1 # 1 1 1 1 1 1 1 O & .             ",
"            % o 1 1 1 1 1 1 1 # 1 1 1 1 1 ' L.c c c c S c S S c c c c 7 4 4 4 9 9 ` u u e v v l *.*.*.g p.p.p.p.p.a a p.a a p.a a a a m m m &.;X;XiXiXiXiX6X6X:X6X6X6XiXiXiXiX;X;Xy m m m m m m m m m a a a a x x x 0 0 r r 5 5 5 ^ wX>X!.b.b.y.y.y.5.5.5.5.5.5.5.5.5.5.y.y.y.y.b.b.b.>X>XwX^ 5 5 r r 0 0 x x a x a a a m m m m m m m m m m &.;X;XiXiXiXiX6X:X6X6X:X6XiXiXiXiX;X;X&.m a m m a a p.a p.a p.a p.a p.p.g g *.*.*.l v v e e u ` D 9 4 4 2 2 7 c W c S c S c c c c c c L.' 1 1 1 1 # 1 1 1 1 1 1 1 # o %             ",
"            % < 1 1 1 1 1 1 1 # 1 1 1 1 1 ' `.c c c c c c S S S S c c S d 4 4 4 9 D ` u e v v l l *.*.*.g g p.p.p.p.p.a p.a a a a 2Xa a m a m m m m m m m _ y &._ &._ m m m m m m m m m m m m m m a a a a x x x x 0 0 r r 5 5 M b wX>X!.b.b.y.y.y.5.5.5.5.5.5.5.5.5.5.5.5.5.5.y.y.b.b.b.>X>X;Xb 5 5 r r 0 0 x x x a a a a a m m m m m m m m m m m m m m m y _ &._ y _ m m m m m m m m m a a a a a a a p.a p.p.p.p.g g g *.*.l l v v e u u D 9 9 4 2 2 d S c c S S S S S c S c c W L.1 1 1 1 1 # 1 1 1 1 1 1 1 # < %             ",
"              $ O 1 1 1 1 1 1 # 1 1 1 1 1 1 `.c c c c S c S S S S S c c G 8 4 4 9 9 ` ` u e e v v l l *.g g g p.p.p.a x a a a a a a m a m m a m m m m m m m m m m m m m m m m m m m m m m m m m a a a a x a x x 0 0 r r 5 5 M g ;X>X!.b.b.y.y.y.5.5.5.e.5.e.e.e.e.e.5.e.5.5.5.5.y.y.b.b.!.>X>X;Xg 5 5 r r 0 0 x x x a a a m a m m m m m m m m m m m m f m m m m m m m m m m m m m m a a m a m a a p.a a p.p.p.p.g g g *.l l l v e e u u D 9 9 4 2 2 d G c c S S S S S c S c c c c `.1 1 1 1 1 # 1 1 1 1 1 1 1 O $               ",
"              - X 1 1 1 1 1 1 # 1 1 1 1 1 1 W.c c c c c c S S S S S S c c G d 2 4 4 9 ` ` u u v v v l l *.g g g g p.p.p.x p.p.a a a a m a a m m m m m m m m m m m m m m m m m m m m m m m m m a a a a x x x x 0 0 r r 5 5 M g ;X>X!.b.b.y.y.y.5.5.e.e.e.e.e.e.e.e.e.e.e.e.e.5.5.5.y.y.b.b.!.>X>X;Xg 5 5 r r 0 0 x x x x a a a m m m m m m m m m m y m m m m m m m m m m m m m m a m m m a a m p.a a p.p.p.p.g g g *.*.l l v v e e u ` D 9 9 4 2 2 d G c c S S S S S S S c S c c c W.1 1 1 1 1 # 1 1 1 1 1 1 1 X -               ",
"              ; : # # # # # # # # # # # # # J.W c c c S S S S S S S G S c c G d 4 4 9 9 ` u u u e v v l l *.*.g g g p.p.p.a x a a a a a a m a m m m m m m m m m m m m m m m m m m m m m a a a a a x x x x 0 0 0 r r 5 5 M g ;X>X!.b.b.y.y.5.5.5.e.e.e.e.e.e.e.e.e.e.e.e.e.e.e.e.5.y.y.y.y.b.!.>X>X;Xg 5 5 r r 0 0 0 x x x a a a a m m m m m m m m m m m m m m m m m m m m m m m m a a a a a p.a p.p.x p.p.g g g *.*.l l v v e u u u ` D 9 4 4 2 d G c c G G S S S S S S c c c c W J.# # # # # # # # # # # # # : ;               ",
"              . & 1 1 1 1 1 1 # 1 1 1 1 1 1 1 W c c c c S S S G S G G G S c c S 7 4 4 9 9 D ` u u e v v l l *.*.g g g p.p.p.x p.p.p.a a a a a a a a m m m m m m m m m m m m m m m m a a a a a x x x x 0 0 0 r r r 5 5 M p.;X>X!.b.b.y.y.y.5.5.e.e.e.[.e.[.[.[.[.[.[.[.e.[.e.e.e.5.5.y.y.y.y.b.!.>X>X;Xp.5 5 r r 0 0 0 x x x x a a a a m m m m m m m m m m m m m m m m m m m m a a a a a a a p.a p.x p.g g g *.*.*.l l v e e u u ` D 9 9 4 2 4 7 S c c S G G G G S S S S S S c c W 1 1 1 1 1 1 # 1 1 1 1 1 1 1 @ .               ",
"              % o 1 1 1 1 1 1 # 1 1 1 1 1 1 1 `.c c c S c S S S G G G H G S c c S 7 j.4 9 D ` ` u u e e v v l l *.*.g g g g p.x x x p.a p.a a a a a a a a m a m m m m m m a m a a a a a a x x x x x 0 0 0 r r I 5 5 M p.;X>X!.b.b.y.y.5.5.5.e.e.N.[.[.[.[.N.[.[.[.[.[.[.[.e.[.e.e.5.5.y.y.y.b.b.!.>X>X;Xp.5 5 r r r 0 0 0 x x x x a a a a m m m m m m m m m m m m m m a a a a a a a a p.x p.x p.p.0 g g g I *.I l l v e e u u ` D 9 9 4 2 4 7 S c c S G G G G G G S S S c c c c L.1 1 1 1 1 1 # 1 1 1 1 1 1 1 o %               ",
"                < = 1 1 1 1 1 # 1 1 1 1 1 1 1 W.c c S c S S S S G S G G H G G S c S 9XK 4 4 9 D ` u u e e v l l l l *.*.g g g p.p.p.p.x x x x a a a a a a a a a a a a a a a a a a a x x x x x x 0 0 0 0 r r 5 5 M M p.;X>X!.b.y.y.y.5.5.5.e.e.e.[.[.[.[.[.[.[.[.[.[.[.[.[.[.[.[.e.5.5.5.5.y.y.y.b.!.>X>X;Xp.M 5 5 r r 0 0 0 0 x x x x x a x a a a a a m a m a m a a a a a a a a a x x x p.x p.p.g g g *.I *.l l l v e u u u D D 9 4 4 4 %.9XS c S G G G H G H G G S S S S S c S h.1 1 1 1 1 1 # 1 1 1 1 1 1 > <                 ",
"                - X 1 1 1 1 1 # 1 1 1 1 1 1 1 ' c c c S S S S G G G H G H H G H S c 9X=X9X4 4 9 9 D ` u u e e v l l l *.I *.g g g g g p.x p.x p.x x x a x a a a a x a x x x x x x x x x x x 0 0 0 r r r 5 5 M M M ..wX>X!.b.y.y.y.5.5.5.e.e.e.[.[.[.[.^.[.^.^.^.^.^.[.^.[.[.[.[.e.e.5.5.5.y.y.y.y.b.!.>X>XwXp.M 5 5 5 r r 0 0 0 x x x x x x a x a a a x a a a a a a a a x a x x p.p.x p.p.g g g g I I l l l l v e e u u ` D 9 9 4 4 4 9X=X9Xc S G H G H H G S G S S S S c c S c ' 1 1 1 1 1 1 # 1 1 1 1 1 1 X -                 ",
"                + : 1 1 1 1 1 # 1 1 1 1 1 1 1 ' L.c c c S S S z.G S G H H H H H H S 9X=XeX0X~ 4 9 9 D D ` u u e e v M l l l *.I I g g g g 0 0 p.x p.p.p.x x p.x x x x a x x x x x x x 0 0 0 0 r r r 5 5 M M M M k >X>X!.b.y.y.5.5.e.e.e.e.e.[.[.^.^.^.^.^.^.^.^.^.^.^.^.^.^.^.^.[.e.e.5.5.5.5.y.y.y.y.!.>X>XwX^ 5 M 5 5 I r r 0 0 0 0 0 x x x x x x x x x x x x x x x x x p.p.p.0 0 g g g g g *.I l l l l v e e u u u D D 9 4 4 4 ~ 0XeX=X9XG H H H H H H G H S H S S S S S c L.' 1 1 1 1 1 1 # 1 1 1 1 1 1 : +                 ",
"                % & # 1 1 1 1 # 1 1 1 1 1 1 1 # W.c S c S S S G G H H H H H H H H H 9X=XeXeXeX9X| 4 9 9 D ` u u u e e v l l l l I I I g g g g g g 0 p.p.p.x 0 x 0 x x 0 x 0 0 0 0 0 g g g r r r 5 5 5 M M M l gX>X!.!.b.y.y.5.5.e.e.e.[.[.[.[.[.^.^.{.{.{.{.{.{.{.{.{.{.^.^.^.^.[.e.e.e.e.5.5.5.y.y.y.b.b.!.>X>X_ *.M M 5 5 5 r r r 0 0 0 0 0 x 0 0 x x x x x x x p.0 p.0 0 0 0 g g g g g I I l l l M M e e e u u ` D D 9 4 4 | 9XeXeXeX_.9XH H H H H H H G G G S G S S c c S W.1 1 1 1 1 1 1 # 1 1 1 1 1 # @ %                 ",
"                  o = 1 1 1 1 # 1 1 1 1 1 1 1 # J.c c c S S S S G S H H H H H H ,.,.l.=X_.eX_.eX0X9X9 4 D D D ` u u e e e v M l l l *.I *.I g g g g g g g 0 g 0 0 0 0 0 0 0 0 0 g r r I I r 5 5 5 M M M M s ;X>X!.!.b.y.5.5.e.e.e.[.e.[.[.[.[.^.{.{.{.{.{.{.{.{.{.{.{.{.{.{.{.^.^.N.e.e.6.6.5.5.5.y.y.y.y.!.!.>X>X;Xp.M M 5 5 5 r r r r g 0 0 0 0 0 0 0 0 0 p.0 g 0 0 0 g g g g g I I I I l l l M v e e e u u u D D 9 9 4 9 9X0XeX_.eX_.=Xl.,.,.H H H H H H G H G G S S S c c J.1 1 1 1 1 1 1 # 1 1 1 1 1 = o                   ",
"                  - X # # # # # # # # # # # # # ' L.c S c S S G H G H H H H H H ,.,.l.=XtXeX_._._.eX0XR.4 9 D D D u u u e e M v M M l l l I I I I I g g g g g g g g g g g g r I I I I I I 5 5 M M M e M 2XwX>X!.!.b.y.5.5.e.e.e.e.[.[.[.[.[.^.^.{.{.{.{.{.{.{.{ {.{.{.{.{.{.{.{.^.N.r.e.6.e.6.5.m.y.y.y.y.y.b.!.>X>XwX2XM M M M 5 I I I I I r r r g 0 g g g g g g g g g g g I I I I l l l l M M e e e u u u D D D 9 9 4 R.0XeX_._.eXA.tX=Xl.,.,.,.H H H H H H S G S S S S c W ' # # # # # # # # # # # # # X -                   ",
"                  . , 1 1 1 1 # 1 1 1 1 1 1 1 # # W.c S S S S S S H G H H H H ,.,.,.@XgXtXA._._.eX_._.eX0XP 9 9 D D D u u u e e e e M M M l l l I I I I I I I I I I I r I I I I 5 5 5 5 M M M M e e g ;X>X#X!.!.b.y.5.5.e.e.e.[.[.[.[.[.^.^.^.{.{.{ {.~.{ ~.~.{.~.~.~.~.{ ~.{.{.^.N.r.r.e.6.6.6.5.m.v.v.y.y.y.b.!.>X>X-X;Xg e M M M 5 5 5 5 I I I I I I I I I I I I I I I 5 I l 5 l l l M M e e e u u u D D D D 9 9 P 0XeX_._._._._.A.tXgX@X,.,.,.,.H H H H G H G G S S S c W.# 1 1 1 1 1 1 1 # 1 1 1 1 1 , .                   ",
"                    & O 1 1 1 # 1 1 1 1 1 1 1 # 1 h.W c S S S G H G H H H H ,.,.,.,.,.fXtXA.A._._._._._.eXeX0XR.9 9 D D D ` u u u e e e e M M M M M 5 5 5 5 5 I 5 5 5 l 5 5 5 5 M M M M M M e e M 2X-X>X!.!.b.y.y.5.5.e.e.[.[.[.[.[.^.^.^.^.{.{.~.{ ~.{ ~.~.~.~.~.{ ~.{.~.{.~.{ ^.N.r.r.r.6.6.6.m.m.m.v.v.y.y.y.b.!.!.>X>XwX2Xl e M M M M 5 5 5 5 5 5 5 I I I I 5 5 5 5 5 5 M M M M v e e e e u u u D D D D 9 9 R.0XeX_._._.eX_._.A.A.tX2X,.6 ,.,.,.H H H H H G S G S S c c h.# 1 1 1 1 1 1 1 # 1 1 1 1 O &                     ",
"                    $ = 1 1 1 # 1 1 1 1 1 1 1 # 1 ' `.c S S S G S H G H H H ,.,.,.6 w fX<XA.A.c.c._._._._._._._.=XfXP ` D D D D u u u u e e e e e e M M M M M M M M M M M M M M M e e e e e l 2XwX>X#X!.!.b.y.y.5.5.e.N.N.[.[.[.[.^.^.^.^.{.{.{ ~.~.~.~.~.~.~.~.~.~.~.~.~.~.~.~.{.] r.r.r.r.6.6.6.m.m.m.v.v.5.y.y.y.b.!.#X>X>XwX2X) M e e M M M M M M M M M M M M M M M M e e e e e e u u u u D D D D D | P fX=X_._._._._._._.c.c.A.A.<XfX6 6 6 ,.,.,.H H H G H G S S S S `.' # 1 1 1 1 1 1 1 # 1 1 1 1 = $                     ",
"                    . > 1 1 1 # 1 1 1 1 1 1 1 # 1 1 W.c S S S G G H H H H ,.,.,.,.6 6 9XuXA.A._.c.c.c._._._._._._._.eX0XfX9XP ` D D D u u u u e e e e e e e e e M e e e e e e e e e e M ..gXwX>X#X!.!.b.b.y.5.5.5.e.N.[.[.[.[.^.^.^.^.{.{.{.{.~.~.~.~.~.~.~.S.~.S.~.~.S.~.~.~.~.{.] k.V.V.V.f.f.6.6.m.m.m.v.5.5.y.y.y.b.!.!.#X#X>XwXgX..l e e e e e M M M M M M M e e e e e e e u u u u D D D D ` %.9XfX0X_._._._._._._._.c.c.c._.A.A.uX9Xw 6 6 ,.,.,.H H H H G G S S S c W.1 # 1 1 1 1 1 1 1 # 1 1 1 1 > .                     ",
"                      & 1 1 1 # 1 1 1 1 1 1 1 # 1 1 J.L.S S S G G G H H H ,.,.,.,.6 w M.uXtXA.A.c.c.c.c.c.c._._._._._._._.=X=X0XfX9XK u D D D u u u u u u e e e e e e e e e e u e ..2XgXuX#X#X#X!.!.b.y.y.5.5.5.e.e.[.[.[.^.^.^.^.^.{.{.{.{.{ ~.~.~.~.S.S.S.~.S.~.S.S.S.~.S.~.~.{ ] k.V.r.V.r.f.f.f.f.C.C.G.m.5.5.5.y.y.y.b.!.#X#X>X#XwXgX2X..e e e e e e e e e e e e u u u u u u D D D u K 9XfX0X=X=X_._._._._._._.c.c.c.c.c.c.A.A.tX;XM.w 6 6 ,.,.,.H H H H G H S S S W J.1 # 1 1 1 1 1 1 1 # 1 1 1 1 &                       ",
"                      < 1 1 1 # 1 1 1 1 1 1 1 # 1 1 1 `.c S S S G H H H H ,.,.,.,.w w w gXtXA.A.c.c.c.c.c.c.c.c.c._._.*X_._._.*X_.=X=X=X0XfXfX) C v v u D D u u u u u e v ) 2XgXxXuX-X#X#X#X!.!.b.y.v.5.5.5.5.e.e.N.[.[.^.^.^.^.{.{.{.{.{ { { ~.S.S.S.S.~.S.S.S.S.S.S.S.S.S.S.~.~.X.k.V.V.V.V.f.f.f.C.C.C.C.m.e.5.5.5.y.y.y.b.b.!.#X#X#X#X-XuXxXgX2X..l e u u u u u D D D v v C ) 2XfX0X=X=X=X*X_.*X_._.*X_.c.c.c.c.c.c.c.c.c._.A.A.tXgXw w w * ,.,.,.H H H G G G S S c `.1 1 # 1 1 1 1 1 1 1 # 1 1 1 1 <                       ",
"                      + > 1 1 # 1 1 1 1 1 1 1 # 1 1 1 h.c S S S G G G H H ,.,.6 6 6 w 7 fX<XA.A.c.c.c.c.c.c.Q c.c.Q c.c.c.c.*X_.*X*X*X*X*X*X=X*X=X=X=X=X=X=X=X=X=XuX=XuXuXuX-X-X#X#X#X#X#X!.b.b.v.v.5.5.5.6.e.e.e.[.^.^.^.^.^.{.{.{.{ {.{ { ~.~.S.S.S.S.S.S.S.S.S.S.S.S.S.S.S.S.{ X.1.2.2.q.V.f.0.f.f.d.d.C.G.e.e.e.5.5.5.y.v.y.b.b.!.#X#X#X#X#X-X-XuXuXuX=XuX=XuX=X=X=X=X=X=X=X=X*X*X*X*X*X_.*X*X_.*Xc.c.c.c.c.c.c.c.c.c.c.c.c.A.A.<XfXw w w * ,.,.,.H H H H G G S S c h.1 1 # 1 1 1 1 1 1 1 # 1 1 1 > +                       ",
"                      % & # # # # # # # # # # # # # # # L.S S S G H H H H ,.,.6 * * * * 9X3XA.A.c.c.c.c.c.Q c.Q Q Q Q Q .Xc.c.c.*Xc.*Xc.*X*X*X*X*X.X*X<X<X<X<X<X<X<X#X<X#X#X#X#X#X+X#XOXb.v.v.v.v.5.m.5.6.e.e.e.N.^.^.^.} {.{.{.{.{.{ { { ~.~.S.S.S.S.S.S.S.S.E S.S.S.S.S.S.S.S.~.[ 2.2.V.q.q.q.q.d.d.d.d.C.R e.e.e.5.6.5.5.v.y.v.y.'.b.!.#X#X#X#X#X<X#X<X#X<X<X<X<X<X<X<X*X.X*X*X*X*X*X*Xc.*Xc.c.c.Q .XQ .XQ Q Q Q c.c.c.c.c._.A.A.iX9X* * * * 6 ,.,.,.H H H G G S S L.# # # # # # # # # # # # # # # & %                       ",
"                        $ O 1 # 1 1 1 1 1 1 1 # 1 1 1 1 h.c S S G G G H H ,.,.6 6 w w w D.iXtXA.A.c.c.c.Q c.Q Q Q =.Q =.=.=.g.=.=..XQ .X.Xc..X.X.X*X.X.X.X.X.X#X.X#X.X+X#X+X+X+XOXOX'.v.v.v.v.5.m.6.6.e.6.e.N.N.N.^.^.^.{.{.! {.{ { { ~.~.~.~.S.S.S.E S.E E E S.E E E E S.E S.S.~.[ 2.2.2.q.q.q.0.q.q.V.k.] ^.N.N.e.e.e.6.5.5.5.v.v.v.'.v.'.OX!.+X#X+X#X#X#X.X#X.X.X#X.X.X.X.X.X.X.X.X.X.X.X.Xg.=.g.=.=.=.Q =.Q Q c.Q c.c.c.c.A.A.tXiXM.w w w * ,.,.,.H H H G H S S S h.1 1 1 # 1 1 1 1 1 1 1 # 1 1 O $                         ",
"                        + , 1 # 1 1 1 1 1 1 1 # 1 1 1 1 1 W S S S G G H H H ,.6 6 w w 7 w =X<XA.A.c.c.Q c.Q Q Q Q =.=.=.=.=.=.g.7.g.g.7.g.n.g.g.g.+Xg.#X.X+X+X+X+Xn.#XOXOXOX'.'.v.v.v.v.v.m.m.m.6.6.6.r.r.r.N.N.N.{.~.{ {.] ^.! { { ~.~.~.~.S.S.E S.E E S.E E E E S.E E E S.E E ~.[ 2.o.q.o.o.q.2.k.N.{.{ ~.{.N.N.N.r.e.e.6.6.m.5.m.v.v.v.v.v.'.'.'.OXOX+X+X+X+X+X+X.X+X.X+X.Xg.g.g.g.7.g.7.7.g.g.=.=.=.=.=.Q Q Q Q Q c.c.c.c.A.A.<X=X7 7 w w * ,.,.,.H H H G G S S W 1 1 1 1 # 1 1 1 1 1 1 1 # 1 1 , +                         ",
"                        . o 1 # 1 1 1 1 1 1 1 # 1 1 1 1 1 h.S S S G G H H H ,.6 6 w w 7 7 fX3XA.A.c.c.c.Q Q Q Q Q =.=.=.=.7.7.7.g.7.7.n.g.n.n.n.n.n.n.U.OX).).).).).).'.'.'.'.'.v.v.v.m.m.m.6.6.6.6.e.r.r.N.N.N.] ^.~.~.~.6.).N.{ ~.~.~.~.~.S.S.S.E E E E E E E E E E E E E E S.S.[ o.o.o.o.q.k.] ).m.~.~.~.^.[.N.N.N.r.r.e.6.6.6.m.m.m.v.v.v.v.v.'.'.'.'.'.).).).).).U.OXOXn.OXn.n.n.n.n.n.g.g.7.7.g.=.=.=.=.=.Q Q c.Q c.c.c.A.A.3XfX7 7 w w * ,.,.,.H H G G G S S h.1 1 1 1 # 1 1 1 1 1 1 1 # 1 1 o %                         ",
"                          $ > # 1 1 1 1 1 1 1 # 1 1 1 1 1 ' L.S S G G H H H ,.,.6 w w w 7 M.3XtXA.c.c.Q Q Q Q =.=.=.=.=.7.7.7.7.i.n.i.n.n.n.n.n.U.n.U.U.).U.).).).'.'.F.G.G.v.G.m.G.m.m.m.6.6.6.r.r.r.r.N.N.] ] ] ^.! ~.~.^._..Xr.{ ~.~.~.~.S.S.E E E E E E E E E E E E E E E E S.[ o.o.o.o.X.N.g._.N.~.{ {.^.] ] N.N.N.r.r.r.6.6.6.6.m.m.m.v.v.G.v.v.'.'.'.'.).).).).).U.U.n.U.n.n.n.n.i.7.n.7.g.7.7.7.=.=.=.=.Q Q Q c.c.c.A.A.tX3XM.7 7 w w * ,.,.,.H H G G G S L.' 1 1 1 1 # 1 1 1 1 1 1 1 # 1 > $                           ",
"                          + & # 1 1 1 1 1 1 1 # 1 1 1 1 1 1 h.S S G G H H H ,.,.,.w w 7 D.7 uX<XA.A.c.c.c.Q Q =.Q =.=.7.7.7.7.i.7.i.i.i.n.9.9.U.U.U.U.U.).F.F.F.F.F.G.G.G.G.G.C.m.m.m.f.6.f.6.r.r.r.r.N.] ] ] ] ] Y } { { ~.OXeXc.r.{ ~.~.S.S.E E S.E E E E E E E E E E E E E S.S.[ o.o.o.X.] =.mXg.{ ~.{ {.^.] ] ] ] N.N.r.r.r.6.6.6.6.m.m.m.m.m.G.G.G.G.G.F.'.F.).).).).U.U.U.U.n.9.n.n.i.n.i.i.7.7.7.7.=.=.=.Q Q Q Q c.c.A.A.<XuX7 7 7 w w * ,.,.,.H H G G G S h.1 1 1 1 1 # 1 1 1 1 1 1 1 # 1 & +                           ",
"                            < = 1 1 1 1 1 1 1 # 1 1 1 1 1 1 ' L.S S G G H H ,.,.,.w w w 7 7 fX:XA.A.c.Q Q Q Q Q =.=.7.7.7.7.i.i.i.n.9.9.9.U.U.U.U.U.F.U.F.F.F.F.G.G.G.G.G.C.m.C.m.f.f.6.f.r.V.r.V.r.k.] ] ] ] ] Y ^.Y ! { { {.A.mXQ.r.{ ~.S.S.E E E E E E E E ZXE E E E E E E E S.1.o.o.[ ] 7.mXA.^.{ { ! } Y ] ^.] ] ] N.r.r.r.r.r.f.6.f.6.C.m.C.m.G.G.G.G.G.F.G.F.F.F.U.).U.U.U.U.U.9.9.n.i.i.7.i.7.7.=.=.=.=.Q Q Q c.c.c.A.A.3XfX7 7 7 w w 6 ,.,.H H H G G S L.' 1 1 1 1 1 # 1 1 1 1 1 1 1 # = <                             ",
"                            + : # 1 1 1 1 1 1 # 1 1 1 1 1 1 1 h.c S G G H H ,.,.,.6 w w 7 7 L 3XtXA.Q.c.Q Q Q =.=.=.7.7.7.7.i.i.9.i.9.9.9.9.U.@.U.F.8.F.F.F.G.F.G.G.G.C.C.C.C.f.C.f.f.f.f.r.V.r.k.k.] k.] ] ] Y Y Y } } ! { { e.A.mXQ ] ~.S.S.E S.E E E E E E E E E ZXE E E E E S.1.o.2.^.IXmXA.m.{ ~.! {.Y ^.Y ] ] ] ] ] ] k.r.r.r.r.f.6.f.f.f.m.C.C.C.C.G.G.G.G.F.F.F.F.F.F.U.U.U.9.U.9.9.9.n.i.i.7.7.7.7.=.=.=.Q Q Q c.A.A.tX3X<.7 7 7 w w 6 ,.,.H H G G G c h.1 1 1 1 1 1 # 1 1 1 1 1 1 1 # : +                             ",
"                            % o = # # # # # # # # # # # # # # ' `.S G G H H ,.,.,.* * * * 7 M.uX3XA.A.c.Q Q Q =.=.=.7.7.7.i.i.i.i.9.9.U.@.U.@.U.8.8.F.F.8. .G. .C.C.C.C.C.C.f.f.f.f.f.V.V.V.V.k.k.k.] ] ] X.Y ] Y ^.Y } ! { { ! m.A.mX9.{.S.S.E E E E E E E ZXE ZXE E E E E E S.S.2.o.Y F.mXA.G.{.{ { ! } } Y Y ^.Y ] ] ] k.] k.r.V.V.r.f.f.6.f.C.f.C.C.C.C.G.G. .G.F.F.F.8.U.8.U.U.U.9.9.9.i.9.i.i.7.7.7.=.=.=.Q Q c.c.c.A.A.3XuXM.7 * * * * 6 ,.,.H H H G S `.' # # # # # # # # # # # # # # = o %                             ",
"                              ; X 1 1 1 1 1 1 # 1 1 1 1 1 1 1 # J.W S G G H H ,.,.6 w w 7 7 d fX3XtXA.Q.Q Q Q =.=.=.7.7.7.i.i.9.9.9.9.9.@.@.@.8.8.F.8. . .G. . .C.R C.d.d.f.d.f.f.f.V.V.V.V.k.k.k.] k.X.X.X.Y Y Y Y } } } ! { { {.m.Q.A.f.~.S.E S.E E E E E E E E E E E E E E E S.1.2.r.A.Q.G.{.{ { ! ! } } ^.Y Y Y ] X.] ] ] k.k.k.V.V.V.V.f.f.f.f.f.C.C.C.C. .C.G. . .F.F.8.F.8.@.@.@.U.9.9.i.i.i.i.7.7.7.=.=.=.Q Q c.c.A.tX3XfXd 7 7 w w 6 6 ,.,.H G G G W h.1 1 1 1 1 1 1 # 1 1 1 1 1 1 1 X ;                               ",
"                              % @ O 1 1 1 1 1 # 1 1 1 1 1 1 1 # 1 `.S G G G H ,.,.6 6 w 7 7 7 4.uX<XA.A.Q Q Q =.=.7.7.7.IXi.i.i.9.9.@.@.@.@.8.8.8.8. .F. . .C.R C.d.d.d.d.f.f.f.q.V.V.V.V.k.k.k.k.X.X.] X.Y Y Y Y } } } } } ! { { ! r.i.=.{.S.E E E E E E E E E E ZXE E E E E E E 1.[ IXIXf.! { { ! ! } } } Y Y Y Y X.] ] [ k.] k.k.k.V.V.V.f.f.f.f.d.f.d.d.C.C.R  .C. . .F.8.F.@.F.@.U.@.9.9.9.i.i.i.7.7.7.=.=.Q Q Q c.A.A.<XuX4.d 7 7 w w 6 ,.,.H H G G S `.# 1 1 1 1 1 1 1 # 1 1 1 1 1 1 O @ %                               ",
"                                ; = 1 1 1 1 1 # 1 1 1 1 1 1 1 # 1 ' W G G G H H ,.,.6 w w 7 D.L gX3XA.A.Q.Q Q Q =.=.7.7.7.i.i.9.9.9.9.@.@.@.8.8.8. . . . .R R C.R d.d.d.0.f.f.q.V.V.V.V.k.k.k.[ k.[ X.X.X.X.Y Y Y Y Y } } } ! ! ! { { } N.{.S.E E S.E E E E E E E E E E E E E S.E [ Y N.^.{ { { ! ! ! } } } } Y Y Y Y Y X.] X.k.k.k.k.k.V.V.V.V.q.f.f.d.d.d.d.R C. .C. . . .8.8.8.8.@.@.@.9.9.9.i.i.i.7.7.7.=.=.Q Q c.c.A.A.3XgX<.d 7 7 w w 6 ,.,.H H G G W ' # 1 1 1 1 1 1 1 # 1 1 1 1 1 1 = ;                                 ",
"                                  @ 1 1 1 1 1 # 1 1 1 1 1 1 1 # 1 1 h.S G G H H ,.,.6 w w 7 7 d 9X3XtXA.Q.Q Q =.=.7.7.7.i.i.i.9.9.@.@.@.@.8.8.8.8. . . .R R d.R d.d.d.0.f.q.q.q.V.2.V.1.1.k.k.[ [ X.X.X.X.Y Y Y Y } } } } } ! ! ! ! { { { { S.E S.E E E E E E E E E E E E E E S.E Y ! { { { ! ! ! ! } } } } } Y Y Y Y X.X.X.[ ] [ k.k.k.k.V.V.V.V.q.q.f.d.d.d.d.d.R R  . . .F.8.8.8.@.@.@.9.9.9.i.i.i.7.7.=.=.=.Q Q c.A.A.tX3X9Xd 7 7 7 w w ,.,.,.H G G S h.1 # 1 1 1 1 1 1 1 # 1 1 1 1 1 1 @                                   ",
"                                  + = 1 1 1 1 # 1 1 1 1 1 1 1 # 1 1 1 `.G G G H H ,.,.w w w 7 d 4.;X3XA.A.Q.Q =.=.=.7.7.IXi.i.3.9.9.@.@.@.8.8.8. . . . .R R R d.-.d.0.0.q.q.q.2.V.2.2.k.1.1.[ [ [ [ X.X.X.X.Y Y Y Y Y } } } } ! ! ! ! ! { ~.S.S.E S.E E E E E E E E E E E E E E E ! ! { { { ! ! ! ! ! } } Y } Y Y Y X.Y X.X.X.[ [ [ k.1.1.1.V.q.V.q.f.q.0.d.d.d.R C.R C. . . . .8.8.@.@.@.@.9.9.i.i.i.7.7.=.=.=.Q Q Q.A.A.3X;X4.d 7 7 w w 6 ,.,.H H G G `.1 1 # 1 1 1 1 1 1 1 # 1 1 1 1 # = +                                   ",
"                                  % o O 1 1 1 # 1 1 1 1 1 1 1 # 1 1 1 ' W G G H H ,.,.6 w w 7 d d fX6XtXA.Q.Q Q =.=.7.7.i.i.i.9.9.@.@.@.@.8.8. . . .R R R d.-.d.0.0.0.0.q.q.q.V.2.1.1.1.1.[ [ [ [ X.X.X.X.Y Y Y Y } Y } } } } ! ! ! ! { ! { ~.S.~.S.S.S.S.S.S.S.S.S.S.S.S.S.S.~.S.! { { ! ! ! ! ! } } } } } Y Y Y Y Y X.X.X.X.[ [ k.[ 1.k.1.2.V.2.q.q.q.f.0.d.d.d.R R R  . . .8.8.8.8.@.@.9.9.9.9.i.7.7.7.=.=.Q Q c.A.A.tX6XfXd 7 7 7 w 6 6 ,.,.H H G W ' 1 1 # 1 1 1 1 1 1 1 # 1 1 1 1 O o %                                   ",
"                                    ; , 1 1 1 # 1 1 1 1 1 1 1 # 1 1 1 1 h.c G H H H ,.6 6 w 7 7 7 4.uX3XA.A.Q.Q =.=.7.7.7.i.i.9.9.9.@.@.@.8.5X8.5X . .R R R -.-.-.0.0.q.q.q.2.2.2.2.1.1.1.1.[ [ [ [ X.X.X.X.X.Y Y Y Y } } } } } ! ! ! ! ! { { { { { { { { { ~.{ ~.~.{ ~.{ { { { { { { { ! { ! ! ! ! } } } } } Y Y Y X.Y X.X.X.[ [ [ [ 1.1.1.1.2.2.2.q.q.0.0.0.d.-.d.R R R  . . .8.8.8.@.@.@.9.9.i.i.i.7.7.=.=.Q Q Q.A.A.3XuX4.d 7 7 w w 6 6 ,.H H G c h.1 1 1 # 1 1 1 1 1 1 1 # 1 1 1 1 , ;                                     ",
"                                    % o O # # # # # # # # # # # # # # # # `.G G H ,.,.6 * * * 7 d d fX6XtXA.Q.Q Q =.=.7.7.i.i.9.3.@.@.@.8.8.8. . . .R R R -.-.d.0.0.0.q.q.q.2.2.2.1.1.1.1.[ [ [ [ [ X.X.X.Y X.Y Y Y } Y } } } ! } ! ! ! { ! { ! { { { { { ~.{ { { { ~.{ { { { { { { ! ! ! ! ! ! } } } } } Y Y Y Y Y X.X.X.X.[ [ [ [ [ 1.1.k.2.V.2.V.q.q.q.0.d.0.d.d.R R R  . .8.8.8.@.@.@.9.9.9.i.i.7.7.7.=.=.Q c.A.A.tX6XfX8 d 7 * * * 6 ,.,.H H G W.# # # # # # # # # # # # # # # # O o %                                     ",
"                                      ; : 1 1 # 1 1 1 1 1 1 1 # 1 1 1 1 1 ' L.G H H ,.,.6 w w 7 7 d L uX:XA.A.Q.Q =.=.7.7.IXi.9.9.9.@.@.@.8.5X .5X .R R R R -.-.0.0.0.q.q.2.2.2.2.1.1.1.[ 1.[ [ [ [ [ X.X.X.Y X.Y Y Y Y } } } } } ! ! ! ! ! ! { { { { { { { { { ~.{ { { { { { { { ! { { ! ! ! ! ! } } } Y } Y Y Y X.Y X.X.X.X.X.[ [ 1.[ 1.1.1.2.2.2.q.q.q.0.0.d.-.-.R R R  . . .8.8.8.@.@.@.9.9.i.i.7.7.=.=.Q Q Q.A.A.6XuX<.d d 7 w w 6 6 ,.,.H G L.' 1 1 1 1 # 1 1 1 1 1 1 1 # 1 1 1 : ;                                       ",
"                                        $ > 1 # 1 1 1 1 1 1 1 # 1 1 1 1 1 1 J.W G H H ,.6 6 w * 7 7 d 9X6X<XA.Q.Q Q =.7.7.i.i.i.9.9.@.@.@.5X8.8. . .R R R -.-.-.0.0.o.q.q.q.2.2.2.1.1.1.1.[ 1.[ [ [ X.X.X.X.X.Y Y Y Y } Y } } } ! } ! ! ! ! { ! { { { { { { { { { { { { { { { { ! { ! ! ! ! ! } } } } } Y } Y Y Y X.Y X.X.[ [ [ [ [ [ 1.1.1.1.2.2.2.q.q.q.0.0.0.d.-.R R R  . .8.8.8.@.@.@.9.9.9.i.7.7.7.=.=.Q c.A.A.<X6X9Xd d 7 7 w w 6 ,.,.H H W J.1 1 1 1 1 # 1 1 1 1 1 1 1 # 1 1 > $                                         ",
"                                        . & O # 1 1 1 1 1 1 1 # 1 1 1 1 1 1 # h.c G H ,.,.6 w * w 7 d d uX:XtXA.Q.Q =.=.7.7.i.i.9.9.@.@.@.@.8. .5X . .R R -.-.-.0.0.0.o.2.o.2.2.2.1.1.1.1.1.[ [ [ [ [ [ X.X.X.X.X.Y Y Y Y Y } } } ! } ! ! ! ! ! ! { ! { { { { { { { { { { { { ! { ! ! ! ! ! } ! } } } } Y Y Y Y Y X.X.X.X.X.[ [ [ [ [ 1.1.1.1.2.2.2.q.q.q.0.0.-.-.d.R R  . . . .8.8.@.@.@.9.9.i.i.7.7.=.=.Q Q Q.A.tX6XuX8 d 7 7 w w 6 6 ,.H H S h.1 1 1 1 1 1 # 1 1 1 1 1 1 1 # 1 O & .                                         ",
"                                          - X # 1 1 1 1 1 1 1 # 1 1 1 1 1 1 1 # W.G H H ,.,.6 * w 7 7 d 9X3X3XQ.A.Q.=.=.7.7.i.i.9.9.9.@.@.8.5X8. . .R R R -.-.-.0.0.o.q.q.2.2.2.2.1.1.1.1.1.[ 1.[ [ [ X.X.X.X.Y Y Y Y Y } Y } } } } } ! ! ! ! ! ! ! { ! { { { { { { { { ! { ! ! ! ! ! ! ! } } } } } Y Y Y Y Y Y X.X.X.X.X.[ [ [ [ [ 1.1.1.1.2.2.2.2.q.q.0.0.0.d.-.-.R R R  . .8.8.8.@.@.9.9.9.i.i.7.7.=.=.Q Q.A.A.3X3X9Xd d 7 * w w 6 ,.,.H G W.1 1 1 1 1 1 1 # 1 1 1 1 1 1 1 # # X -                                           ",
"                                            o O 1 1 1 1 1 1 1 # 1 1 1 1 1 1 1 # # `.G H H ,.6 * w w 7 d M.gX:X<XA.Q.Q =.=.7.7.i.i.9.9.@.@.@.8.8. .5X .R R R -.-.-.0.0.q.o.2.o.2.2.2.1.1.1.1.1.[ [ [ [ [ [ X.X.X.X.X.Y Y Y Y } Y } } } } } ! ! ! ! ! ! { ! ! ! ! { ! ! ! ! ! ! ! ! ! ! ! } ! } } } } Y } Y Y Y X.Y X.X.X.X.[ [ [ [ 1.[ 1.1.1.1.2.2.2.q.q.0.0.0.0.-.R R R  . . .8.8.@.@.@.9.9.i.i.7.7.=.=.=.Q A.A.<X6XgX<.d 7 7 * w 6 ,.,.H H `.# 1 1 1 1 1 1 1 # 1 1 1 1 1 1 1 # O o                                             ",
"                                            . , 1 1 1 1 1 1 1 # 1 1 1 1 1 1 1 # 1 J.`.H H ,.,.6 w w 7 7 d 4.uX:XtXA.Q.Q =.7.7.i.i.9.9.@.@.@.8.8.5X . .R R R -.-.-.0.0.o.q.q.2.2.2.1.1.1.1.1.[ 1.[ [ [ [ X.X.X.X.Y X.Y Y Y Y Y } } } } } ! } ! ! ! ! ! ! ! ! { ! ! { ! { ! ! ! ! ! ! } ! } } } } Y } Y Y Y Y Y X.X.X.X.X.[ [ [ [ [ 1.1.1.1.1.2.2.2.q.q.q.0.0.0.-.d.R R R  . .8.8.8.@.@.9.9.9.i.i.7.7.=.=.Q Q.A.tX:X;X~ d d 7 w * 6 6 ,.H H `.J.# 1 1 1 1 1 1 1 # 1 1 1 1 1 1 1 # , .                                             ",
"                                              - = 1 1 1 1 1 1 # 1 1 1 1 1 1 1 # 1 1 J.W H H ,.6 6 w w 7 d 8 fX6X3XQ.A.Q.=.=.7.i.i.i.9.9.@.@.@.8.8. .5X .R R R -.-.0.0.0.q.o.2.o.2.2.2.1.1.1.1.1.[ [ [ [ [ [ X.X.X.X.Y Y Y Y Y Y Y } } } } } } } ! ! ! ! ! ! ! ! ! ! ! ! ! ! ! ! ! } ! } } } } Y } Y Y Y Y Y X.Y X.X.X.[ X.[ [ [ [ 1.[ 1.1.2.2.2.2.q.q.q.0.0.d.-.R R R  . . .8.8.8.@.@.9.9.i.i.i.7.=.=.Q Q.A.A.3X6XfX8 d 7 7 w * 6 ,.,.H W J.1 # 1 1 1 1 1 1 1 # 1 1 1 1 1 1 1 = -                                               ",
"                                              % < O # # # # # # # # # # # # # # # # # J.W H ,.,.6 * * * 7 d <.gX6X3XA.Q.Q.=.7.7.i.i.9.9.9.@.@.8.8.5X . .R R R -.-.-.0.0.o.q.q.2.2.2.2.1.1.1.1.1.[ 1.[ [ X.[ X.X.X.X.X.Y Y Y Y Y Y Y } } } } } ! } } ! ! ! ! ! ! ! ! ! ! ! } ! } } } } } } } Y } Y Y Y Y Y X.Y X.X.X.[ X.[ [ [ 1.1.1.1.1.2.1.2.2.q.q.q.0.0.0.-.-.R R R  . .8.8.8.@.@.9.9.9.i.i.7.7.=.Q Q.A.A.3X6XgX<.8 d 7 * * * ,.,.H W J.# # # # # # # # # # # # # # # # # O < %                                               ",
"                                                + & O 1 1 1 1 # 1 1 1 1 1 1 1 # 1 1 1 1 h.c H ,.,.6 w w 7 7 d 4.;X1X.XA.Q.Q.=.7.7.i.i.9.9.@.@.@.8.8. . . .R R R -.-.-.0.0.o.q.o.2.2.2.2.2.1.1.1.1.[ [ [ [ [ [ [ X.X.X.X.X.Y Y Y Y } Y Y } } } } } } } } ] r.f.C.C.C.C.C.C.m.f.N.] } } } } Y } Y Y Y Y Y Y X.X.X.X.X.[ [ [ [ 1.[ [ 1.1.1.2.2.2.q.q.q.0.0.0.-.d.d.R R  . . .8.8.@.@.U.9.9.i.i.7.g.=.=.Q.A.A..X6X;X4.d d 7 w w 6 ,.,.H c h.1 1 1 # 1 1 1 1 1 1 1 # 1 1 1 1 1 O & +                                                 ",
"                                                  - , 1 1 1 1 # 1 1 1 1 1 1 1 # 1 1 1 1 1 h.c ,.,.,.6 w w 7 7 8 9XiX1XtXQ.Q.Q =.7.7.i.i.9.9.@.@.@.8.8. . . .R R R -.-.0.0.0.q.q.q.2.2.2.1.2.1.1.1.1.[ [ [ [ X.X.X.X.X.Y X.Y Y Y Y Y Y } Y } } } } r.G.n.Q A.mXmXmXmXmXmXmXmXmXQ.=.).6.Y Y Y Y Y Y Y Y X.X.X.X.X.[ X.[ [ [ [ 1.1.1.1.2.2.2.2.q.q.q.0.0.0.d.d.R R R  . . .8.8.@.U.@.9.9.i.i.g.7.7.=.Q.Q.A.tX6XiX9X8 d 7 7 w 6 6 ,.,.S h.1 1 1 1 # 1 1 1 1 1 1 1 # 1 1 1 1 1 , -                                                   ",
"                                                  % < > 1 1 1 # 1 1 1 1 1 1 1 # 1 1 1 1 1 1 h.S H ,.,.6 w w 7 d d 9X6X:XtXA.Q.Q 7.7.7.i.i.9.9.@.@.@.8.8. . . .R R R d.-.0.0.0.q.q.q.2.2.2.2.1.1.1.1.1.1.[ [ [ [ [ X.X.X.X.X.X.Y Y Y Y Y Y Y Y 6.g.A.mXKXmXmXmXLXLXLXLXLXmXmXmXKXKXKXeXtXv.Y Y Y Y Y X.Y X.X.X.X.[ [ [ [ 1.[ 1.1.1.2.1.2.2.2.q.q.0.0.0.d.d.R R R  . . .8.8.8.@.U.9.9.i.n.i.7.g.=.Q.Q.A.tX:X6X9X8 d d 7 w 6 6 ,.,.S h.1 1 1 1 1 # 1 1 1 1 1 1 1 # 1 1 1 1 > < %                                                   ",
"                                                    . @ = 1 1 # 1 1 1 1 1 1 1 # 1 1 1 1 1 1 1 h.S ,.,.,.6 w 7 7 d 8 2X6X:XtXQ.Q.Q 7.7.i.i.9.9.9.@.@.8.8.8. . . .R R -.d.-.0.0.0.q.q.q.2.2.2.2.2.1.1.1.[ 1.[ [ [ [ [ X.X.X.X.X.X.Y Y Y Y Y N..XeXKXKXKXmXmXLXLXLXLXLXLXLXLXLXmXmXKXKXKXHXHX*Xr.Y X.X.X.X.X.X.X.[ [ [ [ [ k.1.k.1.V.2.V.2.q.q.q.q.0.0.d.d.-.R R  . . .F.8.8.U.@.9.9.n.i.i.g.7.=.Q Q.A.tX:X6X2X8 d d 7 w w 6 ,.,.G h.1 1 1 1 1 1 # 1 1 1 1 1 1 1 # 1 1 1 = @ .                                                     ",
"                                                      . : # 1 # 1 1 1 1 1 1 1 # 1 1 1 1 1 1 1 # h.S H ,.6 w w 7 d d <.2X6X:XtXQ.Q.Q.7.7.i.i.9.9.9.@.@.8.8.8. . . .R R R -.d.0.0.0.q.q.q.q.2.2.2.V.1.1.1.k.1.[ k.[ [ [ [ X.X.X.] X.X.Y X.v.eXHXHXKXKXmXmXLXQ.3. .f.] N.N.r.F.U.A.mXKXKXHXDXDXHX'.X.X.X.X.X.[ X.k.[ k.k.k.1.1.1.2.2.V.2.q.V.q.q.d.0.d.d.R C.R C. . . .8.8.@.U.U.9.9.i.n.7.g.=.Q.Q.A.tX:X6X2X<.d d 7 7 w 6 ,.,.S h.1 1 1 1 1 1 1 # 1 1 1 1 1 1 1 # 1 1 1 : .                                                       ",
"                                                        + X 1 # 1 1 1 1 1 1 1 # 1 1 1 1 1 1 1 # 1 J.W H ,.6 w * 7 7 d <.gX6X:XtXQ.Q.Q =.7.i.i.n.9.U.@.@.8.8.8. . . .R R d.d.d.d.0.0.0.q.q.V.2.V.2.2.V.1.k.k.k.k.[ k.] [ ] [ ] X.] X.N.+XDXDXHXKXKXA.g.[.S.ZXZXZXZXZXZXZXZXZXZXZXZX[.+XeXHXDXDXDXOXk.X.] k.[ k.k.k.k.1.k.k.V.V.V.V.2.q.f.q.d.0.d.d.d.d.R R  . . .F.F.8.U.U.U.9.n.n.i.g.7.=.Q.Q.Q.tX:X6XgX<.8 d 7 w w w 6 ,.W J.# 1 1 1 1 1 1 1 # 1 1 1 1 1 1 1 # 1 1 X +                                                         ",
"                                                          $ X # 1 1 1 1 1 1 1 # 1 1 1 1 1 1 1 # 1 1 J.L.H ,.6 * w 7 7 d <.gX6X:X.XQ.Q.Q.=.7.i.i.9.9.9.U.@.8.F.8. . . . .R R -.d.d.d.0.0.q.q.q.q.V.V.V.V.k.1.k.1.k.k.k.k.[ k.] [ ] r..XDXDXDXHX*Xy.~.ZXZXZXZXS.ZXS.S.S.ZXS.S.S.ZXS.ZXZX}.y.eXDXDXDX'.k.k.[ k.k.k.k.k.k.1.V.2.V.q.V.f.q.f.0.d.d.d.d.C.R C. .G. .F.8.F.@.U.U.9.n.n.i.g.g.=.Q.Q.Q.tX6X6XgX4.d d 7 7 w w 6 ,.L.J.1 # 1 1 1 1 1 1 1 # 1 1 1 1 1 1 1 # 1 X $                                                           ",
"                                                          % < > # # # # # # # # # # # # # # # # # # # J.L.,.6 * * * 7 d d 4.gX6X1X.XQ.Q.Q.=.7.i.n.n.9.U.U.@.@.F.8.F. . .C.R C.R d.d.d.f.d.0.f.q.V.q.V.2.V.V.V.k.k.k.k.k.k.k.k.] V..XDXDXDX_.y.}.ZXZXS.~.{.{.^.] ] ] ] ] ] ] ] ^.^.{.{ S.S.qXb.0XDXHXm.k.k.k.k.k.V.V.V.V.V.V.V.q.f.q.f.d.f.d.d.d.C.C. . . . .F.F.F.U.U.U.9.n.n.i.g.g.Q Q.Q.Q.<X6X6XgX4.d d 7 7 * * 6 ,.L.J.# # # # # # # # # # # # # # # # # # # > < %                                                           ",
"                                                            . o = 1 1 1 1 1 1 # 1 1 1 1 1 1 1 # 1 1 1 1 ' `.,.6 6 w w 7 7 d 3 2X6X1X+XQ.Q.Q.Q 7.i.n.n.9.U.U.U.@.8.8.F. . . .C.R d.d.d.d.d.f.0.f.f.f.q.V.V.V.V.V.V.k.V.k.k.k.k.k.OXHXDXDX#XqXZXS.{ ^.^.] ] ] ] ] ] ] ] ] ] ] ] ] ] ] N.] ^.{.~.qX-XDX*Xk.k.V.k.V.V.V.V.V.f.q.f.f.f.f.d.d.d.d.C.R C. . .G.F.F.F.U.@.U.U.U.n.i.n.g.=.Q Q.Q.tX<X1X6X2X3 d d 7 7 w * 6 ,.`.' 1 1 1 # 1 1 1 1 1 1 1 # 1 1 1 1 1 1 1 = o .                                                             ",
"                                                              + @ = 1 1 1 1 1 # 1 1 1 1 1 1 1 # 1 1 1 1 1 ' W.G 6 6 w w 7 d d 8 2X6X1X:XtXQ.Q.Q =.g.n.n.9.U.U.U.U.F.8.F. . . .G.R C.R d.d.d.d.f.0.f.f.f.q.V.V.V.V.V.V.r.V.r.r.6.eXDXHXb.S.S.^.] ] N.k.N.N.k.N.N.N.N.N.N.N.N.k.N.k.N.k.N.N.] ] {.qX-XHXG.V.V.V.V.V.V.f.V.f.f.f.d.d.d.d.C.C.C.C. .G. .G.F.F.F.@.U.U.U.9.n.n.n.g.=.Q Q.Q.tX:X1X6X2X8 d d 7 7 w w 6 H W.' 1 1 1 1 # 1 1 1 1 1 1 1 # 1 1 1 1 1 1 = @ +                                                               ",
"                                                                . : O 1 1 1 1 # 1 1 1 1 1 1 1 # 1 1 1 1 1 1 ' h.c ,.6 w w 7 7 d 8 R.iX1X:X.XQ.Q.Q.Q 7.n.n.n.9.U.U.U.U.F.F.F.G. .G. .C.C.d.C.d.d.f.d.f.f.f.f.f.f.V.f.V.V.V.V.V.'.DXHX5.S.^.N.r.r.r.r.N.r.N.r.N.r.N.N.r.N.r.r.N.r.r.r.r.r.V.r.r.r.N.^.#X+XV.V.r.f.f.f.f.f.f.f.d.f.d.C.C.C.C.C. .G.G.F.F.F.F.F.U.U.U.n.n.n.g.g.Q Q.Q.Q..X:X1XiXR.3 d d 7 7 w w 6 S h.1 1 1 1 1 1 # 1 1 1 1 1 1 1 # 1 1 1 1 1 O : +                                                                 ",
"                                                                  + : # 1 1 1 # 1 1 1 1 1 1 1 # 1 1 1 1 1 1 1 # J.L.,.6 w w 7 7 d 8 ~ ;X6X&X+XQ Q.Q.Q =.g.n.n.n.U.U.U.F.U.F.F. .G. .G. .C.C.C.C.d.d.d.f.d.f.f.f.f.f.f.6.f.r.6._.HX5.{ N.r.r.r.r.r.r.r.r.r.r.r.r.r.r.r.r.r.r.r.r.r.r.r.r.r.r.f.r.f.r.N.6.f.f.f.f.f.f.f.C.f.C.C.C.C.C.C.C. .G.G.F.F.F.F.U.U.U.U.n.n.n.n.g.=.Q.Q.Q.tX3X&X6X;X~ 8 d d 7 7 w 6 ,.L.J.1 1 1 1 1 1 1 # 1 1 1 1 1 1 1 # 1 1 1 1 # : +                                                                   ",
"                                                                    + : O 1 1 # 1 1 1 1 1 1 1 # 1 1 1 1 1 1 1 # 1 1 `.G 6 w w 7 7 d 8 <.2XiX1X:X+XQ Q.Q.Q =.g.n.n.n.U.U.F.U.F.F.F.F. .G.G. .G.C.C.C.C.C.C.C.C.C.f.6.f.f.6.f.m.eX!.^.r.6.6.6.6.6.6.6.6.6.6.e.6.6.6.6.6.r.6.6.6.6.r.6.6.6.f.6.6.f.6.6.6.6.f.6.f.m.6.C.m.C.C.C.C.C.C.G.G.G.G.F.F.F.F.F.U.U.U.U.n.n.n.g.=.Q Q.Q.tX.X:X1XiX2X<.8 d 7 7 w w 6 G `.1 # 1 1 1 1 1 1 1 # 1 1 1 1 1 1 1 # 1 1 1 O : +                                                                     ",
"                                                                      ; & O 1 # 1 1 1 1 1 1 1 # 1 1 1 1 1 1 1 # 1 1 1 W.W 6 w * 7 7 d 8 8 R.;X6X1X:X.XQ.Q.Q Q =.g.n.n.n.U.U.U.).F.F.F.F.G.G.G.G.G.G.C.C.m.C.m.m.C.m.C.m.m.m.m.*Xe.6.m.6.6.m.6.6.6.6.6.6.6.6.6.6.6.6.6.5.6.6.6.6.m.6.6.6.6.6.6.6.m.f.m.6.m.m.C.m.C.m.C.C.C.G.G.G.G.G.F.F.F.F.).).).U.).n.n.n.n.g.=.Q Q.Q.Q..X:X1X6X;XR.8 8 d d 7 w w 6 W W.1 1 # 1 1 1 1 1 1 1 # 1 1 1 1 1 1 1 # 1 1 O & ;                                                                       ",
"                                                                        ; & O # 1 1 1 1 1 1 1 # 1 1 1 1 1 1 1 # 1 1 1 1 J.`.H * w 7 7 d 8 8 j.2XiX1X1X:X.XQ.Q.Q Q =.g.n.n.OXU.U.).).).).F.F.F.F.G.G.G.G.G.G.C.G.C.m.m.m.C.m.m.y.6.m.m.m.m.m.m.v.m.m.m.5.m.v.m.5.5.m.5.m.m.m.m.5.m.m.m.m.m.m.m.m.m.m.m.m.C.m.m.G.m.G.G.v.G.G.G.G.'.F.'.F.).).).).U.OXn.n.n.g.=.Q Q.Q.Q..X:X1X1XiX2Xj.8 8 d 7 7 * w ,.`.J.1 1 1 # 1 1 1 1 1 1 1 # 1 1 1 1 1 1 1 # 1 O & ;                                                                         ",
"                                                                        % ; : O # # # # # # # # # # # # # # # # # # # # # ' h.G * * * 7 d d 8 3 P gX6X&X1X:X.XQ.Q.Q Q =.7.n.n.OXU.).).).).).'.F.'.F.'.G.G.v.G.v.G.v.G.v.v.v.v.m.v.v.v.v.v.v.v.m.v.v.v.v.v.5.v.v.v.v.v.v.y.v.v.v.v.v.v.v.v.v.v.v.G.v.v.G.v.v.G.v.G.v.G.G.'.'.'.F.'.).).).).).OXOXOXn.g.=.Q Q Q.Q.c..X:X1X&X6X2X#.3 8 8 d 7 7 * * G h.' # # # # # # # # # # # # # # # # # # # # # O : ;                                                                           ",
"                                                                            + : O 1 1 1 1 1 1 # 1 1 1 1 1 1 1 # 1 1 1 1 1 1 1 # L.,.w w 7 7 d 8 8 3 j.gX6X&X&X:X.XQ Q Q.Q Q =.g.n.n.OXOX).).).).).F.'.'.'.'.'.G.'.G.v.G.v.G.v.'.v.v.v.v.v.v.v.y.v.v.y.v.y.'.y.v.y.v.y.v.v.y.v.v.v.v.v.v.v.v.v.v.v.v.v.v.G.v.'.v.'.'.'.'.'.).'.).).).).OXOXOXn.n.g.=.Q Q Q.Q tX.X:X&X&X6XgXj.3 8 8 8 d 7 7 w ,.L.1 1 1 1 1 1 1 # 1 1 1 1 1 1 1 # 1 1 1 1 1 1 1 O : +                                                                             ",
"                                                                              + : O 1 1 1 1 1 # 1 1 1 1 1 1 1 # 1 1 1 1 1 1 1 # 1 h.W ,.w 7 7 d d 8 3 3 ~ gXiX&X&X1X+X.XQ Q Q Q Q =.g.g.n.n.OXOX).).).).).'.'.'.'.'.'.'.'.'.'.'.'.'.'.'.'.OX'.OXOXOXOXOXOXOXOXn.OXOXOXOXOXOXOXOX'.'.'.'.'.'.'.'.'.'.'.'.'.'.'.'.'.'.'.).).).).OXOXOXn.n.g.g.=.Q Q Q Q tX.X+X1X&X&XiXgX~ 3 3 8 8 d 7 7 7 ,.W h.# 1 1 1 1 1 1 1 # 1 1 1 1 1 1 1 # 1 1 1 1 1 1 O : +                                                                               ",
"                                                                                . @ = 1 1 1 1 # 1 1 1 1 1 1 1 # 1 1 1 1 1 1 1 # 1 1 ' W.c 6 7 7 7 d 8 8 3 2 | 2X7X6X&X1X:X+X.X.XQ Q Q Q =.=.g.g.n.n.OXOXOX).).).).).'.'.).OXOXOXn.n.n.g.g.g.g.g.g.g.g.g.g.g.g.g.g.g.g.g.g.g.g.g.g.g.g.g.g.g.n.n.OXOXOXOX'.'.'.'.).OX).OXOXOXOXn.g.g.=.=.Q Q Q Q .X.X+X:X1X&X6X7X2X| 3 3 8 8 d d 7 7 w c W.' 1 # 1 1 1 1 1 1 1 # 1 1 1 1 1 1 1 # 1 1 1 1 1 = @ .                                                                                 ",
"                                                                                  . o > 1 1 1 # 1 1 1 1 1 1 1 # 1 1 1 1 1 1 1 # 1 1 1 1 J.`.G * 7 7 d d 8 3 3 2 j.2X&.iX&X&X1X:X:X+X.XQ Q Q =.=.=.g.g.g.n.n.n.OXOXOXOXn.g.g.g.g.g.g.=.g.g.g..Xg..X+X+X+X+X+X+X+X+X+X+X+X+X+X+Xg..Xg.g.g.g.g.g.g.g.g.g.n.n.OXOXOXOXn.n.g.g.g.=.=.Q Q Q Q Q .X+X:X:X1X&X&XiX&.2Xj.3 3 3 8 8 d 7 7 7 G `.J.1 1 1 # 1 1 1 1 1 1 1 # 1 1 1 1 1 1 1 # 1 1 1 1 > o .                                                                                   ",
"                                                                                    . < X 1 1 # 1 1 1 1 1 1 1 # 1 1 1 1 1 1 1 # 1 1 1 1 1 1 J.`.,.7 7 7 d d 8 3 3 3 j.K 2X&.iX&X&X1X1X:X:X+X.XQ Q Q Q =.Q =.=.=.g.g.g.=.g.=..X=.+X+X+X:X:X:X1X1X1X1X1X1X1X1X1X1X1X1X1X1X1X1X1X1X1X1X:X:X:X+X+X+X.X=.=.=..Xg.g.g.=..X=.=.Q Q Q Q Q .X+X:X:X1X1X&X&XiX&.^ K j.2 3 3 8 8 d d 7 7 ,.`.J.1 1 1 1 1 # 1 1 1 1 1 1 1 # 1 1 1 1 1 1 1 # 1 1 1 X < .                                                                                     ",
"                                                                                      % $ X # # 1 1 1 1 1 1 1 # 1 1 1 1 1 1 1 # 1 1 1 1 1 1 1 # J.L.6 7 7 7 d d 8 3 3 3 2 4 R..._ rX&X&X&X1X1X1X:X+X+X.XQ Q .XQ Q .XQ .X.X+X:X1X1X&X&X&X&X&X&X&X&X&X&XpX&X&XpX&X&XpX&X&XpX&X&X&X&X&X&X&X&X&X&X1X1X:X+X.XQ Q .XQ Q Q Q tX.X+X:X:X1X1X1X&X&X&XrX_ ..R.4 2 3 3 3 8 8 d d 7 7 6 L.J.1 1 1 1 1 1 1 # 1 1 1 1 1 1 1 # 1 1 1 1 1 1 1 # 1 # X $ %                                                                                       ",
"                                                                                          ; : O 1 1 1 1 1 1 1 # 1 1 1 1 1 1 1 # 1 1 1 1 1 1 1 # 1 1 J.L.,.w 7 7 d d 8 3 3 3 2 2 4 9 ` *.&.rXaX&X&X&X&X&X&X1X:X:X+X+X.X:X&X&X&X&X&XaXrX7X7X&.Z n Z p.p.p.p.p.p.p.p.p.p.p.p.p.x n Z n &.7X7XrXaXpX&X&X&X&X:X.X+X+X:X:X1X&X&X&X&X&X&XaXrX&.s ` 9 4 2 2 3 3 3 8 8 d d 7 w ,.L.J.1 # 1 1 1 1 1 1 1 # 1 1 1 1 1 1 1 # 1 1 1 1 1 1 1 # O : +                                                                                           ",
"                                                                                            . @ > # # # # # # # # # # # # # # # # # # # # # # # # # # # J.`.S * 7 d d d 8 3 3 3 2 2 2 4 j.4 ` s _ 7XrXrXaXaX&X&X&X&X&X&XaXrX&.p.l v C ) C l *.l *.l *.*.*.*.*.*.*.*.*.*.*.*.l l *.l ) C ) ) C l 0 &.rXaX&X&X&X&X&X&XaXaXrXrX;X_ s ` 4 j.4 4 2 2 3 3 3 8 8 d d 7 * S `.J.# # # # # # # # # # # # # # # # # # # # # # # # # # # > @ .                                                                                             ",
"                                                                                              . < , O 1 1 1 1 # 1 1 1 1 1 1 1 # 1 1 1 1 1 1 1 # 1 1 1 1 1 1 J.W.L.,.7 d d 8 8 3 3 3 2 2 2 2 4 4 4 j.9 e *.Z &.&.7X7XrX7Xp.e e v v v v v v v l v l l v l l v l l l l v l v l l l l l M v v v v v v K u p.7XrX7X7X&.&.^ *.u 9 9 9 4 4 2 2 2 2 3 3 3 8 8 d d 7 ,.L.W.J.1 1 1 1 1 # 1 1 1 1 1 1 1 # 1 1 1 1 1 1 1 # 1 1 1 1 1 O , < .                                                                                               ",
"                                                                                                % - & O 1 1 1 # 1 1 1 1 1 1 1 # 1 1 1 1 1 1 1 # 1 1 1 1 1 1 1 # ' h.`.G 7 d d d 8 8 3 3 2 2 2 4 4 4 4 9 9 9 | ` ` u v u ` u u u u u e e e v v v v v v v v v v v v v v v v v v v v v v e e e e u u u u ` e v u ` ` 9 9 9 4 4 4 4 2 2 2 2 2 3 3 8 8 d d 7 G `.h.' 1 1 1 1 1 1 1 # 1 1 1 1 1 1 1 # 1 1 1 1 1 1 1 # 1 1 1 1 O & - %                                                                                                 ",
"                                                                                                  % + o = 1 1 # 1 1 1 1 1 1 1 # 1 1 1 1 1 1 1 # 1 1 1 1 1 1 1 # 1 1 ' J.h.L.w d d d 8 8 3 3 3 2 2 2 2 4 4 4 9 9 9 9 9 ` ` ` ` u u u u u u u u u u u u v u v u v u v u v u v u e u u u u u u u u ` ` ` ` ` 9 9 9 9 9 4 4 4 4 2 2 2 3 3 3 3 8 8 d d w L.h.J.' 1 # 1 1 1 1 1 1 1 # 1 1 1 1 1 1 1 # 1 1 1 1 1 1 1 # 1 1 1 = o +                                                                                                     ",
"                                                                                                      % - X 1 # 1 1 1 1 1 1 1 # 1 1 1 1 1 1 1 # 1 1 1 1 1 1 1 # 1 1 1 1 1 ' ' W.G 7 d d 8 8 8 3 3 3 2 2 2 4 4 4 4 9 9 9 9 9 ` ` ` ` ` ` ` ` ` u u u u u u u u u u u u u u u u u u u ` ` ` ` ` ` ` ` 9 9 9 9 9 4 4 4 4 2 2 2 2 3 3 3 8 8 8 d 7 G W.' ' 1 1 1 1 # 1 1 1 1 1 1 1 # 1 1 1 1 1 1 1 # 1 1 1 1 1 1 1 # 1 1 X - %                                                                                                       ",
"                                                                                                          . @ > # 1 1 1 1 1 1 # 1 1 1 1 1 1 1 # 1 1 1 1 1 1 1 # 1 1 1 1 1 1 1 # 1 ' `.c ,.w d 8 8 8 3 3 3 2 2 2 2 2 4 4 4 4 4 9 9 9 9 9 9 9 ` ` ` ` ` ` ` ` ` ` ` ` ` ` ` ` ` ` ` ` 9 9 9 9 9 9 9 4 4 4 4 4 2 2 2 2 2 3 3 3 8 8 8 d w ,.c `.' # 1 1 1 1 1 1 1 # 1 1 1 1 1 1 1 # 1 1 1 1 1 1 1 # 1 1 1 1 1 1 1 # > @ .                                                                                                           ",
"                                                                                                            % $ : = # 1 1 1 1 # 1 1 1 1 1 1 1 # 1 1 1 1 1 1 1 # 1 1 1 1 1 1 1 # 1 1 1 1 ' W.L.c H w d 8 8 3 3 3 3 2 2 2 2 2 4 4 4 4 4 4 4 9 9 9 9 9 9 9 9 9 9 9 9 9 9 9 9 9 9 9 9 9 9 9 4 4 4 4 4 4 4 2 2 2 2 2 3 3 3 3 8 d w ,.c L.W.' 1 1 1 # 1 1 1 1 1 1 1 # 1 1 1 1 1 1 1 # 1 1 1 1 1 1 1 # 1 1 1 1 1 # = : $ %                                                                                                             ",
"                                                                                                                + o , 1 1 1 1 # 1 1 1 1 1 1 1 # 1 1 1 1 1 1 1 # 1 1 1 1 1 1 1 # 1 1 1 1 1 1 1 # h.W.`.c G 7 8 8 3 3 3 3 2 2 2 2 2 2 2 2 4 4 4 4 4 4 4 4 4 4 4 4 4 4 4 4 4 4 4 4 4 4 4 4 4 2 2 2 2 2 2 2 3 3 3 3 8 8 7 @Xc `.W.h.' 1 1 1 1 1 1 # 1 1 1 1 1 1 1 # 1 1 1 1 1 1 1 # 1 1 1 1 1 1 1 # 1 1 1 1 1 , o +                                                                                                                 ",
"                                                                                                                  % - @ > # # # # # # # # # # # # # # # # # # # # # # # # # # # # # # # # # # # # # # dXh.h.W.L.G ,.7 8 3 3 3 3 3 2 2 2 2 2 2 2 2 2 2 2 2 2 2 2 2 2 2 2 2 2 2 2 2 2 2 2 2 2 2 3 3 3 3 3 8 7 ,.G L.W.h.h.J.# # # # # # # # # # # # # # # # # # # # # # # # # # # # # # # # # # # # # # > @ - %                                                                                                                   ",
"                                                                                                                    % . $ : O # 1 1 1 1 1 1 1 # 1 1 1 1 1 1 1 # 1 1 1 1 1 1 1 # 1 1 1 1 1 1 1 # 1 1 1 1 1 1 # # J.J.J.h.`.L.G ,.7 8 3 3 3 3 3 3 3 3 2 2 2 2 2 2 2 2 2 2 2 2 3 3 3 3 3 3 3 3 8 7 ,.G L.`.h.J.J.J.' 1 1 1 1 1 1 # 1 1 1 1 1 1 1 # 1 1 1 1 1 1 1 # 1 1 1 1 1 1 1 # 1 1 1 1 1 1 1 # 1 O : $ .                                                                                                                       ",
"                                                                                                                          . < X # # 1 1 1 1 1 # 1 1 1 1 1 1 1 # 1 1 1 1 1 1 1 # 1 1 1 1 1 1 1 # 1 1 1 1 1 1 1 # 1 1 1 1 1 ' ' ' ' ' J.W.`.L.c c G ,.w w w w w * w w w w w w ,.G c c L.`.W.J.' ' ' ' ' 1 1 1 1 # 1 1 1 1 1 1 1 # 1 1 1 1 1 1 1 # 1 1 1 1 1 1 1 # 1 1 1 1 1 1 1 # 1 1 1 1 1 1 # # X < .                                                                                                                           ",
"                                                                                                                              % o X = # 1 1 1 # 1 1 1 1 1 1 1 # 1 1 1 1 1 1 1 # 1 1 1 1 1 1 1 # 1 1 1 1 1 1 1 # 1 1 1 1 1 1 1 # 1 1 1 1 1 1 1 # 1 1 1 1 1 1 1 # 1 1 1 1 1 1 1 # 1 1 1 1 1 1 1 # 1 1 1 1 1 1 1 # 1 1 1 1 1 1 1 # 1 1 1 1 1 1 1 # 1 1 1 1 1 1 1 # 1 1 1 1 1 1 1 # 1 1 1 1 # = X o %                                                                                                                               ",
"                                                                                                                                  + o , = # 1 # 1 1 1 1 1 1 1 # 1 1 1 1 1 1 1 # 1 1 1 1 1 1 1 # 1 1 1 1 1 1 1 # 1 1 1 1 1 1 1 # 1 1 1 1 1 1 1 # 1 1 1 1 1 1 1 # 1 1 1 1 1 1 1 # 1 1 1 1 1 1 1 # 1 1 1 1 1 1 1 # 1 1 1 1 1 1 1 # 1 1 1 1 1 1 1 # 1 1 1 1 1 1 1 # 1 1 1 1 1 1 1 # 1 1 # = , o +                                                                                                                                   ",
"                                                                                                                                      ; o : O # 1 1 1 1 1 1 1 # 1 1 1 1 1 1 1 # 1 1 1 1 1 1 1 # 1 1 1 1 1 1 1 # 1 1 1 1 1 1 1 # 1 1 1 1 1 1 1 # 1 1 1 1 1 1 1 # 1 1 1 1 1 1 1 # 1 1 1 1 1 1 1 # 1 1 1 1 1 1 1 # 1 1 1 1 1 1 1 # 1 1 1 1 1 1 1 # 1 1 1 1 1 1 1 # 1 1 1 1 1 1 1 # 1 O : o ;                                                                                                                                       ",
"                                                                                                                                          ; < : = 1 1 1 1 1 1 # 1 1 1 1 1 1 1 # 1 1 1 1 1 1 1 # 1 1 1 1 1 1 1 # 1 1 1 1 1 1 1 # 1 1 1 1 1 1 1 # 1 1 1 1 1 1 1 # 1 1 1 1 1 1 1 # 1 1 1 1 1 1 1 # 1 1 1 1 1 1 1 # 1 1 1 1 1 1 1 # 1 1 1 1 1 1 1 # 1 1 1 1 1 1 1 # 1 1 1 1 1 1 1 = : < ;                                                                                                                                           ",
"                                                                                                                                              + $ & = 1 1 1 1 # 1 1 1 1 1 1 1 # 1 1 1 1 1 1 1 # 1 1 1 1 1 1 1 # 1 1 1 1 1 1 1 # 1 1 1 1 1 1 1 # 1 1 1 1 1 1 1 # 1 1 1 1 1 1 1 # 1 1 1 1 1 1 1 # 1 1 1 1 1 1 1 # 1 1 1 1 1 1 1 # 1 1 1 1 1 1 1 # 1 1 1 1 1 1 1 # 1 1 1 1 1 = & $ +                                                                                                                                               ",
"                                                                                                                                                  % ; o > O # # # # # # # # # # # # # # # # # # # # # # # # # # # # # # # # # # # # # # # # # # # # # # # # # # # # # # # # # # # # # # # # # # # # # # # # # # # # # # # # # # # # # # # # # # # # # # # # # # # # O > o ; %                                                                                                                                                   ",
"                                                                                                                                                        % $ : X = # 1 1 1 1 1 # 1 1 1 1 1 1 1 # 1 1 1 1 1 1 1 # 1 1 1 1 1 1 1 # 1 1 1 1 1 1 1 # 1 1 1 1 1 1 1 # 1 1 1 1 1 1 1 # 1 1 1 1 1 1 1 # 1 1 1 1 1 1 1 # 1 1 1 1 1 1 1 # 1 1 1 1 1 1 1 # 1 1 1 1 1 1 # = X & $ %                                                                                                                                                         ",
"                                                                                                                                                            % ; o : X O 1 1 1 # 1 1 1 1 1 1 1 # 1 1 1 1 1 1 1 # 1 1 1 1 1 1 1 # 1 1 1 1 1 1 1 # 1 1 1 1 1 1 1 # 1 1 1 1 1 1 1 # 1 1 1 1 1 1 1 # 1 1 1 1 1 1 1 # 1 1 1 1 1 1 1 # 1 1 1 1 1 1 1 # 1 1 1 1 O X : o ; %                                                                                                                                                             ",
"                                                                                                                                                                  . $ o & X O # 1 1 1 1 1 1 1 # 1 1 1 1 1 1 1 # 1 1 1 1 1 1 1 # 1 1 1 1 1 1 1 # 1 1 1 1 1 1 1 # 1 1 1 1 1 1 1 # 1 1 1 1 1 1 1 # 1 1 1 1 1 1 1 # 1 1 1 1 1 1 1 # 1 1 1 1 1 1 1 # 1 O X & o $ .                                                                                                                                                                   ",
"                                                                                                                                                                      % + - < & X 1 1 1 1 1 1 # 1 1 1 1 1 1 1 # 1 1 1 1 1 1 1 # 1 1 1 1 1 1 1 # 1 1 1 1 1 1 1 # 1 1 1 1 1 1 1 # 1 1 1 1 1 1 1 # 1 1 1 1 1 1 1 # 1 1 1 1 1 1 1 # 1 1 1 1 1 1 1 X & < - + %                                                                                                                                                                       ",
"                                                                                                                                                                            % . ; $ @ , O 1 1 # 1 1 1 1 1 1 1 # 1 1 1 1 1 1 1 # 1 1 1 1 1 1 1 # 1 1 1 1 1 1 1 # 1 1 1 1 1 1 1 # 1 1 1 1 1 1 1 # 1 1 1 1 1 1 1 # 1 1 1 1 1 1 1 # 1 1 1 O , @ $ ; . %                                                                                                                                                                             ",
"                                                                                                                                                                                    % . + $ @ X = = O # 1 1 1 # 1 1 1 1 1 1 1 # 1 1 1 1 1 1 1 # 1 1 1 1 1 1 1 # 1 1 1 1 1 1 1 # 1 1 1 1 1 1 1 # 1 1 1 1 1 1 1 # 1 1 1 1 # O = = X @ $ + . %                                                                                                                                                                                     ",
"                                                                                                                                                                                                + $ o : , X > = # 1 1 1 1 1 1 # 1 1 1 1 1 1 1 # 1 1 1 1 1 1 1 # 1 1 1 1 1 1 1 # 1 1 1 1 1 1 1 # 1 1 1 1 1 1 1 # = > X , : o $ +                                                                                                                                                                                                 ",
"                                                                                                                                                                                                        . - $ < @ & : , X > # # # # # # # # # # # # # # # # # # # # # # # # # # # # # # # # # # # # > X , : & @ < $ - .                                                                                                                                                                                                         ",
"                                                                                                                                                                                                              %   . + - $ $ o o @ & : : , X X > O 1 1 1 1 1 1 # 1 1 1 1 1 1 1 O > X X , : : & @ o o $ $ - + .                                                                                                                                                                                                                   ",
"                                                                                                                                                                                                                                . . + ; - - - - $ $ $ $ $ $ $ $ $ $ $ $ $ $ $ $ - - - - ; + . .                                                                                                                                                                                                                                 ",
"                                                                                                                                                                                                                                                                                                                                                                                                                                                                                                                                ",
"                                                                                                                                                                                                                                                                                                                                                                                                                                                                                                                                ",
"                                                                                                                                                                                                                                                                                                                                                                                                                                                                                                                                ",
"                                                                                                                                                                                                                                                                                                                                                                                                                                                                                                                                ",
"                                                                                                                                                                                                                                                                                                                                                                                                                                                                                                                                ",
"                                                                                                                                                                                                                                                                                                                                                                                                                                                                                                                                ",
"                                                                                                                                                                                                                                                                                                                                                                                                                                                                                                                                ",
"                                                                                                                                                                                                                                                                                                                                                                                                                                                                                                                                ",
"                                                                                                                                                                                                                                                                                                                                                                                                                                                                                                                                ",
"                                                                                                                                                                                                                                                                                                                                                                                                                                                                                                                                ",
"                                                                                                                                                                                                                                                                                                                                                                                                                                                                                                                                ",
"                                                                                                                                                                                                                                                                                                                                                                                                                                                                                                                                ",
"                                                                                                                                                                                                                                                                                                                                                                                                                                                                                                                                "
};
