/* XPM */
static char *player[] = {
/* columns rows colors chars-per-pixel */
"64 64 4 1 ",
"  c black",
". c #FFE4C4",
"X c #8B4513",
"o c #FF0000",
/* pixels */
"                                                                ",
"                                                                ",
"                                                                ",
"                                                                ",
"                           ........                            ",
"                         ............                          ",
"                        ..............                         ",
"                       ................                        ",
"                       ................                        ",
"                       ................                        ",
"                       ................                        ",
"                        ..............                         ",
"                         ............                          ",
"                           ........                            ",
"                             ....                              ",
"                           ........                            ",
"                         ............                          ",
"                        ..............                         ",
"                       ................                        ",
"                      ..................                       ",
"                      ..................                       ",
"                      ..................                       ",
"                      ..................                       ",
"                      ..................                       ",
"                      ..................                       ",
"                      ..................                       ",
"                      ..................                       ",
"                      ..................                       ",
"                      ..................                       ",
"                      ..................                       ",
"                      ..................                       ",
"                      ..................                       ",
"                       ................                        ",
"                        ..............                         ",
"                         ............                          ",
"                           ........                            ",
"                             ....                              ",
"                                                                ",
"                                                                ",
"                                                                ",
"                                                                ",
"                                                                ",
"                                                                ",
"                                                                ",
"                                                                ",
"                                                                ",
"                                                                ",
"                                                                ",
"                                                                ",
"                                                                ",
"                                                                ",
"                                                                ",
"                                                                ",
"                                                                ",
"                                                                ",
"                                                                ",
"                                                                ",
"                                                                ",
"                                                                ",
"                                                                ",
"                                                                ",
"                                                                ",
"                                                                ",
"                                                                "};
