/* XPM */
static char *result[] = {
/* columns rows colors chars-per-pixel */
"64 64 242 2 ",
"   c #49453C",
".  c #4F3E4E",
"X  c #3B4B54",
"o  c #3C5273",
"O  c #464445",
"+  c #4B4547",
"@  c #4C4946",
"#  c #45454B",
"$  c #4B454C",
"%  c #444B4D",
"&  c #4D494B",
"*  c #514B45",
"=  c #51454C",
"-  c #524D4D",
";  c #54514E",
":  c #595449",
">  c #4C4552",
",  c #444B52",
"<  c #4C4B52",
"1  c #494A58",
"2  c #534D52",
"3  c #534957",
"4  c #495155",
"5  c #555354",
"6  c #5A5454",
"7  c #5C5A56",
"8  c #55535A",
"9  c #5B555A",
"0  c #5D5B5B",
"q  c #635B57",
"w  c #6F5F56",
"e  c #625D5C",
"r  c #5C665C",
"t  c #636256",
"y  c #64635D",
"u  c #6A645D",
"i  c #65695C",
"p  c #6A6A5D",
"a  c #756C5B",
"s  c #4C5967",
"d  c #5C5C63",
"f  c #585866",
"g  c #53506B",
"h  c #475778",
"j  c #635E62",
"k  c #665B6B",
"l  c #4D676F",
"z  c #5C6163",
"x  c #596568",
"c  c #576A76",
"v  c #577178",
"b  c #656462",
"n  c #696562",
"m  c #656962",
"M  c #6B6B64",
"N  c #64656A",
"B  c #6D6D6A",
"V  c #736C69",
"C  c #6B7369",
"Z  c #74746B",
"A  c #7C756C",
"S  c #77796C",
"D  c #666873",
"F  c #677576",
"G  c #747472",
"H  c #787776",
"J  c #757972",
"K  c #7B7B73",
"L  c #7C7C79",
"P  c #827759",
"I  c #847D75",
"U  c #827D7C",
"Y  c #728475",
"T  c #7E827A",
"R  c #878677",
"E  c #8A8A72",
"W  c #83837C",
"Q  c #8A8B7E",
"!  c #928B7E",
"~  c #8A927B",
"^  c #375885",
"/  c #385D98",
"(  c #32658F",
")  c #305DB1",
"_  c #3766A9",
"`  c #495A8D",
"'  c #576B87",
"]  c #51718E",
"[  c #537695",
"{  c #6B798A",
"}  c #787883",
"|  c #4771A7",
" . c #4F6FB0",
".. c #1E6DD9",
"X. c #376ECA",
"o. c #296BD6",
"O. c #246DDD",
"+. c #2B6CDC",
"@. c #2674DE",
"#. c #2A75DC",
"$. c #2A7BDB",
"%. c #3672D2",
"&. c #1E6FE1",
"*. c #256DE1",
"=. c #2A6DE2",
"-. c #3A6CE9",
";. c #2573E4",
":. c #2A74E4",
">. c #2C79E5",
",. c #2575E8",
"<. c #2A76E9",
"1. c #2578E8",
"2. c #2C7AEB",
"3. c #3279E6",
"4. c #337EEC",
"5. c #4673CF",
"6. c #817E81",
"7. c #827F90",
"8. c #788687",
"9. c #698590",
"0. c #798699",
"q. c #799798",
"w. c #5887B0",
"e. c #6887A5",
"r. c #758CA9",
"t. c #7B96A6",
"y. c #668AB9",
"u. c #768DB3",
"i. c #7DAAB4",
"p. c #3D83DA",
"a. c #2D83EA",
"s. c #3482EE",
"d. c #3982EB",
"f. c #3583F1",
"g. c #3985F3",
"h. c #3689F1",
"j. c #3B89F3",
"k. c #4E8BCE",
"l. c #5596DA",
"z. c #6C93C7",
"x. c #59A2DA",
"c. c #73A5D1",
"v. c #5097EB",
"b. c #6898EB",
"n. c #6EACEF",
"m. c #76B6ED",
"M. c #79BCFB",
"N. c #868885",
"B. c #8C8D84",
"V. c #8D8D89",
"C. c #928D84",
"Z. c #918E8B",
"A. c #8E9185",
"S. c #8E918A",
"D. c #919285",
"F. c #92938C",
"G. c #97998E",
"H. c #888C97",
"J. c #918A90",
"K. c #869699",
"L. c #949691",
"P. c #969A92",
"I. c #9A9C95",
"U. c #959B9B",
"Y. c #9D9E99",
"T. c #A19D9A",
"R. c #8BA293",
"E. c #9DA29B",
"W. c #99A49A",
"Q. c #A5A894",
"!. c #A2A59D",
"~. c #A3AA9C",
"^. c #ABB09A",
"/. c #8797A8",
"(. c #8A98AE",
"). c #85A7A7",
"_. c #8AAAB4",
"`. c #96ABB5",
"'. c #93B1B4",
"]. c #A4A5A2",
"[. c #A5ADA4",
"{. c #A9ADA4",
"}. c #A8ABA9",
"|. c #A5B1A6",
" X c #ACB2A6",
".X c #ACB2AA",
"XX c #A9B7AB",
"oX c #B4B7A9",
"OX c #B4BAAC",
"+X c #AFAEB1",
"@X c #B4BCB3",
"#X c #B7BCB8",
"$X c #B5C1AF",
"%X c #BCC4B5",
"&X c #BCC3BA",
"*X c #BBC7B8",
"=X c #C6CBAD",
"-X c #C3C9BA",
";X c #92B4CA",
":X c #A9B5C7",
">X c #86B2EF",
",X c #87BAF8",
"<X c #9EC9D9",
"1X c #A7C8D8",
"2X c #B1CCD0",
"3X c #B5E0CF",
"4X c #9CCFE8",
"5X c #89C4F7",
"6X c #94CCFC",
"7X c #8CD2FD",
"8X c #98D8FC",
"9X c #A7CBE8",
"0X c #A7D7E9",
"qX c #B4D9EA",
"wX c #A6D9F7",
"eX c #AADCFD",
"rX c #B8DDF6",
"tX c #9CE6FC",
"yX c #A9E7FA",
"uX c #ACE5FE",
"iX c #B4E8F4",
"pX c #B2E3FD",
"aX c #B4EAFD",
"sX c #B8E8F8",
"dX c #C4CAC1",
"fX c #C9CDC5",
"gX c #D3CFC2",
"hX c #C8D4C6",
"jX c #CDD5CC",
"kX c #CDD9CD",
"lX c #D6D4C5",
"zX c #D1D6CC",
"xX c #D2D8CC",
"cX c #CCD8D5",
"vX c #D2D8D3",
"bX c #D1E0DA",
"nX c #CAE7EA",
"mX c #D7EDEC",
"MX c #C6EBF4",
"NX c #C8F7FA",
"BX c #DAF8FD",
"VX c #E5FDFB",
/* pixels */
"2.2.:.>.#.#.>.:.>.:.>.>.>.d.4.4.4.4.4.4.<.;.;.;.;.:.*.:.;.;.@.*.;.:.:.:.>.2.2.<.4.2.2.2.4.2.2.2.2.2.2.,.;.*.;.,.&.;.;.,.<.4.2.2.",
"<.<.>.#.%.#.@.:.;.;.@.>.>.a.s.d.4.4.4.f.3.*.O.*.:.#.+.@.:.:.;.#.:.;.:.:.:.<.<.3.2.2.2.4.4.2.2.<.2.2.<.,.,.*.&.&.;.*.;.1.<.2.2.2.",
"<.2.>.#.$.#.#.:.;.;.;.@.:.>.4.4.f.f.s.s.2.2.;.:.:.3.>.>.<.>.:.:.:.:.:.:.<.3.3.<.2.2.2.2.2.2.2.<.<.<.<.<.,.,.;.;.&.&.;.1.<.<.2.2.",
"<.2.#.$.#.#.:.;.;.;.;.@.@.:.2.4.4.d.f.s.4.4.4.f.3.4.4.4.4.3.:.@.O.:.:.:.=.=.<.3.<.<.2.2.2.2.2.2.<.<.<.,.,.1.&.;.;.&.&.*.,.,.<.2.",
"2.<.>.$.#.#.:.:.;.;.;.&.;.;.>.2.a.f.s.f.f.f.f.f.4.d.d.j.g.d.>.:.:.>.:.:.:.3.:.3.:.<.2.4.2.2.<.2.2.<.<.<.,.*.;.,.,.&.&.&.*.*.,.<.",
"<.<.#.#.$.#.#.:.;.1.&.;.;.;.>.>.>.>.2.2.f.f.g.j.j.j.h.h.d.s.2.3.>.2.3.2.:.:.=.<.:.,.<.<.3.<.2.<.<.<.<.,.,.,.,.,.,.,.&.&.&.*.,.,.",
",.,.:.#.%.#.#.;.1.1.1.;.;.;.;.;.;.;.;.:.4.4.f.j.d.h.h.d.f.h.f.s.f.f.s.2.:.:.=.:.,.<.,.2.<.<.2.<.<.,.<.<.,.,.;.;.,.,.&.&.&.,.,.,.",
",.;.@.#.$.$.#.:.1.&.1.&.&.;.;.;.@.;.;.2.2.2.s.s.s.a.h.h.j.j.h.j.v.j.g.s.:.;.;.=.<.=.,.=.<.<.<.<.<.<.<.,.,.,.,.,.,.&.,.,.&.*.,.,.",
"1.;.@.$.$.@.@.@.,.,.1.<.,.,.,.,.&.;.;.;.>.>.a.4.a.>.5. . .9.0.0.{ { 7.r.w.:.:.:.:.;.;.;.:.<.<.<.<.<.<.1.,.,.,.,.&.,.,.,.,.,.,.,.",
"1.;.@.@.@.$.@.;.,.1.;.;.,.,.,.,.;.;.@.;.;.>.>.>.1.X.5. .r.t.t.K.r./././.u. .#.:.:.:.;.=.<.<.<.<.<.<.<.,.,.,.,.,.,.,.,.,.,.&.,.,.",
",.,.>.@.$.@.:.@.&.;.;.;.,.,.*.,.&.1.&.;.;.;.;.1.k.y.[ u.+X#X#X:X&X:X+X`.(./.5.:.:.:.:.=.=.<.<.=.<.<.1.1.,.,.,.,.,.,.,.,.,.,.,.,.",
"<.,.:.:.:.:.@.:.1.;.1.;.*.;.*.,.;.1.1.;.1.;.1.| y.u././.:XdXfXzXjXhXhX@X}.(.z.:.:.:.=.:.<.=.3.<.2.<.,.1.1.1.,.,.,.,.,.,.,.,.,.,.",
",.<.<.=.:.:.:.>.@.:.:.:.:.:.@.;.,.,.,.;.a.k.w.8.U.~.{.oX-XlXgXzXjXkXhX=X^.E.u.5.+.:.#.=.:.>.3.<.2.<.<.<.1.1.1.2.,.,.,.,.&.,.,.,.",
"<.<.<.<.:.:.#.:.>.@.:.:.:.:.@.:.,.,.*.1.w.y.q.R.|.oX-XfXzXvXvXzXcXcXcXgX=X X/.{ | O.=.#.=.:.:.<.<.<.<.<.,.,.1.1.,.,.,.,.,.,.&.,.",
"*.,.*.<.=.:.@.@.;.;.:.:.:.:.:.:.,.=.,.5.y.y.R.~.XX*X-XhXkXkXcXcXcXbXcXvX-XoXH.9.' ] _ :.;.,.:.:.=.<.<.<.,.,.,.,.,.,.,.,.,.,.,.,.",
",.=.*.=.:.:.@.@.>.:.:.:.:.:.:.:.,.,.5.| t.W.^.|.*X-XhXkXkXzXkXvXcXcXbXjX-X#X].K.Y F v ] _ :.;.;.,.<.<.,.,.,.,.,.,.,.,.&.,.,.,.,.",
";.*.O.+.+.#.:.#.:.:.:.:.:.:.:.;.:.%._ [ /.E.^.|.*X-XkXkXkXjXzXxXzXxXvXhX&XOX}.}.I.! F x / X.*.&.*.*.,.&.*.<.<.=.<.<.,.=.<.=.,.,.",
";.*.=.=.+.+.+.+.#.;.=.:.,.:.:.:.-.| ] C Q..X}.XX*XfXkXjXxXjXxXlXlXxXxX=X@X.X#X&X%XoX~ Y l _ o.*.&.*.,.*.<.=.<.=.<.,.,.,.<.<.<.*.",
"*.*.=.=.#.+.+.#.+.+.*.,.=.:.:.;.| c x B Y.+X+X+XdXjXjXzXjXzXxXzXlXzXxX*XXXXX-X#X-XoXQ.E F ` / *.*.*.*.,.=.<.=.,.=.*.<.<.,.:.,.=.",
"1.;.=.=.+.o.+.+.O.=.*.=.;.:.:.=.] r p A J.].}.+XdXhXvXzXzXkXkXzXjXjXhX@XoXOX#X=X-X-X$XW.T g o ;.;.*.=.*.*.*.<.=.=.*.*.*.=.,.:.,.",
":.=.+.+.+.+.%.+.O.+.=.=.=.*.,.c x a A ! F.F.Q. X#X-XjXjXvXvXvXkXzXfX-X.X XoX-X%X%X=XoXQ.R n f 4 X o o  ...*.=.:.*.=.=.*.*.,.:.,.",
"*.*.+.+.+.+.o.+.+.+.=.) _ [ [ F F V I C.V.D.~..X@X&XfXjXzXzXzXjXzXdX&X{.].oX-X-X%X%XoXQ.I V N j s h ` ` *.*.=.=.=.*.=.=.*.,.:.;.",
"*.*.=.+.+.+.o.o.+.+./ ^ h v F D.Q ! C.J.B.D.~.|.{..X-X-XjXjXjXjXzX#X.XY.G.{.%X%XOXoXT.T.N.u a R R b d g =.=.3.=.=.=.=.<.<.=.,.:.",
"<.<.=.-.+.o.o.o.+.+.h s t A R C.! ! Z.J.V.F.~.|.}. X&X2XfXfXfX&X&X.X.XT.L.T.oXoX XQ.L.Z.H t a E E M N 1 =.:.=.=.=.=.=.=.=.=.<.<.",
"4.4.-.:.o.o.o.o.o.] x b P C.C.C.! D.J.J.V.L.!.|.}..X&X&X2XoX.XY.P.Y.].I.F.F.V.D.A.D.N.H x b V R Q N.} 8 *.=.=.=.-.=.=.:.:.=.<.2.",
"4.4.3.:.#.#.#.o.@.c N y P Z.F.! ! D.L.H.V.G.].|.[.}.@X@X#XOX{.Y.U.I.Y.I.L.F.B.V.A.A.8.C f G I E E T G 1 :.>.:.:.=.=.=.=.,.<.<.4.",
"2.s.d.>.#.>.$.$.:.0 n u H B.B.~ ~ N.B.F.Z.F.~.^. X.X|..X.X|.{.{.{.Y.L.T.!.I.V.N.A.A.I t 5 N.N.C.R p 0 4 2.2.2.2.=.=.=.=.,.<.2.2.",
"a.s.s.>.>.3.a.>.5 q M u V W L T ~ ~ Q S.G.I.~.{..XXX|.[.{.{.}.{. XI.L.Y.].Y.D.V.B.R Z q - I 6.I S y 0 @ s.s.4.4.<.<.=.<.,.<.<.2.",
"2.s.d.3.d.d.d.s 6 q M y y n y V S V.S.S.].[.[.XX&X%X X{.{.[.{.+X.XI.L.Y.!.P.V.V.N.K y 9 - n j n y b 0 3 5.X.4.4.4.2.>.;.:.:.:.<.",
":.2.>.d.d.) ` f b y y y y u V N.V.V.S.A.F.P.OX$X$X*X%X@X{. X{.{.{.{.].I.L.Z.Z.B.B.W L B 9 - - - 6 y q t l l ` ( f.s.2.;.:.,.:.;.",
";.;.>.>...) h c N y b b M M H Z.F.B.S.N.S.L.@X*X*X*X*X%X.X{.~.{.{.{.{.P.V.V.B.B.B.B.U V q - * * - e e n x z o ^ g.g.f.2.;.;.;.:.",
";.;.>.$._ _ ] l N b b y Z W F.T.I.B.V.S.E.].*X&X%X%X&X%X#X~.I.G.G.L.L.W G T F.F.N.K B M u y 7 @ - n n k g g ` | X.g.f.2.1.;.1.1.",
";.:.<.@.X.| ' D x B m B K F.E.].E.S.S.S.].].%X%X#X=X#X=X&XE.F.Z.Z.V.N.L B S B.S.N.Z y n b n e & - y j k g . `  .5.5.g.4.,.,.;.*.",
"*.;.:.M.z.[ f d G Y N.S.W.~.].[.].E.I.S.L.I. XoX{. X-X%X!.G.A.Z.Z.Z.V.K M B H W W J r n u y 0 & @ 2 2 - $ > h ` c.,X4.2.,.,.;.*.",
";.,.k.,X_.' 8 r J N.P.W.~.{.[..X|.].E.S.Z.L.~.{.~.~.#XOXG.B.B.V.V.C.N.S b b C L T Z y n u n 0 * & $ & # + & o o n.6Xv.4.1.,.;.*.",
";.*.X. .x x q u T S.[.[.^.{.|.[.[.[.].].!.!.I.D.S S F.G.F.B.Z.Z.V.L G M p m y M M M y u u y e + + $ $ > + + /.>Xb.l.4.4.4.<.1.*.",
",.b.b.^ % 6 u a A.W.|.[.[.|.|.[.|.|.{.{.F.V.L S p p Q A.B.N.B.Z.Z.G B m y b r b m m y p y y 0 @ & 5 6 6 ; : H._.w.( k.x.f.4.1.,.",
"%.>X>Xc + - w A F.W.|.[.|.|.[.|.|.{.{.!.L J C M p M Q D.C.B.Z.Z.V.H B b b y b y y y y y u n e @ - 0 e t q q D c ^ o n.,Xg.f.2.1.",
"b.wX0XD . $ j W P.I.[.[.|.[.|.~.|.~.!.P.B y y y y M S L B.B.V.N.6.B 0 0 0 y i y y C A Z V 0 6 @ * y u t u n 3 1 D 0.z.>Xg.g.4.2.",
"6XsX0Xc . $ b T S.F.W.[.{.{.|.[..X[.E.F.M y y y e y p Z N.V.V.L H e 5 - ; 6 0 r M S W Q A 5 - $ 2 y u y n u 9 3 /.:Xz.z.f.f.f.2.",
",XeXwXv < k H N.B.B.A.B.P.I.E.W.!.P.V.L m y y y b b p p S K Z b 9 - $ - 0 b S Z K T B.D.I - . # & 6 q y t r 0 3 H._.i.z.%.4.4.2.",
"l.wX0Xc 0 B N.B.B.B.W K W L.P.L.P.D.W B n y m y y t y i B b r 5 < 2 = 6 n G W W B.Q B.C.U =   O & - ; y y b 0 d D c c.6Xv.s.f.s.",
"x.eXwX`.H.H.N.S.D.D.K M V L T L L L Z b 0 7 b y y t p t t ; @ O + O + - b K B.A.D.B.B.C.U B e $ & & & 6 q q r 0 , X ;XeXf.f.f.f.",
"6XrXpX2X@XW.N.A.B.D.K a p B B Z B Z B y 5 ; y b i y y t y 6 * O @ + & - e K N.B.B.Q B.D.B.U G - < @ & ; 7 y 6 5 % X i.eXf.s.2.2.",
"aXMXnX2X].L.T L R R T M y b m b r 7 7 6 * - e n y y y i i 7 6 & & $ & * 0 M W W A.B.C.C.Z.Z.U > $ $ $ $ 2 9 < # m 8.<XaX1.1.<.2.",
"NXVXMXG N L W Z S R S p y b b z 8 O @ - + * e b n b y y y y i 8 & # + 6 M b B L Q B.B.C.B.V.H 2 < > $ $ # . # > U.2XiXaX,.1.1.,.",
"NXVXmXF 0 B J Z S S M p y M N y 0 @ O % 2 7 q n y b y t y b b 6 & & & 7 b b M Z W Q A.~ B.6.G 2 $ $ $ > % # > % 0.`.0XaX<.1.1.;.",
"wXVXmXJ 5 z Z T T C i r y y y 0 6 & $ 2 q b u n y y m m y b y 6 & & @ 7 b y y t p K Q Q U k 9 $ > > > $ # > f f m Y 2XNX:.<.1.;.",
"m.BXmXG k D L L L J V p m r q 6 5 $ > < 5 q y u y y n y 7 0 6 - & - 2 q i t p t p Z K S B 0 3 > > > > = # < } H.].].3XNX;.1.2.1.",
"<.pXNXq.H 8.L B A W K n y y 7 $ # > < $ @ - q y y n b e 5 & & + @ 9 e b y y t t t t 7 ; O & > $ > > = . & - :XmXBXBXMXaX;.1.1.<.",
",.eXMX`.H.L n n a I V a r y 6 + $ > < $ + - e b b y 7 6 6 2 & $ $ ; 6 y p y q y r 0 6 < . $ > > = = > . + + 7.`.nXVXsXuX1.2.<.2.",
"2.M.wXrX).v < 7 w w w t r b 6 $ $ $ $ $ & * y e u e ; ; e 9 - # $ @ @ 6 y u n e e ; # # # $ $ & . = + =     g l `.MXyXtX<.;.<.1.",
",.2.<.6X).v 4 b w w w n i n 9 < & $ $ & $ - b b ; ; 9 e 2 9 j 2 > @ & 5 n u u q = = > < > > $ > $ > & $ 6 z (.;X;Xk.k.v.;.<.1.2.",
"<.1.l.8Xi.9.x x n n e e z e 9 $ $ # $ $ $ 2 e e 5 ; e e 2 9 d 9 & $ $ 6 j e e 6 $ = > 1 > > $ $ $ $ > < f F :XqXc.w.,.1.2.1.<.1.",
"1.M.7XuX0X9Xi.F b y j 6 2 < & $ $ $ $ $ # $ 2 2 0 0 6 5 d 9 2 $ $ $ = q j q - = . > = > = & # & % , X X ] r.4XuX8X7Xv.,.,.,.1.,.",
",.M.7XuXuXaX;Xq.F m 0 - . & & > $ $ O $ $ $ & - q 0 2 5 e 3 3 $ 2 $ = 6 q - = > . > = . = & % % , s s s e.i.4X6X7X7Xv.:.,.,.1.<.",
";.k.k.8XaXpXqX0XK.Y : - > $ . O @ # $ $ & # + + < 3 j 0 5 < > $ $ + O = - = = = - > 3 3 . # - d G :X2X1X4X8Xc.k.j.>.<.2.<.<.<.<.",
";.:.>.,X8X8XyXuX;Xq.v l s l s 4 4 4 < > 8 < % @ @ < e q - @ $ $ $ $ $ > > $ $ > < : 3 g f x c ] r.rXrXrXtX8Xl.*.;.1.<.2.2.<.,.<.",
"2.:.:.:.:.k.n.6XtX0X1X1X1X;X_.9.v r z d f f < , , # 3 $ = + = > # $ $ > < $ $ $ %   Y t.9X1X<X9X0XyXyXyXn.l.;.*.;.;.<.<.<.<.<.<.",
"1.:.<.:.>.2.x.,XtX0XiXiXrXqX<X).q.J J L } G z f k f 3 > > $ = = $ + + * $ & * + @ : 8.'.MXrXrXrXeXeXeX8Xl.&.*.;.;.;.1.<.<.<.<.<.",
"2.:.:.>.3.:.#.#.m.7XaXpXsXuXsXMXnXbXbXbXnXnX2X<X9X;Xs 1 , > = . = = - $ > > > X 4 s 9.i.iXsXyXyX8Xx.l.v.*.*.;.*.*.,.,.,.<.<.<.2.",
";.:.:.:.#.:.#.:.$.;.:.n.M.m.8XNXBXVXVXVXNXNXaXaXsXqX/.0.0 5 5 q 6 3 f g k { 0.K./.t.'.<XaXuXtXn.x.p.*.,.*.*.*.;.;.;.*.;.,.<.<.<.",
"<.>.:.@.#.#.@.@.:.:.>.>.>.s.m.aXNXBXBXBXsXsXyXyXiX0X1X'.F f 0 r j j r 4 } /.2X1X<X1X9XwXuXuX6Xl.:.<.,.*.*.*.&.;.*.,.;.,.<.<.2.<.",
"<.2.>.#.#.:.#.>.;.>.>.>.3.3.4.4.4.5X5X5Xm.5XtXtXyXyXiX0X'._.'._._.).i._.@X3XNXBXNXNXwX6Xn.n.2.2.4.2.2.,.;.*.&.;.*.,.;.,.<.<.2.2."
};
